; generated by Slic3r 0.9.7 on 2013-11-04 at 16:27:46

; layer_height = 0.15
; perimeters = 2
; top_solid_layers = 3
; bottom_solid_layers = 2
; fill_density = 0.4
; perimeter_speed = 20
; infill_speed = 30
; travel_speed = 300
; scale = 1
; nozzle_diameter = 0.5
; filament_diameter = 1.71
; extrusion_multiplier = 0.9
; perimeters extrusion width = 0.50mm
; infill extrusion width = 0.50mm
; support material extrusion width = 0.11mm
; first layer extrusion width = 0.50mm

M107
M190 S63 ; wait for bed temperature to be reached
M104 S200 ; set temperature
G1 Z0.15 F200
G1 X15 Y20 F12000
M109 S200 ; wait for temperature to be reached
G90 ; use absolute coordinates
G21 ; set units to millimeters
M83 ; use relative distances for extrusion
G1 F2220.000 E-1.60000
G1 Z0.300 F18000.000
G1 X40.320 Y58.308
G1 F2220.000 E1.60000
G1 X40.860 Y57.938 F600.000 E0.03848
G1 X41.520 Y57.538 E0.04537
G1 X42.090 Y57.228 E0.03814
G1 X42.740 Y56.918 E0.04233
G1 X43.300 Y56.688 E0.03559
G1 X43.980 Y56.438 E0.04259
G1 X44.600 Y56.238 E0.03829
G1 X45.340 Y56.048 E0.04491
G1 X46.030 Y55.918 E0.04127
G1 X46.790 Y55.808 E0.04514
G1 X47.380 Y55.748 E0.03486
G1 X48.480 Y55.698 E0.06473
G1 X91.470 Y55.698 E2.52708
G1 X92.490 Y55.738 E0.06000
G1 X93.160 Y55.798 E0.03954
G1 X93.920 Y55.908 E0.04514
G1 X94.610 Y56.038 E0.04127
G1 X95.350 Y56.228 E0.04491
G1 X96.640 Y56.668 E0.08012
G1 X97.260 Y56.918 E0.03930
G1 X97.910 Y57.228 E0.04233
G1 X98.480 Y57.538 E0.03814
G1 X99.140 Y57.938 E0.04537
G1 X99.680 Y58.308 E0.03848
G1 X100.290 Y58.768 E0.04491
G1 X101.280 Y59.628 E0.07709
G1 X101.790 Y60.138 E0.04240
G1 X102.300 Y60.708 E0.04496
G1 X102.750 Y61.258 E0.04177
G1 X103.510 Y62.358 E0.07859
G1 X103.900 Y63.018 E0.04506
G1 X104.170 Y63.528 E0.03392
G1 X104.480 Y64.178 E0.04233
G1 X104.760 Y64.868 E0.04377
G1 X105.010 Y65.598 E0.04536
G1 X105.340 Y66.818 E0.07429
G1 X105.480 Y67.508 E0.04139
G1 X105.590 Y68.288 E0.04630
G1 X105.640 Y68.938 E0.03832
G1 X105.670 Y70.208 E0.07468
G1 X105.640 Y70.958 E0.04412
G1 X105.590 Y71.608 E0.03832
G1 X105.480 Y72.388 E0.04630
G1 X105.340 Y73.078 E0.04139
G1 X105.010 Y74.298 E0.07429
G1 X104.760 Y75.028 E0.04536
G1 X104.490 Y75.678 E0.04137
G1 X103.900 Y76.888 E0.07913
G1 X103.510 Y77.548 E0.04506
G1 X103.170 Y78.058 E0.03603
G1 X102.720 Y78.678 E0.04503
G1 X102.300 Y79.188 E0.03884
G1 X101.790 Y79.758 E0.04496
G1 X101.330 Y80.228 E0.03866
G1 X100.760 Y80.748 E0.04535
G1 X100.290 Y81.138 E0.03590
G1 X99.680 Y81.598 E0.04491
G1 X99.080 Y82.008 E0.04272
G1 X98.420 Y82.398 E0.04506
G1 X97.910 Y82.668 E0.03392
G1 X97.260 Y82.978 E0.04233
G1 X96.700 Y83.208 E0.03559
G1 X96.020 Y83.458 E0.04259
G1 X95.400 Y83.658 E0.03829
G1 X94.660 Y83.848 E0.04491
G1 X94.050 Y83.968 E0.03654
G1 X93.290 Y84.088 E0.04523
G1 X92.620 Y84.158 E0.03960
G1 X91.550 Y84.208 E0.06297
G1 X69.550 Y84.298 E1.29324
G1 X48.450 Y84.208 E1.24033
G1 X47.380 Y84.158 E0.06297
G1 X46.710 Y84.088 E0.03960
G1 X45.950 Y83.968 E0.04523
G1 X45.340 Y83.848 E0.03654
G1 X44.600 Y83.658 E0.04491
G1 X43.980 Y83.458 E0.03829
G1 X43.300 Y83.208 E0.04259
G1 X42.740 Y82.978 E0.03559
G1 X42.090 Y82.668 E0.04233
G1 X41.580 Y82.398 E0.03392
G1 X40.920 Y82.008 E0.04506
G1 X40.320 Y81.598 E0.04272
G1 X39.710 Y81.138 E0.04491
G1 X39.240 Y80.748 E0.03590
G1 X38.670 Y80.228 E0.04535
G1 X38.210 Y79.758 E0.03866
G1 X37.700 Y79.188 E0.04496
G1 X37.280 Y78.678 E0.03884
G1 X36.830 Y78.058 E0.04503
G1 X36.490 Y77.548 E0.03603
G1 X36.100 Y76.888 E0.04506
G1 X35.510 Y75.678 E0.07913
G1 X35.240 Y75.028 E0.04137
G1 X34.990 Y74.298 E0.04536
G1 X34.660 Y73.078 E0.07429
G1 X34.520 Y72.388 E0.04139
G1 X34.410 Y71.608 E0.04630
G1 X34.320 Y70.298 E0.07719
G1 X34.320 Y69.598 E0.04115
G1 X34.410 Y68.288 E0.07719
G1 X34.520 Y67.508 E0.04630
G1 X34.660 Y66.818 E0.04139
G1 X34.990 Y65.598 E0.07429
G1 X35.240 Y64.868 E0.04536
G1 X35.520 Y64.178 E0.04377
G1 X35.830 Y63.528 E0.04233
G1 X36.470 Y62.388 E0.07685
G1 X36.830 Y61.838 E0.03864
G1 X37.280 Y61.218 E0.04503
G1 X37.700 Y60.708 E0.03884
G1 X38.210 Y60.138 E0.04496
G1 X38.720 Y59.628 E0.04240
G1 X39.710 Y58.768 E0.07709
G1 X40.260 Y58.353 E0.04050
G1 X40.320 Y58.308 E0.00441
G1 F2220.000 E-1.60000
G1 X38.581 Y65.925 F18000.000
G1 F2220.000 E1.60000
G1 X39.068 Y64.874 F600.000 E0.06808
G1 X39.614 Y63.958 E0.06268
G1 X40.156 Y63.217 E0.05397
G1 X40.863 Y62.417 E0.06275
G1 X41.645 Y61.692 E0.06269
G1 X42.496 Y61.049 E0.06273
G1 X43.020 Y60.726 E0.03612
G1 X43.810 Y59.357 E0.09295
G1 X46.211 Y58.714 E0.14609
G1 X47.198 Y59.284 E0.06702
G1 X47.479 Y59.248 E0.01666
G1 X48.542 Y59.199 E0.06252
G1 X49.454 Y59.242 E0.05371
G1 X49.799 Y59.285 E0.02042
G1 X50.518 Y58.870 E0.04879
G1 X52.919 Y59.513 E0.14609
G1 X53.438 Y60.413 E0.06105
G1 X54.504 Y61.049 E0.07295
G1 X55.355 Y61.692 E0.06272
G1 X56.137 Y62.417 E0.06269
G1 X56.844 Y63.217 E0.06275
G1 X57.386 Y63.959 E0.05400
G1 X58.000 Y65.003 E0.07119
G1 X58.419 Y65.925 E0.05954
G1 X58.723 Y66.792 E0.05403
G1 X59.007 Y67.970 E0.07125
G1 X59.277 Y66.880 E0.06603
G1 X59.636 Y65.878 E0.06255
G1 X60.068 Y64.962 E0.05955
G1 X60.614 Y64.046 E0.06268
G1 X61.250 Y63.188 E0.06278
G1 X61.968 Y62.398 E0.06274
G1 X62.761 Y61.685 E0.06270
G1 X63.496 Y61.137 E0.05393
G1 X64.020 Y60.814 E0.03612
G1 X64.810 Y59.445 E0.09295
G1 X67.211 Y58.802 E0.14609
G1 X68.198 Y59.372 E0.06702
G1 X68.479 Y59.336 E0.01666
G1 X69.542 Y59.287 E0.06252
G1 X70.454 Y59.330 E0.05371
G1 X70.799 Y59.373 E0.02042
G1 X71.518 Y58.958 E0.04879
G1 X73.919 Y59.601 E0.14609
G1 X74.438 Y60.501 E0.06105
G1 X75.504 Y61.137 E0.07295
G1 X76.355 Y61.780 E0.06272
G1 X77.137 Y62.505 E0.06269
G1 X77.844 Y63.305 E0.06275
G1 X78.386 Y64.047 E0.05400
G1 X78.999 Y65.091 E0.07119
G1 X79.419 Y66.013 E0.05954
G1 X79.723 Y66.880 E0.05403
G1 X79.973 Y67.870 E0.06001
G1 X80.134 Y68.937 E0.06344
G1 X80.190 Y69.972 E0.06094
G1 X80.148 Y71.006 E0.06084
G1 X80.001 Y72.075 E0.06344
G1 X79.765 Y73.069 E0.06002
G1 X79.419 Y74.075 E0.06255
G1 X79.000 Y74.997 E0.05953
G1 X78.468 Y75.916 E0.06242
G1 X77.750 Y76.900 E0.07160
G1 X77.137 Y77.583 E0.05394
G1 X76.355 Y78.308 E0.06270
G1 X75.379 Y79.035 E0.07153
G1 X74.467 Y79.573 E0.06227
G1 X73.559 Y79.997 E0.05889
G1 X72.602 Y80.339 E0.05971
G1 X71.720 Y80.567 E0.05360
G1 X70.521 Y80.752 E0.07130
G1 X69.436 Y80.801 E0.06382
G1 X68.479 Y80.752 E0.05634
G1 X67.280 Y80.567 E0.07132
G1 X66.259 Y80.296 E0.06211
G1 X65.312 Y79.943 E0.05941
G1 X64.405 Y79.505 E0.05918
G1 X63.497 Y78.951 E0.06256
G1 X62.761 Y78.403 E0.05393
G1 X61.968 Y77.689 E0.06269
G1 X61.156 Y76.783 E0.07153
G1 X60.614 Y76.042 E0.05400
G1 X60.068 Y75.126 E0.06269
G1 X59.635 Y74.210 E0.05955
G1 X59.277 Y73.208 E0.06254
G1 X58.993 Y72.029 E0.07125
G1 X58.723 Y73.120 E0.06603
G1 X58.364 Y74.122 E0.06255
G1 X57.932 Y75.038 E0.05953
G1 X57.386 Y75.954 E0.06270
G1 X56.844 Y76.695 E0.05399
G1 X56.137 Y77.495 E0.06274
G1 X55.355 Y78.220 E0.06270
G1 X54.503 Y78.863 E0.06272
G1 X53.595 Y79.417 E0.06255
G1 X52.559 Y79.909 E0.06742
G1 X51.602 Y80.251 E0.05971
G1 X50.573 Y80.509 E0.06240
G1 X49.521 Y80.664 E0.06250
G1 X48.436 Y80.713 E0.06382
G1 X47.479 Y80.664 E0.05634
G1 X46.427 Y80.509 E0.06252
G1 X45.398 Y80.251 E0.06237
G1 X44.441 Y79.910 E0.05970
G1 X43.405 Y79.417 E0.06742
G1 X42.497 Y78.863 E0.06256
G1 X41.645 Y78.220 E0.06274
G1 X40.863 Y77.495 E0.06268
G1 X40.250 Y76.812 E0.05393
G1 X39.614 Y75.954 E0.06280
G1 X39.068 Y75.038 E0.06269
G1 X38.581 Y73.987 E0.06808
G1 X38.235 Y72.981 E0.06254
G1 X37.999 Y71.988 E0.06000
G1 X37.852 Y70.919 E0.06341
G1 X37.810 Y69.886 E0.06079
G1 X37.866 Y68.850 E0.06099
G1 X38.027 Y67.782 E0.06350
G1 X38.235 Y66.931 E0.05148
G1 X38.556 Y65.996 E0.05814
G1 X38.581 Y65.925 E0.00441
G1 F2220.000 E-1.60000
G1 X80.852 Y68.994 F18000.000
G1 F2220.000 E1.60000
G1 X80.999 Y67.925 F600.000 E0.06349
G1 X81.277 Y66.792 E0.06854
G1 X81.636 Y65.790 E0.06255
G1 X82.068 Y64.874 E0.05955
G1 X82.532 Y64.084 E0.05388
G1 X83.156 Y63.217 E0.06278
G1 X83.968 Y62.311 E0.07155
G1 X84.761 Y61.597 E0.06270
G1 X85.496 Y61.049 E0.05393
G1 X86.020 Y60.726 E0.03612
G1 X86.810 Y59.357 E0.09295
G1 X89.211 Y58.714 E0.14609
G1 X90.198 Y59.284 E0.06702
G1 X90.479 Y59.248 E0.01666
G1 X91.542 Y59.199 E0.06252
G1 X92.454 Y59.242 E0.05371
G1 X92.799 Y59.285 E0.02042
G1 X93.518 Y58.870 E0.04879
G1 X95.919 Y59.513 E0.14609
G1 X96.438 Y60.413 E0.06105
G1 X97.379 Y60.965 E0.06415
G1 X98.355 Y61.692 E0.07153
G1 X99.137 Y62.417 E0.06269
G1 X99.750 Y63.100 E0.05394
G1 X100.386 Y63.959 E0.06281
G1 X100.999 Y65.003 E0.07119
G1 X101.419 Y65.925 E0.05954
G1 X101.765 Y66.931 E0.06255
G1 X102.001 Y67.925 E0.06001
G1 X102.134 Y68.849 E0.05491
G1 X102.190 Y69.884 E0.06094
G1 X102.148 Y70.918 E0.06084
G1 X102.001 Y71.987 E0.06344
G1 X101.765 Y72.981 E0.06002
G1 X101.419 Y73.987 E0.06255
G1 X101.000 Y74.909 E0.05953
G1 X100.468 Y75.828 E0.06242
G1 X99.844 Y76.695 E0.06279
G1 X99.137 Y77.495 E0.06274
G1 X98.355 Y78.220 E0.06270
G1 X97.503 Y78.863 E0.06272
G1 X96.595 Y79.417 E0.06255
G1 X95.559 Y79.909 E0.06742
G1 X94.602 Y80.251 E0.05971
G1 X93.573 Y80.509 E0.06240
G1 X92.521 Y80.664 E0.06250
G1 X91.436 Y80.713 E0.06382
G1 X90.479 Y80.664 E0.05634
G1 X89.427 Y80.509 E0.06252
G1 X88.398 Y80.251 E0.06237
G1 X87.441 Y79.910 E0.05970
G1 X86.533 Y79.486 E0.05889
G1 X85.621 Y78.947 E0.06228
G1 X84.761 Y78.315 E0.06274
G1 X83.968 Y77.602 E0.06269
G1 X83.250 Y76.812 E0.06273
G1 X82.614 Y75.954 E0.06280
G1 X82.068 Y75.038 E0.06269
G1 X81.635 Y74.122 E0.05955
G1 X81.277 Y73.120 E0.06254
G1 X81.027 Y72.130 E0.06000
G1 X80.866 Y71.064 E0.06341
G1 X80.810 Y70.026 E0.06107
G1 X80.848 Y69.069 E0.05630
G1 X80.852 Y68.994 E0.00441
G1 X79.649 Y69.117 F18000.000
G1 X79.690 Y70.101 F600.000 E0.05789
G1 X79.638 Y71.091 E0.05830
G1 X79.485 Y72.111 E0.06059
G1 X79.247 Y73.054 E0.05717
G1 X78.906 Y74.010 E0.05970
G1 X78.495 Y74.883 E0.05668
G1 X77.975 Y75.757 E0.05979
G1 X77.369 Y76.575 E0.05985
G1 X76.685 Y77.329 E0.05981
G1 X75.930 Y78.010 E0.05977
G1 X75.111 Y78.612 E0.05979
G1 X74.241 Y79.127 E0.05941
G1 X73.377 Y79.532 E0.05612
G1 X72.466 Y79.858 E0.05689
G1 X71.484 Y80.105 E0.05949
G1 X70.482 Y80.253 E0.05957
G1 X69.443 Y80.301 E0.06113
G1 X68.518 Y80.253 E0.05444
G1 X67.515 Y80.105 E0.05958
G1 X66.534 Y79.858 E0.05946
G1 X65.623 Y79.532 E0.05688
G1 X64.652 Y79.070 E0.06322
G1 X63.785 Y78.543 E0.05964
G1 X62.973 Y77.930 E0.05980
G1 X62.227 Y77.240 E0.05975
G1 X61.552 Y76.478 E0.05980
G1 X60.957 Y75.652 E0.05987
G1 X60.449 Y74.776 E0.05954
G1 X60.049 Y73.898 E0.05671
G1 X59.718 Y72.938 E0.05969
G1 X59.492 Y71.992 E0.05715
G1 X59.351 Y70.972 E0.06057
G1 X59.310 Y69.986 E0.05801
G1 X59.362 Y68.997 E0.05817
G1 X59.492 Y68.096 E0.05354
G1 X59.718 Y67.150 E0.05717
G1 X60.049 Y66.190 E0.05970
G1 X60.449 Y65.312 E0.05671
G1 X61.025 Y64.331 E0.06687
G1 X61.631 Y63.513 E0.05984
G1 X62.315 Y62.759 E0.05981
G1 X63.069 Y62.078 E0.05976
G1 X63.785 Y61.545 E0.05246
G1 X64.388 Y61.176 E0.04153
G1 X65.140 Y59.874 E0.08839
G1 X67.140 Y59.338 E0.12174
G1 X68.100 Y59.893 E0.06518
G1 X68.518 Y59.835 E0.02479
G1 X69.531 Y59.787 E0.05959
G1 X70.419 Y59.829 E0.05224
G1 X70.898 Y59.893 E0.02846
G1 X71.589 Y59.495 E0.04686
G1 X73.589 Y60.031 E0.12174
G1 X74.083 Y60.886 E0.05803
G1 X74.348 Y61.018 E0.01744
G1 X75.111 Y61.476 E0.05229
G1 X76.027 Y62.158 E0.06712
G1 X76.773 Y62.848 E0.05976
G1 X77.369 Y63.513 E0.05247
G1 X77.975 Y64.331 E0.05987
G1 X78.495 Y65.205 E0.05975
G1 X78.951 Y66.190 E0.06380
G1 X79.247 Y67.034 E0.05260
G1 X79.485 Y67.977 E0.05716
G1 X79.642 Y69.042 E0.06329
G1 X79.649 Y69.117 E0.00441
G1 F2220.000 E-1.60000
G1 X58.690 Y69.896 F18000.000
G1 F2220.000 E1.60000
G1 X58.649 Y70.883 F600.000 E0.05806
G1 X58.508 Y71.904 E0.06059
G1 X58.282 Y72.850 E0.05717
G1 X57.951 Y73.810 E0.05970
G1 X57.551 Y74.688 E0.05668
G1 X57.043 Y75.564 E0.05955
G1 X56.448 Y76.390 E0.05986
G1 X55.773 Y77.152 E0.05981
G1 X55.027 Y77.842 E0.05977
G1 X54.215 Y78.455 E0.05979
G1 X53.348 Y78.982 E0.05964
G1 X52.485 Y79.399 E0.05636
G1 X51.581 Y79.734 E0.05664
G1 X50.607 Y79.992 E0.05927
G1 X49.606 Y80.153 E0.05957
G1 X48.623 Y80.211 E0.05787
G1 X47.394 Y80.153 E0.07237
G1 X46.393 Y79.992 E0.05958
G1 X45.419 Y79.734 E0.05924
G1 X44.516 Y79.399 E0.05663
G1 X43.652 Y78.982 E0.05636
G1 X42.785 Y78.455 E0.05964
G1 X41.973 Y77.842 E0.05980
G1 X41.227 Y77.152 E0.05975
G1 X40.552 Y76.390 E0.05980
G1 X39.957 Y75.564 E0.05987
G1 X39.449 Y74.688 E0.05954
G1 X39.049 Y73.810 E0.05671
G1 X38.718 Y72.850 E0.05969
G1 X38.492 Y71.904 E0.05715
G1 X38.351 Y70.884 E0.06057
G1 X38.310 Y69.898 E0.05801
G1 X38.362 Y68.909 E0.05817
G1 X38.492 Y68.008 E0.05354
G1 X38.718 Y67.062 E0.05717
G1 X39.049 Y66.102 E0.05970
G1 X39.449 Y65.224 E0.05671
G1 X40.025 Y64.243 E0.06687
G1 X40.631 Y63.425 E0.05984
G1 X41.315 Y62.671 E0.05981
G1 X42.069 Y61.990 E0.05976
G1 X42.785 Y61.457 E0.05246
G1 X43.388 Y61.089 E0.04153
G1 X44.140 Y59.786 E0.08839
G1 X46.140 Y59.250 E0.12174
G1 X47.100 Y59.805 E0.06518
G1 X47.518 Y59.747 E0.02479
G1 X48.531 Y59.699 E0.05959
G1 X49.419 Y59.741 E0.05224
G1 X49.898 Y59.805 E0.02846
G1 X50.589 Y59.407 E0.04686
G1 X52.589 Y59.943 E0.12174
G1 X53.083 Y60.798 E0.05803
G1 X53.348 Y60.930 E0.01744
G1 X54.111 Y61.388 E0.05229
G1 X55.027 Y62.070 E0.06712
G1 X55.773 Y62.760 E0.05976
G1 X56.369 Y63.425 E0.05247
G1 X57.043 Y64.348 E0.06721
G1 X57.495 Y65.117 E0.05242
G1 X57.906 Y65.990 E0.05669
G1 X58.247 Y66.946 E0.05971
G1 X58.508 Y68.008 E0.06427
G1 X58.638 Y68.909 E0.05349
G1 X58.686 Y69.821 E0.05371
G1 X58.690 Y69.896 E0.00441
G1 F2220.000 E-1.60000
G1 X81.310 Y69.898 F18000.000
G1 F2220.000 E1.60000
G1 X81.362 Y68.909 F600.000 E0.05817
G1 X81.515 Y67.889 E0.06065
G1 X81.753 Y66.946 E0.05716
G1 X82.049 Y66.102 E0.05260
G1 X82.505 Y65.117 E0.06381
G1 X83.025 Y64.243 E0.05977
G1 X83.552 Y63.522 E0.05251
G1 X84.227 Y62.760 E0.05981
G1 X84.973 Y62.070 E0.05976
G1 X85.785 Y61.457 E0.05980
G1 X86.388 Y61.089 E0.04153
G1 X87.140 Y59.786 E0.08839
G1 X89.140 Y59.250 E0.12174
G1 X90.100 Y59.805 E0.06518
G1 X90.518 Y59.747 E0.02479
G1 X91.531 Y59.699 E0.05959
G1 X92.419 Y59.741 E0.05224
G1 X92.898 Y59.805 E0.02846
G1 X93.589 Y59.407 E0.04686
G1 X95.589 Y59.943 E0.12174
G1 X96.083 Y60.798 E0.05803
G1 X96.348 Y60.930 E0.01744
G1 X97.111 Y61.388 E0.05229
G1 X98.027 Y62.070 E0.06712
G1 X98.773 Y62.760 E0.05976
G1 X99.369 Y63.425 E0.05247
G1 X100.043 Y64.348 E0.06721
G1 X100.495 Y65.117 E0.05242
G1 X100.906 Y65.990 E0.05669
G1 X101.282 Y67.062 E0.06682
G1 X101.508 Y68.008 E0.05717
G1 X101.638 Y68.909 E0.05349
G1 X101.690 Y70.013 E0.06499
G1 X101.638 Y71.003 E0.05830
G1 X101.485 Y72.023 E0.06059
G1 X101.247 Y72.966 E0.05717
G1 X100.906 Y73.922 E0.05971
G1 X100.495 Y74.795 E0.05668
G1 X99.975 Y75.669 E0.05979
G1 X99.369 Y76.487 E0.05985
G1 X98.685 Y77.241 E0.05981
G1 X97.930 Y77.922 E0.05977
G1 X97.111 Y78.524 E0.05979
G1 X96.241 Y79.039 E0.05941
G1 X95.377 Y79.444 E0.05612
G1 X94.466 Y79.770 E0.05689
G1 X93.484 Y80.017 E0.05949
G1 X92.482 Y80.165 E0.05957
G1 X91.443 Y80.213 E0.06113
G1 X90.394 Y80.153 E0.06178
G1 X89.393 Y79.992 E0.05958
G1 X88.419 Y79.734 E0.05924
G1 X87.516 Y79.399 E0.05663
G1 X86.652 Y78.982 E0.05636
G1 X85.785 Y78.455 E0.05964
G1 X84.973 Y77.842 E0.05980
G1 X84.227 Y77.152 E0.05975
G1 X83.552 Y76.390 E0.05980
G1 X83.025 Y75.669 E0.05253
G1 X82.505 Y74.795 E0.05978
G1 X82.094 Y73.922 E0.05671
G1 X81.753 Y72.966 E0.05970
G1 X81.516 Y72.023 E0.05715
G1 X81.362 Y71.004 E0.06057
G1 X81.310 Y69.973 E0.06071
G1 X81.310 Y69.898 E0.00441
G1 F2220.000 E-1.60000
G1 X79.190 Y69.996 F18000.000
G1 F2220.000 E1.60000
G1 X79.150 Y70.935 F600.000 E0.05529
G1 X79.015 Y71.908 E0.05774
G1 X78.799 Y72.807 E0.05433
G1 X78.483 Y73.721 E0.05686
G1 X78.103 Y74.554 E0.05384
G1 X77.618 Y75.388 E0.05669
G1 X77.051 Y76.173 E0.05692
G1 X76.409 Y76.897 E0.05687
G1 X75.699 Y77.553 E0.05683
G1 X74.926 Y78.134 E0.05685
G1 X74.101 Y78.635 E0.05672
G1 X73.281 Y79.030 E0.05354
G1 X72.421 Y79.348 E0.05387
G1 X71.494 Y79.593 E0.05640
G1 X70.542 Y79.744 E0.05663
G1 X69.604 Y79.799 E0.05527
G1 X68.458 Y79.744 E0.06744
G1 X67.506 Y79.593 E0.05664
G1 X66.579 Y79.348 E0.05637
G1 X65.720 Y79.030 E0.05386
G1 X64.899 Y78.635 E0.05354
G1 X64.074 Y78.134 E0.05673
G1 X63.301 Y77.552 E0.05686
