; generated by Slic3r 0.9.7 on 2013-11-04 at 14:16:19

; layer_height = 0.15
; perimeters = 2
; top_solid_layers = 3
; bottom_solid_layers = 2
; fill_density = 0.4
; perimeter_speed = 20
; infill_speed = 30
; travel_speed = 300
; scale = 1
; nozzle_diameter = 0.5
; filament_diameter = 1.71
; extrusion_multiplier = 0.9
; perimeters extrusion width = 0.50mm
; infill extrusion width = 0.50mm
; support material extrusion width = 0.11mm
; first layer extrusion width = 0.50mm

M107
M190 S63 ; wait for bed temperature to be reached
M104 S200 ; set temperature
G1 Z0.15 F200
G1 X15 Y20 F12000
M109 S200 ; wait for temperature to be reached
G90 ; use absolute coordinates
G21 ; set units to millimeters
M83 ; use relative distances for extrusion
G1 F2220.000 E-1.60000
G1 Z0.300 F18000.000
G1 X63.280 Y58.273
G1 F2220.000 E1.60000
G1 X63.470 Y58.073 F600.000 E0.01622
G1 X63.880 Y57.703 E0.03246
G1 X64.540 Y57.213 E0.04832
G1 X65.260 Y56.813 E0.04842
G1 X65.770 Y56.603 E0.03242
G1 X66.290 Y56.433 E0.03216
G1 X66.550 Y56.363 E0.01583
G1 X68.160 Y56.053 E0.09638
G1 X68.410 Y56.023 E0.01480
G1 X68.890 Y55.983 E0.02831
G1 X71.100 Y55.983 E0.12991
G1 X71.830 Y56.053 E0.04311
G1 X73.430 Y56.363 E0.09580
G1 X74.200 Y56.593 E0.04724
G1 X74.940 Y56.923 E0.04763
G1 X75.630 Y57.333 E0.04718
G1 X76.270 Y57.833 E0.04774
G1 X76.840 Y58.403 E0.04739
G1 X77.170 Y58.823 E0.03140
G1 X77.480 Y59.273 E0.03212
G1 X77.740 Y59.733 E0.03106
G1 X78.060 Y60.473 E0.04739
G1 X80.830 Y68.113 E0.47771
G1 X81.000 Y68.653 E0.03328
G1 X81.120 Y69.193 E0.03252
G1 X81.190 Y69.753 E0.03317
G1 X81.220 Y70.313 E0.03297
G1 X81.200 Y70.873 E0.03294
G1 X81.170 Y71.153 E0.01655
G1 X81.010 Y71.973 E0.04911
G1 X80.110 Y74.913 E0.18074
G1 X79.850 Y75.633 E0.04500
G1 X78.410 Y78.893 E0.20950
G1 X78.130 Y79.443 E0.03628
G1 X77.970 Y79.713 E0.01845
G1 X77.620 Y80.223 E0.03636
G1 X77.220 Y80.693 E0.03628
G1 X76.770 Y81.123 E0.03659
G1 X74.190 Y83.403 E0.20239
G1 X73.740 Y83.743 E0.03315
G1 X73.030 Y84.163 E0.04849
G1 X72.270 Y84.493 E0.04870
G1 X71.740 Y84.653 E0.03254
G1 X71.190 Y84.773 E0.03309
G1 X70.640 Y84.843 E0.03259
G1 X70.090 Y84.863 E0.03235
G1 X69.220 Y84.833 E0.05117
G1 X68.580 Y84.733 E0.03808
G1 X67.940 Y84.563 E0.03893
G1 X67.140 Y84.313 E0.04927
G1 X66.170 Y83.923 E0.06146
G1 X65.380 Y83.463 E0.05374
G1 X64.680 Y82.903 E0.05270
G1 X64.460 Y82.703 E0.01748
G1 X64.060 Y82.263 E0.03495
G1 X62.530 Y80.423 E0.14067
G1 X62.170 Y79.943 E0.03527
G1 X62.010 Y79.693 E0.01745
G1 X61.720 Y79.173 E0.03500
G1 X59.980 Y75.703 E0.22818
G1 X59.800 Y75.253 E0.02849
G1 X59.640 Y74.783 E0.02919
G1 X58.790 Y71.753 E0.18499
G1 X58.650 Y70.923 E0.04948
G1 X58.620 Y70.093 E0.04882
G1 X58.660 Y69.533 E0.03300
G1 X58.700 Y69.253 E0.01663
G1 X58.810 Y68.713 E0.03239
G1 X58.960 Y68.173 E0.03294
G1 X62.080 Y60.093 E0.50915
G1 X62.320 Y59.603 E0.03207
G1 X62.600 Y59.133 E0.03216
G1 X62.920 Y58.683 E0.03246
G1 X63.230 Y58.328 E0.02766
G1 X63.280 Y58.273 E0.00441
G1 F2220.000 E-1.60000
G1 X64.026 Y58.659 F18000.000
G1 F2220.000 E1.60000
G1 X66.426 Y58.016 F600.000 E0.14609
G1 X66.840 Y58.255 E0.02812
G1 X66.885 Y58.072 E0.01107
G1 X69.012 Y56.786 E0.14609
G1 X70.024 Y57.035 E0.06130
G1 X71.137 Y56.791 E0.06696
G1 X73.230 Y58.131 E0.14609
G1 X73.246 Y58.205 E0.00444
G1 X73.574 Y58.016 E0.02225
G1 X75.974 Y58.659 E0.14609
G1 X77.467 Y61.245 E0.17548
G1 X76.824 Y63.645 E0.14609
G1 X75.726 Y64.279 E0.07454
G1 X75.760 Y64.332 E0.00370
G1 X75.753 Y64.367 E0.00211
G1 X75.833 Y64.491 E0.00869
G1 X75.478 Y66.155 E0.10000
G1 X76.345 Y65.654 E0.05890
G1 X78.746 Y66.297 E0.14609
G1 X80.239 Y68.882 E0.17548
G1 X79.595 Y71.283 E0.14609
G1 X77.152 Y72.693 E0.16582
G1 X77.152 Y73.393 E0.04112
G1 X77.971 Y74.811 E0.09624
G1 X77.327 Y77.211 E0.14609
G1 X75.832 Y78.074 E0.10150
G1 X75.768 Y78.309 E0.01431
G1 X75.509 Y78.468 E0.01785
G1 X75.581 Y78.607 E0.00919
G1 X74.680 Y81.453 E0.17548
G1 X73.269 Y82.185 E0.09341
G1 X71.590 Y83.864 E0.13958
G1 X68.605 Y83.864 E0.17548
G1 X66.848 Y82.107 E0.14609
G1 X66.848 Y81.937 E0.00997
G1 X65.867 Y80.998 E0.07985
G1 X65.843 Y79.896 E0.06478
G1 X64.129 Y78.995 E0.11380
G1 X63.785 Y77.889 E0.06808
G1 X62.652 Y76.756 E0.09418
G1 X62.652 Y75.646 E0.06530
G1 X62.397 Y75.356 E0.02268
G1 X62.652 Y75.044 E0.02370
G1 X62.652 Y72.580 E0.14484
G1 X60.257 Y71.198 E0.16257
G1 X59.614 Y68.797 E0.14609
G1 X61.107 Y66.212 E0.17548
G1 X63.507 Y65.568 E0.14609
G1 X64.240 Y65.991 E0.04972
G1 X63.439 Y64.644 E0.09212
G1 X63.627 Y63.905 E0.04482
G1 X63.176 Y63.645 E0.03058
G1 X62.533 Y61.245 E0.14609
G1 X63.988 Y58.724 E0.17108
G1 X64.026 Y58.659 E0.00441
G1 X64.355 Y59.089 F18000.000
G1 X66.356 Y58.553 F600.000 E0.12174
G1 X67.167 Y59.021 E0.05507
G1 X67.321 Y58.393 E0.03803
G1 X69.093 Y57.321 E0.12174
G1 X70.018 Y57.548 E0.05596
G1 X71.042 Y57.324 E0.06162
G1 X72.786 Y58.441 E0.12174
G1 X72.904 Y58.980 E0.03246
G1 X73.644 Y58.553 E0.05026
G1 X75.645 Y59.089 E0.12174
G1 X76.930 Y61.315 E0.15114
G1 X76.394 Y63.316 E0.12174
G1 X75.017 Y64.111 E0.09351
G1 X75.229 Y64.433 E0.02267
G1 X75.222 Y64.467 E0.00199
G1 X75.301 Y64.589 E0.00857
G1 X74.868 Y66.614 E0.12174
G1 X74.228 Y67.029 E0.04482
G1 X74.230 Y67.046 E0.00103
G1 X73.839 Y67.492 E0.03486
G1 X74.000 Y67.585 E0.01091
G1 X76.416 Y66.190 E0.16398
G1 X78.416 Y66.726 E0.12174
G1 X79.702 Y68.953 E0.15114
G1 X79.166 Y70.953 E0.12174
G1 X76.652 Y72.405 E0.17062
G1 X76.652 Y73.527 E0.06596
G1 X77.434 Y74.881 E0.09194
G1 X76.898 Y76.882 E0.12174
G1 X75.525 Y77.674 E0.09320
G1 X75.367 Y77.832 E0.01310
G1 X75.329 Y77.992 E0.00967
G1 X74.851 Y78.286 E0.03300
G1 X75.042 Y78.654 E0.02434
G1 X74.266 Y81.105 E0.15114
G1 X72.848 Y81.840 E0.09390
G1 X72.848 Y81.899 E0.00347
G1 X71.383 Y83.364 E0.12174
G1 X68.812 Y83.364 E0.15114
G1 X67.348 Y81.899 E0.12174
G1 X67.348 Y81.724 E0.01034
G1 X66.362 Y80.780 E0.08022
G1 X66.339 Y79.722 E0.06219
G1 X66.221 Y79.530 E0.01326
G1 X64.545 Y78.649 E0.11129
G1 X64.226 Y77.623 E0.06316
G1 X63.152 Y76.549 E0.08926
G1 X63.152 Y75.457 E0.06424
G1 X63.053 Y75.344 E0.00882
G1 X63.152 Y75.223 E0.00921
G1 X63.152 Y72.292 E0.17230
G1 X60.687 Y70.868 E0.16736
G1 X60.150 Y68.868 E0.12174
G1 X61.436 Y66.641 E0.15114
G1 X63.436 Y66.105 E0.12174
G1 X66.000 Y67.585 E0.17400
G1 X66.161 Y67.492 E0.01090
G1 X65.770 Y67.046 E0.03487
G1 X65.788 Y66.904 E0.00844
G1 X65.288 Y66.777 E0.03034
G1 X63.974 Y64.567 E0.15114
G1 X64.205 Y63.662 E0.05490
G1 X63.605 Y63.316 E0.04066
G1 X63.069 Y61.315 E0.12174
G1 X64.318 Y59.154 E0.14673
G1 X64.355 Y59.089 E0.00441
G1 X64.684 Y59.518 F18000.000
G1 X66.285 Y59.089 F600.000 E0.09739
G1 X67.493 Y59.787 E0.08203
G1 X67.757 Y58.713 E0.06498
G1 X69.175 Y57.856 E0.09739
G1 X70.011 Y58.061 E0.05062
G1 X70.946 Y57.856 E0.05628
G1 X72.342 Y58.750 E0.09739
G1 X72.562 Y59.755 E0.06047
G1 X73.715 Y59.089 E0.07827
G1 X75.315 Y59.518 E0.09739
G1 X76.394 Y61.386 E0.12679
G1 X75.965 Y62.986 E0.09739
G1 X74.308 Y63.943 E0.11248
G1 X74.697 Y64.535 E0.04164
G1 X74.691 Y64.566 E0.00188
G1 X74.769 Y64.687 E0.00845
G1 X74.422 Y66.307 E0.09739
G1 X73.691 Y66.781 E0.05122
G1 X73.705 Y66.887 E0.00629
G1 X73.121 Y67.553 E0.05210
G1 X73.117 Y67.652 E0.00583
G1 X74.000 Y68.162 E0.05994
G1 X76.487 Y66.727 E0.16878
G1 X78.087 Y67.156 E0.09739
G1 X79.165 Y69.024 E0.12679
G1 X78.736 Y70.624 E0.09739
G1 X76.152 Y72.116 E0.17541
G1 X76.152 Y73.661 E0.09080
G1 X76.898 Y74.952 E0.08764
G1 X76.469 Y76.552 E0.09739
G1 X75.218 Y77.274 E0.08489
G1 X74.981 Y77.512 E0.01973
G1 X74.930 Y77.512 E0.00299
G1 X74.891 Y77.675 E0.00985
G1 X74.193 Y78.104 E0.04815
G1 X74.503 Y78.700 E0.03949
G1 X73.852 Y80.756 E0.12679
G1 X72.381 Y81.519 E0.09739
G1 X72.348 Y81.509 E0.00204
G1 X72.348 Y81.692 E0.01078
G1 X71.176 Y82.864 E0.09739
G1 X69.019 Y82.864 E0.12679
G1 X67.848 Y81.692 E0.09739
G1 X67.848 Y81.510 E0.01072
G1 X66.857 Y80.562 E0.08060
G1 X66.836 Y79.575 E0.05799
G1 X66.575 Y79.151 E0.02930
G1 X64.961 Y78.303 E0.10718
G1 X64.667 Y77.357 E0.05824
G1 X63.652 Y76.342 E0.08434
G1 X63.652 Y72.003 E0.25508
G1 X61.116 Y70.539 E0.17216
G1 X60.687 Y68.938 E0.09739
G1 X61.765 Y67.070 E0.12679
G1 X63.366 Y66.641 E0.09739
G1 X66.000 Y68.162 E0.17880
G1 X66.883 Y67.652 E0.05994
G1 X66.879 Y67.553 E0.00583
G1 X66.295 Y66.887 E0.05210
G1 X66.342 Y66.529 E0.02124
G1 X65.612 Y66.343 E0.04428
G1 X64.510 Y64.489 E0.12679
G1 X64.782 Y63.418 E0.06498
G1 X64.035 Y62.986 E0.05074
G1 X63.606 Y61.386 E0.09739
G1 X64.647 Y59.583 E0.12238
G1 X64.684 Y59.518 E0.00441
G1 F2220.000 E-1.60000
G1 X69.907 Y71.103 F18000.000
G1 F2220.000 E1.60000
G1 X69.734 Y71.750 F600.000 E0.03940
G1 X68.786 Y71.750 E0.05572
G1 X69.842 Y71.140 E0.07171
G1 X69.907 Y71.103 E0.00441
G1 F2220.000 E-1.60000
G1 X67.394 Y67.935 F18000.000
G1 F2220.000 E1.60000
G1 X67.372 Y67.357 F600.000 E0.03398
G1 X66.820 Y66.728 E0.04919
G1 X66.886 Y66.231 E0.02947
G1 X66.829 Y66.137 E0.00645
G1 X65.936 Y65.910 E0.05416
G1 X65.046 Y64.412 E0.10244
G1 X65.352 Y63.207 E0.07305
G1 X65.384 Y63.188 E0.00222
G1 X64.464 Y62.657 E0.06246
G1 X64.143 Y61.456 E0.07305
G1 X65.014 Y59.947 E0.10244
G1 X66.214 Y59.626 E0.07305
G1 X67.820 Y60.553 E0.10898
G1 X68.193 Y59.034 E0.09194
G1 X69.257 Y58.391 E0.07305
G1 X70.005 Y58.575 E0.04528
G1 X70.851 Y58.389 E0.05094
G1 X71.898 Y59.059 E0.07305
G1 X72.220 Y60.530 E0.08848
G1 X73.786 Y59.626 E0.10629
G1 X74.986 Y59.947 E0.07305
G1 X75.857 Y61.457 E0.10244
G1 X75.536 Y62.657 E0.07305
G1 X73.599 Y63.775 E0.13145
G1 X74.166 Y64.637 E0.06061
G1 X74.159 Y64.666 E0.00176
G1 X74.237 Y64.785 E0.00834
G1 X73.977 Y66.000 E0.07305
G1 X73.154 Y66.533 E0.05763
G1 X73.180 Y66.728 E0.01154
G1 X72.628 Y67.357 E0.04919
G1 X72.606 Y67.935 E0.03398
G1 X74.000 Y68.740 E0.09465
G1 X76.557 Y67.263 E0.17357
G1 X77.758 Y67.585 E0.07305
G1 X78.629 Y69.094 E0.10244
G1 X78.307 Y70.294 E0.07305
G1 X75.652 Y71.827 E0.18021
G1 X75.652 Y73.795 E0.11565
G1 X76.361 Y75.022 E0.08334
G1 X76.039 Y76.223 E0.07305
G1 X74.911 Y76.874 E0.07659
G1 X74.774 Y77.012 E0.01143
G1 X74.673 Y77.012 E0.00592
G1 X74.513 Y77.104 E0.01086
G1 X74.453 Y77.357 E0.01531
G1 X73.544 Y77.916 E0.06268
G1 X73.964 Y78.746 E0.05469
G1 X73.437 Y80.408 E0.10244
G1 X72.334 Y80.980 E0.07305
G1 X71.848 Y80.826 E0.03001
G1 X71.848 Y81.485 E0.03875
G1 X70.969 Y82.364 E0.07305
G1 X69.227 Y82.364 E0.10244
G1 X68.348 Y81.485 E0.07305
G1 X68.348 Y81.201 E0.01670
G1 X68.250 Y81.203 E0.00573
G1 X67.353 Y80.344 E0.07305
G1 X67.333 Y79.429 E0.05379
G1 X66.990 Y78.871 E0.03852
G1 X67.004 Y78.812 E0.00358
G1 X65.377 Y77.957 E0.10803
G1 X65.084 Y77.014 E0.05803
G1 X65.031 Y77.014 E0.00310
G1 X64.152 Y76.135 E0.07305
G1 X64.152 Y71.714 E0.25988
G1 X61.545 Y70.209 E0.17695
G1 X61.224 Y69.009 E0.07305
G1 X62.095 Y67.500 E0.10244
G1 X63.295 Y67.178 E0.07305
G1 X66.000 Y68.740 E0.18359
G1 X67.329 Y67.972 E0.09024
G1 X67.394 Y67.935 E0.00441
G1 F2220.000 E-1.60000
G1 X70.000 Y70.472 F18000.000
G1 F2220.000 E1.60000
G1 X70.514 Y70.769 F600.000 E0.03491
G1 X70.198 Y71.949 E0.07184
G1 X70.393 Y72.286 E0.02287
G1 X70.000 Y72.679 E0.03263
G1 X69.571 Y72.250 E0.03564
G1 X67.848 Y72.250 E0.10131
G1 X67.848 Y71.714 E0.03149
G1 X69.935 Y70.509 E0.14167
G1 X70.000 Y70.472 E0.00441
G1 F2220.000 E-1.60000
G1 X72.094 Y68.217 F18000.000
G1 F2220.000 E1.60000
G1 X74.000 Y69.317 F600.000 E0.12935
G1 X76.628 Y67.800 E0.17837
G1 X77.428 Y68.014 E0.04870
G1 X78.092 Y69.165 E0.07809
G1 X77.878 Y69.965 E0.04870
G1 X75.152 Y71.538 E0.18500
G1 X75.152 Y73.940 E0.14119
G1 X75.824 Y75.093 E0.07844
G1 X75.610 Y75.893 E0.04870
G1 X74.604 Y76.474 E0.06828
G1 X74.566 Y76.512 E0.00312
G1 X74.539 Y76.512 E0.00162
G1 X74.076 Y76.779 E0.03139
G1 X74.014 Y77.040 E0.01579
G1 X72.737 Y77.825 E0.08813
G1 X73.051 Y78.007 E0.02130
G1 X73.088 Y78.145 E0.00841
G1 X73.424 Y78.793 E0.04292
G1 X73.023 Y80.059 E0.07809
G1 X72.288 Y80.441 E0.04870
G1 X71.545 Y80.206 E0.04584
G1 X71.348 Y80.379 E0.01542
G1 X71.348 Y81.278 E0.05284
G1 X70.762 Y81.864 E0.04870
G1 X69.434 Y81.864 E0.07809
G1 X68.848 Y81.278 E0.04870
G1 X68.848 Y80.690 E0.03456
G1 X68.447 Y80.699 E0.02359
G1 X67.848 Y80.126 E0.04870
G1 X67.830 Y79.283 E0.04959
G1 X67.524 Y78.785 E0.03432
G1 X67.580 Y78.550 E0.01424
G1 X65.793 Y77.610 E0.11869
G1 X65.547 Y76.819 E0.04870
G1 X65.707 Y76.514 E0.02028
G1 X65.238 Y76.514 E0.02759
G1 X64.652 Y75.928 E0.04870
G1 X64.652 Y71.426 E0.26467
G1 X61.975 Y69.880 E0.18175
G1 X61.760 Y69.079 E0.04870
G1 X62.424 Y67.929 E0.07809
G1 X63.225 Y67.715 E0.04870
G1 X66.000 Y69.317 E0.18839
G1 X67.906 Y68.217 E0.12935
G1 X67.865 Y67.161 E0.06213
G1 X67.346 Y66.568 E0.04628
G1 X67.405 Y66.122 E0.02647
G1 X67.118 Y65.648 E0.03259
G1 X67.063 Y65.680 E0.00374
G1 X66.260 Y65.476 E0.04870
G1 X65.581 Y64.334 E0.07809
G1 X65.785 Y63.531 E0.04870
G1 X66.373 Y63.182 E0.04021
G1 X64.894 Y62.327 E0.10045
G1 X64.679 Y61.527 E0.04870
G1 X65.343 Y60.377 E0.07809
G1 X66.144 Y60.162 E0.04870
G1 X68.146 Y61.318 E0.13593
G1 X68.630 Y59.355 E0.11889
G1 X69.338 Y58.926 E0.04870
G1 X69.998 Y59.088 E0.03994
G1 X70.756 Y58.922 E0.04561
G1 X71.454 Y59.369 E0.04870
G1 X71.794 Y60.921 E0.09339
G1 X71.985 Y61.243 E0.02202
G1 X73.856 Y60.162 E0.12702
G1 X74.657 Y60.377 E0.04870
G1 X75.321 Y61.527 E0.07809
G1 X75.106 Y62.327 E0.04870
G1 X72.890 Y63.607 E0.15042
G1 X73.634 Y64.738 E0.07958
G1 X73.628 Y64.766 E0.00165
G1 X73.704 Y64.883 E0.00822
G1 X73.531 Y65.693 E0.04870
G1 X72.617 Y66.285 E0.06403
G1 X72.654 Y66.568 E0.01680
G1 X72.135 Y67.161 E0.04628
G1 X72.097 Y68.142 E0.05772
G1 X72.094 Y68.217 E0.00441
G1 F2220.000 E-1.60000
G1 X67.348 Y73.448 F18000.000
G1 F2220.000 E1.60000
G1 X67.444 Y74.174 F600.000 E0.04303
G1 X67.387 Y74.265 E0.00631
G1 X67.348 Y74.282 E0.00249
G1 X67.348 Y73.523 E0.04461
G1 X67.348 Y73.448 E0.00441
G1 X67.348 Y73.429 F18000.000
G1 X67.348 Y71.426 F600.000 E0.11777
G1 X69.930 Y69.935 E0.17529
G1 X70.070 Y69.935 E0.00819
G1 X71.500 Y70.760 E0.09708
G1 X70.949 Y71.078 E0.03739
G1 X70.735 Y71.879 E0.04870
G1 X71.238 Y72.750 E0.05915
G1 X70.636 Y72.750 E0.03538
G1 X70.050 Y73.336 E0.04870
G1 X70.050 Y73.937 E0.03537
G1 X69.950 Y73.842 E0.00814
G1 X69.950 Y73.336 E0.02974
G1 X69.364 Y72.750 E0.04870
G1 X67.943 Y72.750 E0.08353
G1 X67.397 Y73.373 E0.04868
G1 X67.348 Y73.429 E0.00441
G1 F2220.000 E-1.60000
G1 X72.619 Y73.701 F18000.000
G1 F2220.000 E1.60000
G1 X72.652 Y73.448 F600.000 E0.01500
G1 X72.652 Y73.671 E0.01314
G1 X72.619 Y73.701 E0.00262
G1 X72.652 Y73.429 F18000.000
G1 X72.392 Y73.132 F600.000 E0.02322
G1 X72.652 Y72.982 E0.01767
G1 X72.652 Y73.354 E0.02189
G1 X72.652 Y73.429 E0.00441
G1 F2220.000 E-1.60000
G1 X74.652 Y74.324 F18000.000
G1 F2220.000 E1.60000
G1 X74.831 Y74.372 F600.000 E0.01087
G1 X75.288 Y75.164 E0.05374
G1 X75.181 Y75.564 E0.02435
G1 X73.640 Y76.453 E0.10458
G1 X73.576 Y76.723 E0.01628
G1 X71.761 Y77.839 E0.12526
G1 X72.622 Y78.336 E0.05843
G1 X72.655 Y78.459 E0.00749
G1 X72.694 Y78.472 E0.00245
G1 X72.885 Y78.839 E0.02435
G1 X72.609 Y79.711 E0.05374
G1 X72.241 Y79.902 E0.02435
G1 X71.269 Y79.594 E0.05998
G1 X71.256 Y79.793 E0.01174
G1 X70.848 Y80.154 E0.03203
G1 X70.848 Y81.071 E0.05393
G1 X70.555 Y81.364 E0.02435
G1 X69.641 Y81.364 E0.05374
G1 X69.348 Y81.071 E0.02435
G1 X69.348 Y80.363 E0.04161
G1 X69.303 Y80.374 E0.00271
G1 X69.003 Y80.187 E0.02076
G1 X68.643 Y80.194 E0.02120
G1 X68.344 Y79.908 E0.02435
G1 X68.327 Y79.136 E0.04539
G1 X68.058 Y78.700 E0.03012
G1 X68.163 Y78.291 E0.02479
G1 X66.209 Y77.264 E0.12979
G1 X66.086 Y76.869 E0.02435
G1 X66.317 Y76.428 E0.02924
G1 X66.264 Y76.397 E0.00362
G1 X66.161 Y76.014 E0.02334
G1 X65.445 Y76.014 E0.04208
G1 X65.152 Y75.721 E0.02435
G1 X65.152 Y71.137 E0.26947
G1 X62.404 Y69.550 E0.18654
G1 X62.297 Y69.150 E0.02435
G1 X62.754 Y68.358 E0.05374
G1 X63.154 Y68.251 E0.02435
G1 X66.000 Y69.894 E0.19318
G1 X68.417 Y68.499 E0.16406
G1 X68.349 Y66.750 E0.10288
G1 X68.170 Y66.750 E0.01055
G1 X67.871 Y66.409 E0.02664
G1 X67.938 Y65.901 E0.03012
G1 X67.841 Y65.877 E0.00588
G1 X67.627 Y65.523 E0.02435
G1 X67.845 Y64.633 E0.05385
G1 X66.985 Y65.145 E0.05881
G1 X66.584 Y65.043 E0.02435
G1 X66.117 Y64.257 E0.05374
G1 X66.219 Y63.855 E0.02435
G1 X67.362 Y63.175 E0.07821
G1 X65.323 Y61.998 E0.13844
G1 X65.216 Y61.598 E0.02435
