; generated by Slic3r 0.9.7 on 2013-11-04 at 14:23:56

; layer_height = 0.15
; perimeters = 2
; top_solid_layers = 3
; bottom_solid_layers = 2
; fill_density = 0.4
; perimeter_speed = 20
; infill_speed = 30
; travel_speed = 300
; scale = 1
; nozzle_diameter = 0.5
; filament_diameter = 1.71
; extrusion_multiplier = 0.9
; perimeters extrusion width = 0.50mm
; infill extrusion width = 0.50mm
; support material extrusion width = 0.11mm
; first layer extrusion width = 0.50mm

M107
M190 S63 ; wait for bed temperature to be reached
M104 S200 ; set temperature
G1 Z0.15 F200
G1 X15 Y20 F12000
M109 S200 ; wait for temperature to be reached
G90 ; use absolute coordinates
G21 ; set units to millimeters
M83 ; use relative distances for extrusion
G1 F2220.000 E-1.60000
G1 Z0.300 F18000.000
G1 X60.160 Y59.713
G1 F2220.000 E1.60000
G1 X60.730 Y59.193 F600.000 E0.04535
G1 X61.250 Y58.763 E0.03966
G1 X61.860 Y58.313 E0.04456
G1 X62.350 Y57.983 E0.03473
G1 X63.010 Y57.583 E0.04537
G1 X63.580 Y57.273 E0.03814
G1 X64.230 Y56.963 E0.04233
G1 X65.470 Y56.483 E0.07816
G1 X66.090 Y56.283 E0.03829
G1 X66.830 Y56.093 E0.04491
G1 X67.520 Y55.963 E0.04127
G1 X68.280 Y55.853 E0.04514
G1 X68.870 Y55.793 E0.03486
G1 X69.630 Y55.753 E0.04474
G1 X70.230 Y55.753 E0.03527
G1 X70.990 Y55.783 E0.04471
G1 X71.660 Y55.843 E0.03954
G1 X72.420 Y55.953 E0.04514
G1 X73.110 Y56.083 E0.04127
G1 X73.850 Y56.273 E0.04491
G1 X75.140 Y56.713 E0.08012
G1 X75.760 Y56.963 E0.03930
G1 X76.410 Y57.273 E0.04233
G1 X76.980 Y57.583 E0.03814
G1 X77.640 Y57.983 E0.04537
G1 X78.130 Y58.313 E0.03473
G1 X78.740 Y58.763 E0.04456
G1 X79.260 Y59.193 E0.03966
G1 X79.830 Y59.713 E0.04535
G1 X80.290 Y60.183 E0.03866
G1 X80.800 Y60.753 E0.04496
G1 X81.220 Y61.263 E0.03884
G1 X81.670 Y61.883 E0.04503
G1 X82.030 Y62.433 E0.03864
G1 X82.420 Y63.103 E0.04557
G1 X82.670 Y63.573 E0.03129
G1 X82.980 Y64.223 E0.04233
G1 X83.260 Y64.913 E0.04377
G1 X83.510 Y65.643 E0.04536
G1 X83.840 Y66.863 E0.07429
G1 X83.980 Y67.553 E0.04139
G1 X84.090 Y68.333 E0.04630
G1 X84.140 Y68.983 E0.03832
G1 X84.170 Y69.733 E0.04412
G1 X84.140 Y71.003 E0.07468
G1 X84.090 Y71.653 E0.03832
G1 X83.980 Y72.433 E0.04630
G1 X83.840 Y73.123 E0.04139
G1 X83.660 Y73.833 E0.04306
G1 X83.510 Y74.343 E0.03125
G1 X83.260 Y75.073 E0.04536
G1 X82.990 Y75.723 E0.04137
G1 X82.680 Y76.383 E0.04286
G1 X82.400 Y76.933 E0.03628
G1 X82.010 Y77.593 E0.04506
G1 X81.670 Y78.103 E0.03603
G1 X81.220 Y78.723 E0.04503
G1 X80.800 Y79.233 E0.03884
G1 X80.290 Y79.803 E0.04496
G1 X79.830 Y80.273 E0.03866
G1 X79.260 Y80.793 E0.04535
G1 X78.790 Y81.183 E0.03590
G1 X78.180 Y81.643 E0.04491
G1 X77.580 Y82.053 E0.04272
G1 X76.920 Y82.443 E0.04506
G1 X76.410 Y82.713 E0.03392
G1 X75.760 Y83.023 E0.04233
G1 X74.520 Y83.503 E0.07816
G1 X73.900 Y83.703 E0.03829
G1 X73.160 Y83.893 E0.04491
G1 X72.550 Y84.013 E0.03654
G1 X71.790 Y84.133 E0.04523
G1 X71.120 Y84.203 E0.03960
G1 X70.020 Y84.253 E0.06473
G1 X68.870 Y84.203 E0.06766
G1 X68.200 Y84.133 E0.03960
G1 X67.440 Y84.013 E0.04523
G1 X66.830 Y83.893 E0.03654
G1 X66.090 Y83.703 E0.04491
G1 X65.470 Y83.503 E0.03829
G1 X64.790 Y83.253 E0.04259
G1 X64.230 Y83.023 E0.03559
G1 X63.580 Y82.713 E0.04233
G1 X63.070 Y82.443 E0.03392
G1 X62.410 Y82.053 E0.04506
G1 X61.810 Y81.643 E0.04272
G1 X61.200 Y81.183 E0.04491
G1 X60.730 Y80.793 E0.03590
G1 X60.160 Y80.273 E0.04535
G1 X59.700 Y79.803 E0.03866
G1 X59.190 Y79.233 E0.04496
G1 X58.770 Y78.723 E0.03884
G1 X58.320 Y78.103 E0.04503
G1 X57.980 Y77.593 E0.03603
G1 X57.590 Y76.933 E0.04506
G1 X57.000 Y75.723 E0.07913
G1 X56.730 Y75.073 E0.04137
G1 X56.480 Y74.343 E0.04536
G1 X56.150 Y73.123 E0.07429
G1 X56.010 Y72.433 E0.04139
G1 X55.900 Y71.653 E0.04630
G1 X55.850 Y71.003 E0.03832
G1 X55.820 Y70.253 E0.04412
G1 X55.850 Y68.983 E0.07468
G1 X55.900 Y68.333 E0.03832
G1 X56.010 Y67.553 E0.04630
G1 X56.150 Y66.863 E0.04139
G1 X56.480 Y65.643 E0.07429
G1 X56.730 Y64.913 E0.04536
G1 X57.010 Y64.223 E0.04377
G1 X57.320 Y63.573 E0.04233
G1 X57.570 Y63.103 E0.03129
G1 X57.960 Y62.433 E0.04557
G1 X58.320 Y61.883 E0.03864
G1 X58.770 Y61.263 E0.04503
G1 X59.190 Y60.753 E0.03884
G1 X59.700 Y60.183 E0.04496
G1 X60.108 Y59.766 E0.03425
G1 X60.160 Y59.713 E0.00441
G1 F2220.000 E-1.60000
G1 X62.468 Y62.355 F18000.000
G1 F2220.000 E1.60000
G1 X63.261 Y61.641 F600.000 E0.06270
G1 X63.996 Y61.093 E0.05393
G1 X64.520 Y60.770 E0.03612
G1 X65.310 Y59.401 E0.09295
G1 X67.711 Y58.758 E0.14609
G1 X68.698 Y59.328 E0.06702
G1 X68.979 Y59.292 E0.01666
G1 X70.042 Y59.243 E0.06252
G1 X70.954 Y59.286 E0.05371
G1 X71.299 Y59.329 E0.02042
G1 X72.018 Y58.914 E0.04879
G1 X74.419 Y59.557 E0.14609
G1 X74.938 Y60.457 E0.06105
G1 X76.004 Y61.093 E0.07295
G1 X76.739 Y61.641 E0.05392
G1 X77.532 Y62.355 E0.06270
G1 X78.250 Y63.144 E0.06274
G1 X78.886 Y64.003 E0.06281
G1 X79.432 Y64.918 E0.06267
G1 X79.864 Y65.834 E0.05954
G1 X80.223 Y66.836 E0.06256
G1 X80.473 Y67.826 E0.06001
G1 X80.634 Y68.893 E0.06344
G1 X80.690 Y69.928 E0.06094
G1 X80.648 Y70.962 E0.06084
G1 X80.501 Y72.031 E0.06344
G1 X80.265 Y73.025 E0.06002
G1 X79.919 Y74.031 E0.06255
G1 X79.500 Y74.953 E0.05953
G1 X78.968 Y75.872 E0.06242
G1 X78.344 Y76.739 E0.06279
G1 X77.637 Y77.539 E0.06274
G1 X76.855 Y78.264 E0.06270
G1 X76.003 Y78.907 E0.06272
G1 X75.095 Y79.461 E0.06255
G1 X74.189 Y79.899 E0.05918
G1 X73.241 Y80.252 E0.05941
G1 X72.220 Y80.523 E0.06214
G1 X71.170 Y80.693 E0.06250
G1 X70.064 Y80.757 E0.06514
G1 X68.979 Y80.708 E0.06383
G1 X67.927 Y80.553 E0.06252
G1 X66.898 Y80.295 E0.06237
G1 X65.941 Y79.953 E0.05970
G1 X65.033 Y79.530 E0.05889
G1 X64.121 Y78.991 E0.06228
G1 X63.261 Y78.359 E0.06274
G1 X62.468 Y77.646 E0.06269
G1 X61.750 Y76.856 E0.06273
G1 X61.114 Y75.998 E0.06280
G1 X60.568 Y75.082 E0.06269
G1 X60.135 Y74.166 E0.05955
G1 X59.777 Y73.164 E0.06254
G1 X59.527 Y72.174 E0.06000
G1 X59.366 Y71.108 E0.06341
G1 X59.310 Y70.070 E0.06107
G1 X59.352 Y69.038 E0.06071
G1 X59.499 Y67.968 E0.06349
G1 X59.735 Y66.975 E0.06001
G1 X60.081 Y65.969 E0.06255
G1 X60.501 Y65.047 E0.05955
G1 X61.032 Y64.128 E0.06241
G1 X61.656 Y63.261 E0.06278
G1 X62.415 Y62.408 E0.06714
G1 X62.468 Y62.355 E0.00441
G1 X62.815 Y62.715 F18000.000
G1 X63.569 Y62.034 F600.000 E0.05976
G1 X64.285 Y61.501 E0.05246
G1 X64.888 Y61.133 E0.04153
G1 X65.640 Y59.830 E0.08839
G1 X67.640 Y59.294 E0.12174
G1 X68.600 Y59.849 E0.06518
G1 X69.018 Y59.791 E0.02479
G1 X70.031 Y59.743 E0.05959
G1 X70.919 Y59.785 E0.05224
G1 X71.398 Y59.849 E0.02846
G1 X72.089 Y59.451 E0.04686
G1 X74.089 Y59.987 E0.12174
G1 X74.583 Y60.842 E0.05803
G1 X74.848 Y60.974 E0.01744
G1 X75.715 Y61.501 E0.05963
G1 X76.431 Y62.034 E0.05245
G1 X77.185 Y62.715 E0.05976
G1 X77.869 Y63.469 E0.05980
G1 X78.475 Y64.288 E0.05987
G1 X78.995 Y65.161 E0.05975
G1 X79.406 Y66.033 E0.05669
G1 X79.747 Y66.990 E0.05971
G1 X79.985 Y67.933 E0.05716
G1 X80.138 Y68.953 E0.06060
G1 X80.190 Y69.940 E0.05812
G1 X80.149 Y70.927 E0.05806
G1 X80.008 Y71.948 E0.06059
G1 X79.782 Y72.894 E0.05717
G1 X79.451 Y73.854 E0.05970
G1 X79.051 Y74.732 E0.05668
G1 X78.543 Y75.608 E0.05955
G1 X77.948 Y76.434 E0.05986
G1 X77.273 Y77.196 E0.05981
G1 X76.527 Y77.886 E0.05977
G1 X75.715 Y78.499 E0.05979
G1 X74.848 Y79.026 E0.05964
G1 X73.985 Y79.443 E0.05636
G1 X73.081 Y79.778 E0.05664
G1 X72.107 Y80.036 E0.05927
G1 X71.106 Y80.197 E0.05957
G1 X70.057 Y80.257 E0.06177
G1 X69.018 Y80.209 E0.06114
G1 X68.015 Y80.061 E0.05958
G1 X67.034 Y79.814 E0.05946
G1 X66.123 Y79.488 E0.05688
G1 X65.259 Y79.083 E0.05612
G1 X64.389 Y78.568 E0.05941
G1 X63.569 Y77.966 E0.05980
G1 X62.815 Y77.285 E0.05975
G1 X62.131 Y76.532 E0.05979
G1 X61.525 Y75.713 E0.05987
G1 X61.005 Y74.839 E0.05978
G1 X60.594 Y73.966 E0.05671
G1 X60.253 Y73.010 E0.05970
G1 X60.016 Y72.067 E0.05715
G1 X59.862 Y71.048 E0.06057
G1 X59.810 Y70.059 E0.05825
G1 X59.851 Y69.074 E0.05794
G1 X59.992 Y68.052 E0.06064
G1 X60.218 Y67.106 E0.05717
G1 X60.549 Y66.146 E0.05970
G1 X60.949 Y65.268 E0.05671
G1 X61.457 Y64.392 E0.05954
G1 X62.052 Y63.566 E0.05984
G1 X62.762 Y62.769 E0.06274
G1 X62.815 Y62.715 E0.00441
G1 X63.161 Y63.076 F18000.000
G1 X63.878 Y62.428 F600.000 E0.05682
G1 X64.574 Y61.910 E0.05099
G1 X65.256 Y61.495 E0.04695
G1 X65.969 Y60.260 E0.08383
G1 X67.570 Y59.831 E0.09739
G1 X68.503 Y60.370 E0.06335
G1 X69.057 Y60.289 E0.03293
G1 X70.020 Y60.243 E0.05665
G1 X70.883 Y60.284 E0.05077
G1 X71.498 Y60.369 E0.03649
G1 X72.159 Y59.987 E0.04492
G1 X73.760 Y60.416 E0.09739
G1 X74.228 Y61.226 E0.05501
G1 X74.601 Y61.409 E0.02446
G1 X75.426 Y61.910 E0.05671
G1 X76.122 Y62.428 E0.05098
G1 X76.839 Y63.076 E0.05682
G1 X77.488 Y63.793 E0.05687
G1 X78.064 Y64.572 E0.05693
G1 X78.557 Y65.404 E0.05684
G1 X78.947 Y66.233 E0.05385
G1 X79.271 Y67.144 E0.05687
G1 X79.496 Y68.040 E0.05432
G1 X79.641 Y69.012 E0.05776
G1 X79.690 Y69.952 E0.05530
G1 X79.650 Y70.891 E0.05529
G1 X79.515 Y71.864 E0.05774
G1 X79.299 Y72.763 E0.05433
G1 X78.983 Y73.677 E0.05686
G1 X78.603 Y74.510 E0.05384
G1 X78.118 Y75.344 E0.05669
G1 X77.551 Y76.129 E0.05692
G1 X76.909 Y76.853 E0.05687
G1 X76.199 Y77.509 E0.05683
G1 X75.426 Y78.090 E0.05685
G1 X74.601 Y78.591 E0.05672
G1 X73.781 Y78.986 E0.05354
G1 X72.921 Y79.304 E0.05387
G1 X71.994 Y79.549 E0.05640
G1 X71.042 Y79.700 E0.05663
G1 X70.050 Y79.757 E0.05839
G1 X69.057 Y79.711 E0.05846
G1 X68.104 Y79.569 E0.05665
G1 X67.171 Y79.333 E0.05655
G1 X66.306 Y79.022 E0.05406
G1 X65.484 Y78.637 E0.05335
G1 X64.657 Y78.146 E0.05655
G1 X63.878 Y77.572 E0.05686
G1 X63.161 Y76.924 E0.05681
G1 X62.512 Y76.207 E0.05686
G1 X61.937 Y75.428 E0.05693
G1 X61.442 Y74.596 E0.05686
G1 X61.053 Y73.767 E0.05386
G1 X60.729 Y72.856 E0.05685
G1 X60.504 Y71.960 E0.05431
G1 X60.359 Y70.989 E0.05772
G1 X60.310 Y70.047 E0.05543
G1 X60.349 Y69.109 E0.05516
G1 X60.485 Y68.136 E0.05780
G1 X60.701 Y67.237 E0.05432
G1 X61.017 Y66.323 E0.05686
G1 X61.398 Y65.489 E0.05386
G1 X61.882 Y64.656 E0.05667
G1 X62.449 Y63.871 E0.05691
G1 X63.108 Y63.129 E0.05834
G1 X63.161 Y63.076 E0.00441
G1 X63.507 Y63.437 F18000.000
G1 X64.187 Y62.821 F600.000 E0.05389
G1 X64.862 Y62.318 E0.04952
G1 X65.624 Y61.857 E0.05236
G1 X66.299 Y60.689 E0.07927
G1 X67.499 Y60.367 E0.07305
G1 X68.405 Y60.891 E0.06152
G1 X69.096 Y60.788 E0.04107
G1 X70.009 Y60.743 E0.05371
G1 X70.847 Y60.782 E0.04930
G1 X71.597 Y60.889 E0.04453
G1 X72.230 Y60.524 E0.04299
G1 X73.430 Y60.845 E0.07305
G1 X73.872 Y61.611 E0.05199
G1 X74.355 Y61.844 E0.03148
G1 X75.138 Y62.318 E0.05380
G1 X75.813 Y62.821 E0.04951
G1 X76.493 Y63.437 E0.05389
G1 X77.108 Y64.118 E0.05393
G1 X77.653 Y64.857 E0.05400
G1 X78.120 Y65.646 E0.05393
G1 X78.488 Y66.432 E0.05100
G1 X78.796 Y67.298 E0.05402
G1 X79.008 Y68.148 E0.05147
G1 X79.145 Y69.072 E0.05491
G1 X79.190 Y69.963 E0.05248
G1 X79.152 Y70.856 E0.05251
G1 X79.021 Y71.781 E0.05490
G1 X78.816 Y72.632 E0.05148
G1 X78.516 Y73.501 E0.05401
G1 X78.154 Y74.289 E0.05099
G1 X77.694 Y75.080 E0.05382
G1 X77.155 Y75.824 E0.05398
G1 X76.545 Y76.510 E0.05394
G1 X75.871 Y77.131 E0.05390
G1 X75.138 Y77.682 E0.05391
G1 X74.354 Y78.156 E0.05381
G1 X73.577 Y78.529 E0.05071
G1 X72.761 Y78.830 E0.05109
G1 X71.881 Y79.061 E0.05353
G1 X70.978 Y79.204 E0.05369
G1 X70.044 Y79.257 E0.05502
G1 X69.096 Y79.212 E0.05577
G1 X68.192 Y79.077 E0.05371
G1 X67.308 Y78.852 E0.05363
G1 X66.488 Y78.556 E0.05123
G1 X65.710 Y78.190 E0.05057
G1 X64.925 Y77.724 E0.05368
G1 X64.187 Y77.179 E0.05393
G1 X63.507 Y76.563 E0.05388
G1 X62.892 Y75.883 E0.05392
G1 X62.348 Y75.143 E0.05399
G1 X61.880 Y74.354 E0.05395
G1 X61.512 Y73.568 E0.05102
G1 X61.204 Y72.702 E0.05401
G1 X60.993 Y71.852 E0.05146
G1 X60.855 Y70.929 E0.05488
G1 X60.810 Y70.035 E0.05261
G1 X60.848 Y69.145 E0.05239
G1 X60.979 Y68.219 E0.05495
G1 X61.184 Y67.368 E0.05148
G1 X61.484 Y66.499 E0.05401
G1 X61.846 Y65.711 E0.05101
G1 X62.307 Y64.920 E0.05380
G1 X62.845 Y64.176 E0.05397
G1 X63.455 Y63.490 E0.05393
G1 X63.507 Y63.437 E0.00441
G1 X63.854 Y63.798 F18000.000
G1 X64.495 Y63.215 F600.000 E0.05095
G1 X65.151 Y62.727 E0.04805
G1 X65.985 Y62.233 E0.05696
G1 X66.628 Y61.118 E0.07563
G1 X67.428 Y60.904 E0.04870
G1 X68.308 Y61.412 E0.05969
G1 X69.135 Y61.286 E0.04921
G1 X69.998 Y61.243 E0.05078
G1 X70.861 Y61.286 E0.05077
G1 X71.694 Y61.411 E0.04953
G1 X72.301 Y61.060 E0.04118
G1 X73.101 Y61.275 E0.04870
G1 X73.517 Y61.996 E0.04896
G1 X74.108 Y62.279 E0.03850
G1 X74.849 Y62.727 E0.05089
G1 X75.504 Y63.215 E0.04805
G1 X76.146 Y63.798 E0.05095
G1 X76.727 Y64.442 E0.05100
G1 X77.241 Y65.142 E0.05106
G1 X77.683 Y65.889 E0.05101
G1 X78.030 Y66.631 E0.04816
G1 X78.320 Y67.452 E0.05118
G1 X78.519 Y68.255 E0.04863
G1 X78.648 Y69.131 E0.05207
G1 X78.690 Y69.975 E0.04967
G1 X78.653 Y70.821 E0.04974
G1 X78.528 Y71.697 E0.05205
G1 X78.334 Y72.501 E0.04864
G1 X78.048 Y73.324 E0.05117
G1 X77.683 Y74.111 E0.05099
G1 X77.241 Y74.858 E0.05104
G1 X76.759 Y75.519 E0.04811
G1 X76.181 Y76.167 E0.05100
G1 X75.543 Y76.753 E0.05096
G1 X74.849 Y77.273 E0.05098
G1 X74.108 Y77.721 E0.05090
G1 X73.373 Y78.073 E0.04789
G1 X72.555 Y78.371 E0.05116
G1 X71.719 Y78.584 E0.05074
G1 X70.865 Y78.713 E0.05076
G1 X70.037 Y78.757 E0.04872
G1 X69.135 Y78.713 E0.05309
G1 X68.281 Y78.584 E0.05077
G1 X67.445 Y78.371 E0.05072
G1 X66.671 Y78.091 E0.04841
G1 X65.892 Y77.721 E0.05064
G1 X65.151 Y77.273 E0.05090
G1 X64.495 Y76.785 E0.04806
G1 X63.854 Y76.202 E0.05094
G1 X63.273 Y75.558 E0.05099
G1 X62.759 Y74.858 E0.05106
G1 X62.317 Y74.111 E0.05103
G1 X61.970 Y73.368 E0.04817
G1 X61.680 Y72.548 E0.05116
G1 X61.481 Y71.745 E0.04862
G1 X61.352 Y70.869 E0.05204
G1 X61.310 Y70.023 E0.04979
G1 X61.347 Y69.180 E0.04962
G1 X61.472 Y68.303 E0.05211
G1 X61.666 Y67.498 E0.04863
G1 X61.952 Y66.676 E0.05117
G1 X62.295 Y65.932 E0.04817
G1 X62.731 Y65.183 E0.05093
G1 X63.241 Y64.481 E0.05103
G1 X63.802 Y63.852 E0.04953
G1 X63.854 Y63.798 E0.00441
G1 X64.200 Y64.158 F18000.000
G1 X64.804 Y63.608 F600.000 E0.04802
G1 X65.440 Y63.135 E0.04658
G1 X66.139 Y62.714 E0.04799
G1 X66.548 Y62.518 E0.02666
G1 X66.500 Y62.339 E0.01089
G1 X66.957 Y61.548 E0.05374
G1 X67.358 Y61.441 E0.02435
G1 X68.228 Y61.943 E0.05910
G1 X69.149 Y61.788 E0.05491
G1 X69.987 Y61.743 E0.04931
G1 X70.800 Y61.783 E0.04783
G1 X71.581 Y61.898 E0.04639
G1 X71.770 Y61.944 E0.01145
G1 X72.371 Y61.597 E0.04083
G1 X72.771 Y61.704 E0.02435
G1 X73.162 Y62.381 E0.04597
G1 X73.861 Y62.714 E0.04549
G1 X74.560 Y63.135 E0.04798
G1 X75.196 Y63.608 E0.04658
G1 X75.800 Y64.158 E0.04802
G1 X76.346 Y64.766 E0.04806
G1 X76.830 Y65.427 E0.04812
G1 X77.246 Y66.132 E0.04810
G1 X77.571 Y66.831 E0.04531
G1 X77.844 Y67.606 E0.04833
G1 X78.031 Y68.362 E0.04578
G1 X78.151 Y69.191 E0.04922
G1 X78.190 Y69.987 E0.04685
G1 X78.151 Y70.809 E0.04839
G1 X78.031 Y71.638 E0.04921
G1 X77.844 Y72.394 E0.04579
G1 X77.571 Y73.169 E0.04833
G1 X77.246 Y73.868 E0.04530
G1 X76.830 Y74.573 E0.04813
G1 X76.362 Y75.214 E0.04664
G1 X75.817 Y75.824 E0.04806
G1 X75.215 Y76.376 E0.04802
G1 X74.560 Y76.865 E0.04804
G1 X73.861 Y77.286 E0.04798
G1 X73.169 Y77.616 E0.04507
G1 X72.418 Y77.890 E0.04697
G1 X71.630 Y78.092 E0.04783
G1 X70.826 Y78.215 E0.04782
G1 X70.031 Y78.257 E0.04681
G1 X69.174 Y78.215 E0.05040
G1 X68.370 Y78.092 E0.04784
G1 X67.582 Y77.890 E0.04781
G1 X66.853 Y77.625 E0.04559
G1 X66.139 Y77.286 E0.04645
G1 X65.440 Y76.865 E0.04799
G1 X64.804 Y76.392 E0.04659
G1 X64.200 Y75.842 E0.04801
G1 X63.654 Y75.234 E0.04805
G1 X63.170 Y74.574 E0.04812
G1 X62.754 Y73.868 E0.04812
G1 X62.429 Y73.169 E0.04533
G1 X62.156 Y72.394 E0.04832
G1 X61.970 Y71.638 E0.04578
G1 X61.849 Y70.810 E0.04919
G1 X61.810 Y70.012 E0.04697
G1 X61.846 Y69.216 E0.04684
G1 X61.965 Y68.386 E0.04927
G1 X62.149 Y67.629 E0.04578
G1 X62.420 Y66.853 E0.04832
G1 X62.743 Y66.153 E0.04532
G1 X63.156 Y65.447 E0.04807
G1 X63.638 Y64.786 E0.04810
G1 X64.149 Y64.213 E0.04513
G1 X64.200 Y64.158 E0.00441
G1 X69.902 Y66.494 F18000.000
G1 X69.902 Y63.776 F900.000 E0.15977
G1 X69.327 Y63.444 E0.03904
G1 X70.098 Y66.494 F18000.000
G1 X70.098 Y63.776 F900.000 E0.15977
G1 X70.402 Y63.600 E0.02064
G1 X70.501 Y62.260 F18000.000
G1 X71.260 Y62.348 F720.000 E0.04491
G1 X72.007 Y62.511 E0.04491
G1 X72.698 Y62.735 E0.04270
G1 X73.401 Y63.040 E0.04507
G1 X74.071 Y63.413 E0.04507
G1 X74.700 Y63.852 E0.04508
