; generated by Slic3r 0.9.7 on 2013-11-04 at 13:52:05

; layer_height = 0.15
; perimeters = 2
; top_solid_layers = 3
; bottom_solid_layers = 2
; fill_density = 0.4
; perimeter_speed = 20
; infill_speed = 30
; travel_speed = 300
; scale = 1
; nozzle_diameter = 0.5
; filament_diameter = 1.71
; extrusion_multiplier = 0.9
; perimeters extrusion width = 0.50mm
; infill extrusion width = 0.50mm
; support material extrusion width = 0.11mm
; first layer extrusion width = 0.50mm

M107
M190 S63 ; wait for bed temperature to be reached
M104 S200 ; set temperature
G1 Z0.15 F200
G1 X15 Y20 F12000
M109 S200 ; wait for temperature to be reached
G90 ; use absolute coordinates
G21 ; set units to millimeters
M83 ; use relative distances for extrusion
G1 F2220.000 E-1.60000
G1 Z0.300 F18000.000
G1 X63.432 Y58.532
G1 F2220.000 E1.60000
G1 X63.812 Y58.142 F600.000 E0.03201
G1 X64.232 Y57.782 E0.03252
G1 X64.672 Y57.462 E0.03198
G1 X65.382 Y57.052 E0.04819
G1 X66.232 Y56.632 E0.05573
G1 X67.032 Y56.302 E0.05087
G1 X67.582 Y56.142 E0.03367
G1 X67.862 Y56.082 E0.01683
G1 X68.152 Y56.032 E0.01730
G1 X68.722 Y55.972 E0.03369
G1 X69.292 Y55.962 E0.03351
G1 X71.062 Y56.012 E0.10409
G1 X71.682 Y56.062 E0.03656
G1 X72.602 Y56.242 E0.05511
G1 X73.192 Y56.432 E0.03644
G1 X74.322 Y56.922 E0.07240
G1 X74.822 Y57.162 E0.03260
G1 X75.532 Y57.602 E0.04910
G1 X76.172 Y58.132 E0.04885
G1 X76.742 Y58.742 E0.04908
G1 X76.912 Y58.952 E0.01588
G1 X77.232 Y59.412 E0.03294
G1 X77.502 Y59.892 E0.03237
G1 X77.742 Y60.392 E0.03260
G1 X80.932 Y68.112 E0.49102
G1 X81.102 Y68.652 E0.03328
G1 X81.222 Y69.202 E0.03309
G1 X81.292 Y69.752 E0.03259
G1 X81.322 Y70.312 E0.03297
G1 X81.322 Y70.592 E0.01646
G1 X81.272 Y71.152 E0.03305
G1 X81.232 Y71.432 E0.01663
G1 X81.112 Y71.982 E0.03309
G1 X80.302 Y75.072 E0.18778
G1 X80.102 Y75.632 E0.03495
G1 X79.842 Y76.172 E0.03523
G1 X78.152 Y79.382 E0.21325
G1 X77.832 Y79.922 E0.03690
G1 X77.472 Y80.422 E0.03622
G1 X77.052 Y80.892 E0.03705
G1 X76.592 Y81.322 E0.03701
G1 X74.062 Y83.452 E0.19441
G1 X73.602 Y83.772 E0.03294
G1 X73.352 Y83.922 E0.01714
G1 X72.852 Y84.192 E0.03340
G1 X72.592 Y84.302 E0.01660
G1 X72.052 Y84.502 E0.03385
G1 X71.782 Y84.582 E0.01655
G1 X71.222 Y84.702 E0.03367
G1 X70.662 Y84.782 E0.03325
G1 X69.902 Y84.802 E0.04469
G1 X69.342 Y84.782 E0.03294
G1 X69.062 Y84.752 E0.01655
G1 X68.512 Y84.652 E0.03286
G1 X67.972 Y84.512 E0.03279
G1 X67.192 Y84.212 E0.04913
G1 X66.942 Y84.092 E0.01630
G1 X66.452 Y83.812 E0.03317
G1 X65.992 Y83.492 E0.03294
G1 X65.562 Y83.142 E0.03259
G1 X63.402 Y81.192 E0.17106
G1 X63.172 Y80.962 E0.01912
G1 X62.762 Y80.462 E0.03801
G1 X62.402 Y79.932 E0.03766
G1 X60.182 Y76.242 E0.25314
G1 X59.922 Y75.692 E0.03576
G1 X59.812 Y75.412 E0.01768
G1 X59.622 Y74.832 E0.03588
G1 X58.862 Y72.012 E0.17168
G1 X58.742 Y71.452 E0.03367
G1 X58.662 Y70.892 E0.03325
G1 X58.642 Y70.312 E0.03411
G1 X58.652 Y70.032 E0.01647
G1 X58.742 Y69.182 E0.05024
G1 X58.872 Y68.622 E0.03379
G1 X59.042 Y68.072 E0.03384
G1 X62.382 Y60.122 E0.50689
G1 X62.632 Y59.632 E0.03234
G1 X62.922 Y59.172 E0.03197
G1 X63.383 Y58.589 E0.04370
G1 X63.432 Y58.532 E0.00441
G1 F2220.000 E-1.60000
G1 X64.247 Y58.845 F18000.000
G1 F2220.000 E1.60000
G1 X66.648 Y58.202 F600.000 E0.14609
G1 X66.775 Y58.275 E0.00862
G1 X66.822 Y58.075 E0.01212
G1 X68.939 Y56.772 E0.14609
G1 X70.138 Y57.057 E0.07248
G1 X71.244 Y56.831 E0.06635
G1 X73.318 Y58.202 E0.14609
G1 X73.322 Y58.222 E0.00122
G1 X73.353 Y58.204 E0.00211
G1 X75.753 Y58.847 E0.14609
G1 X77.246 Y61.432 E0.17548
G1 X76.603 Y63.833 E0.14609
G1 X76.497 Y63.894 E0.00716
G1 X76.625 Y64.275 E0.02359
G1 X75.733 Y66.068 E0.11773
G1 X76.443 Y65.658 E0.04820
G1 X78.843 Y66.301 E0.14609
G1 X80.336 Y68.886 E0.17548
G1 X79.693 Y71.287 E0.14609
G1 X77.350 Y72.640 E0.15903
G1 X77.350 Y73.930 E0.07584
G1 X77.912 Y74.904 E0.06614
G1 X77.269 Y77.305 E0.14609
G1 X76.489 Y77.755 E0.05294
G1 X75.592 Y78.652 E0.07455
G1 X74.936 Y78.652 E0.03859
G1 X73.597 Y79.425 E0.09091
G1 X73.350 Y80.144 E0.04468
G1 X73.350 Y82.053 E0.11220
G1 X71.592 Y83.810 E0.14609
G1 X68.411 Y83.810 E0.18699
G1 X66.654 Y82.053 E0.14609
G1 X66.654 Y81.030 E0.06011
G1 X66.230 Y79.323 E0.10342
G1 X65.068 Y78.652 E0.07885
G1 X64.411 Y78.652 E0.03860
G1 X63.514 Y77.755 E0.07459
G1 X63.115 Y77.524 E0.02713
G1 X63.053 Y77.293 E0.01404
G1 X62.654 Y76.894 E0.03314
G1 X62.654 Y75.805 E0.06404
G1 X62.471 Y75.123 E0.04149
G1 X62.654 Y74.807 E0.02147
G1 X62.654 Y72.639 E0.12741
G1 X60.278 Y71.268 E0.16125
G1 X59.635 Y68.867 E0.14609
G1 X61.128 Y66.282 E0.17548
G1 X63.528 Y65.639 E0.14609
G1 X65.288 Y66.654 E0.11941
G1 X64.922 Y66.061 E0.04097
G1 X65.205 Y64.874 E0.07169
G1 X63.398 Y63.831 E0.12264
G1 X62.754 Y61.431 E0.14609
G1 X64.210 Y58.910 E0.17108
G1 X64.247 Y58.845 E0.00441
G1 X64.577 Y59.275 F18000.000
G1 X66.577 Y58.739 F600.000 E0.12174
G1 X67.106 Y59.044 E0.03589
G1 X67.261 Y58.392 E0.03939
G1 X69.025 Y57.306 E0.12174
G1 X70.130 Y57.569 E0.06680
G1 X71.141 Y57.363 E0.06067
G1 X72.869 Y58.505 E0.12174
G1 X72.971 Y59.002 E0.02984
G1 X73.424 Y58.740 E0.03073
G1 X75.424 Y59.276 E0.12174
G1 X76.710 Y61.503 E0.15114
G1 X76.174 Y63.504 E0.12174
G1 X75.893 Y63.665 E0.01902
G1 X76.085 Y64.237 E0.03545
G1 X74.940 Y66.539 E0.15114
G1 X74.227 Y66.778 E0.04415
G1 X74.262 Y66.990 E0.01262
G1 X73.803 Y67.529 E0.04164
G1 X74.002 Y67.644 E0.01351
G1 X76.513 Y66.194 E0.17047
G1 X78.514 Y66.730 E0.12174
G1 X79.799 Y68.957 E0.15114
G1 X79.263 Y70.957 E0.12174
G1 X76.850 Y72.351 E0.16382
G1 X76.850 Y74.064 E0.10068
G1 X77.376 Y74.975 E0.06184
G1 X76.840 Y76.975 E0.12174
G1 X76.182 Y77.355 E0.04464
G1 X75.385 Y78.152 E0.06625
G1 X74.802 Y78.152 E0.03429
G1 X73.185 Y79.086 E0.10978
G1 X72.850 Y80.060 E0.06058
G1 X72.850 Y81.845 E0.10493
G1 X71.385 Y83.310 E0.12174
G1 X68.619 Y83.310 E0.16264
G1 X67.154 Y81.845 E0.12174
G1 X67.154 Y80.969 E0.05154
G1 X66.664 Y78.996 E0.11951
G1 X65.202 Y78.152 E0.09921
G1 X64.619 Y78.152 E0.03430
G1 X63.821 Y77.355 E0.06628
G1 X63.544 Y77.194 E0.01882
G1 X63.501 Y77.034 E0.00974
G1 X63.154 Y76.687 E0.02884
G1 X63.154 Y75.739 E0.05574
G1 X63.008 Y75.194 E0.03319
G1 X63.154 Y74.941 E0.01717
G1 X63.154 Y72.351 E0.15225
G1 X60.708 Y70.938 E0.16605
G1 X60.172 Y68.938 E0.12174
G1 X61.457 Y66.711 E0.15114
G1 X63.458 Y66.175 E0.12174
G1 X66.002 Y67.644 E0.17269
G1 X66.201 Y67.529 E0.01351
G1 X65.742 Y66.990 E0.04163
G1 X65.813 Y66.554 E0.02597
G1 X65.457 Y65.975 E0.03994
G1 X65.777 Y64.628 E0.08142
G1 X63.827 Y63.502 E0.13237
G1 X63.291 Y61.501 E0.12174
G1 X64.539 Y59.340 E0.14673
G1 X64.577 Y59.275 E0.00441
G1 X64.906 Y59.704 F18000.000
G1 X66.506 Y59.275 F600.000 E0.09739
G1 X67.437 Y59.812 E0.06316
G1 X67.699 Y58.709 E0.06666
G1 X69.110 Y57.841 E0.09739
G1 X70.122 Y58.081 E0.06112
G1 X71.038 Y57.894 E0.05499
G1 X72.421 Y58.807 E0.09739
G1 X72.620 Y59.782 E0.05846
G1 X73.494 Y59.277 E0.05935
G1 X75.095 Y59.706 E0.09739
G1 X76.173 Y61.574 E0.12679
G1 X75.744 Y63.174 E0.09739
G1 X75.289 Y63.437 E0.03088
G1 X75.545 Y64.200 E0.04731
G1 X74.584 Y66.131 E0.12679
G1 X73.666 Y66.439 E0.05694
G1 X73.731 Y66.842 E0.02399
G1 X73.124 Y67.556 E0.05514
G1 X73.118 Y67.711 E0.00910
G1 X74.002 Y68.221 E0.06002
G1 X76.584 Y66.731 E0.17526
G1 X78.184 Y67.160 E0.09739
G1 X79.263 Y69.028 E0.12679
G1 X78.834 Y70.628 E0.09739
G1 X76.350 Y72.062 E0.16862
G1 X76.350 Y74.198 E0.12553
G1 X76.839 Y75.045 E0.05754
G1 X76.410 Y76.646 E0.09739
G1 X75.875 Y76.955 E0.03633
G1 X75.178 Y77.652 E0.05794
G1 X74.668 Y77.652 E0.02999
G1 X72.810 Y78.725 E0.12611
G1 X72.736 Y78.853 E0.00875
G1 X72.350 Y79.977 E0.06983
G1 X72.350 Y81.638 E0.09766
G1 X71.178 Y82.810 E0.09739
G1 X68.826 Y82.810 E0.13829
G1 X67.654 Y81.638 E0.09739
G1 X67.654 Y80.908 E0.04296
G1 X67.098 Y78.669 E0.13559
G1 X65.336 Y77.652 E0.11957
G1 X64.826 Y77.652 E0.03000
G1 X64.128 Y76.954 E0.05798
G1 X63.973 Y76.865 E0.01052
G1 X63.949 Y76.775 E0.00544
G1 X63.654 Y76.480 E0.02454
G1 X63.654 Y75.673 E0.04743
G1 X63.545 Y75.265 E0.02488
G1 X63.654 Y75.075 E0.01288
G1 X63.654 Y72.062 E0.17710
G1 X61.137 Y70.609 E0.17084
G1 X60.708 Y69.009 E0.09739
G1 X61.787 Y67.141 E0.12679
G1 X63.387 Y66.712 E0.09739
G1 X66.002 Y68.221 E0.17748
G1 X66.886 Y67.711 E0.06002
G1 X66.880 Y67.556 E0.00910
G1 X66.273 Y66.842 E0.05514
G1 X66.336 Y66.450 E0.02333
G1 X65.991 Y65.889 E0.03871
G1 X66.350 Y64.381 E0.09114
G1 X64.256 Y63.172 E0.14210
G1 X63.828 Y61.572 E0.09739
G1 X64.869 Y59.769 E0.12238
G1 X64.906 Y59.704 E0.00441
G1 F2220.000 E-1.60000
G1 X70.002 Y71.108 F18000.000
G1 F2220.000 E1.60000
G1 X71.113 Y71.750 F600.000 E0.07545
G1 X70.224 Y71.750 E0.05232
G1 X70.002 Y71.972 E0.01842
G1 X69.780 Y71.750 E0.01842
G1 X68.890 Y71.750 E0.05232
G1 X69.937 Y71.146 E0.07104
G1 X70.002 Y71.108 E0.00441
G1 F2220.000 E-1.60000
G1 X67.397 Y67.993 F18000.000
G1 F2220.000 E1.60000
G1 X67.373 Y67.364 F600.000 E0.03700
G1 X66.803 Y66.694 E0.05174
G1 X66.860 Y66.347 E0.02069
G1 X66.525 Y65.804 E0.03748
G1 X66.923 Y64.134 E0.10087
G1 X64.686 Y62.843 E0.15182
G1 X64.364 Y61.642 E0.07305
G1 X65.235 Y60.133 E0.10244
G1 X66.436 Y59.812 E0.07305
G1 X67.768 Y60.581 E0.09043
G1 X68.138 Y59.026 E0.09393
G1 X69.196 Y58.375 E0.07305
G1 X70.114 Y58.593 E0.05544
G1 X70.936 Y58.425 E0.04931
G1 X71.972 Y59.110 E0.07305
G1 X72.269 Y60.562 E0.08708
G1 X73.565 Y59.814 E0.08797
G1 X74.765 Y60.135 E0.07305
G1 X75.636 Y61.644 E0.10244
G1 X75.315 Y62.845 E0.07305
G1 X74.685 Y63.208 E0.04274
G1 X75.005 Y64.163 E0.05917
G1 X74.229 Y65.723 E0.10244
G1 X73.274 Y66.043 E0.05922
G1 X73.132 Y66.271 E0.01579
G1 X73.201 Y66.694 E0.02517
G1 X72.630 Y67.364 E0.05174
G1 X72.607 Y67.993 E0.03700
G1 X74.002 Y68.799 E0.09471
G1 X76.655 Y67.267 E0.18006
G1 X77.855 Y67.589 E0.07305
G1 X78.726 Y69.098 E0.10244
G1 X78.405 Y70.299 E0.07305
G1 X75.850 Y71.773 E0.17341
G1 X75.850 Y74.332 E0.15037
G1 X76.303 Y75.116 E0.05325
G1 X75.981 Y76.316 E0.07305
G1 X75.568 Y76.555 E0.02803
G1 X74.971 Y77.152 E0.04964
G1 X74.534 Y77.152 E0.02569
G1 X72.444 Y78.359 E0.14186
G1 X72.279 Y78.645 E0.01946
G1 X71.850 Y79.893 E0.07758
G1 X71.850 Y81.431 E0.09040
G1 X70.971 Y82.310 E0.07305
G1 X69.033 Y82.310 E0.11394
G1 X68.154 Y81.431 E0.07305
G1 X68.154 Y80.846 E0.03438
G1 X67.532 Y78.342 E0.15168
G1 X65.470 Y77.152 E0.13994
G1 X65.033 Y77.152 E0.02570
G1 X64.154 Y76.273 E0.07305
G1 X64.154 Y75.608 E0.03912
G1 X64.081 Y75.335 E0.01658
G1 X64.154 Y75.209 E0.00858
G1 X64.154 Y71.773 E0.20194
G1 X61.567 Y70.279 E0.17564
G1 X61.245 Y69.079 E0.07305
G1 X62.116 Y67.570 E0.10244
G1 X63.316 Y67.248 E0.07305
G1 X66.002 Y68.799 E0.18228
G1 X67.332 Y68.031 E0.09030
G1 X67.397 Y67.993 E0.00441
G1 F2220.000 E-1.60000
G1 X70.002 Y70.531 F18000.000
G1 F2220.000 E1.60000
G1 X72.154 Y71.773 F600.000 E0.14609
G1 X72.154 Y72.250 E0.02801
G1 X70.431 Y72.250 E0.10131
G1 X70.002 Y72.679 E0.03564
G1 X69.573 Y72.250 E0.03564
G1 X67.850 Y72.250 E0.10131
G1 X67.850 Y71.773 E0.02802
G1 X69.937 Y70.568 E0.14167
G1 X70.002 Y70.531 E0.00441
G1 F2220.000 E-1.60000
G1 X67.908 Y68.276 F18000.000
G1 F2220.000 E1.60000
G1 X67.867 Y67.172 F600.000 E0.06490
G1 X67.334 Y66.546 E0.04834
G1 X67.383 Y66.243 E0.01804
G1 X67.060 Y65.718 E0.03625
G1 X67.495 Y63.887 E0.11060
G1 X65.115 Y62.513 E0.16155
G1 X64.901 Y61.713 E0.04870
G1 X65.565 Y60.563 E0.07809
G1 X66.365 Y60.348 E0.04870
G1 X68.024 Y61.306 E0.11258
G1 X68.184 Y60.994 E0.02058
G1 X68.576 Y59.344 E0.09975
G1 X69.282 Y58.909 E0.04870
G1 X70.105 Y59.105 E0.04977
G1 X70.833 Y58.957 E0.04363
G1 X71.524 Y59.413 E0.04870
G1 X71.918 Y61.342 E0.11570
G1 X73.635 Y60.350 E0.11660
G1 X74.436 Y60.565 E0.04870
G1 X75.100 Y61.715 E0.07809
G1 X74.885 Y62.515 E0.04870
G1 X73.802 Y63.141 E0.07354
G1 X74.202 Y63.340 E0.02626
G1 X74.465 Y64.125 E0.04870
G1 X73.874 Y65.314 E0.07809
G1 X73.088 Y65.578 E0.04870
G1 X72.838 Y65.453 E0.01642
G1 X72.896 Y65.703 E0.01506
G1 X72.609 Y66.167 E0.03208
G1 X72.670 Y66.546 E0.02259
G1 X72.137 Y67.172 E0.04834
G1 X72.096 Y68.276 E0.06490
G1 X74.002 Y69.376 E0.12940
G1 X76.725 Y67.804 E0.18485
G1 X77.525 Y68.018 E0.04870
G1 X78.190 Y69.169 E0.07809
G1 X77.975 Y69.969 E0.04870
G1 X75.350 Y71.485 E0.17821
G1 X75.350 Y74.466 E0.17522
G1 X75.766 Y75.187 E0.04895
G1 X75.552 Y75.987 E0.04870
G1 X75.261 Y76.155 E0.01972
G1 X74.764 Y76.652 E0.04133
G1 X74.400 Y76.652 E0.02139
G1 X71.975 Y78.052 E0.16459
G1 X71.997 Y78.133 E0.00493
G1 X71.821 Y78.437 E0.02065
G1 X71.350 Y79.810 E0.08533
G1 X71.350 Y81.224 E0.08313
G1 X70.764 Y81.810 E0.04870
G1 X69.240 Y81.810 E0.08959
G1 X68.654 Y81.224 E0.04870
G1 X68.654 Y80.638 E0.03445
G1 X68.611 Y80.612 E0.00295
G1 X67.966 Y78.015 E0.15729
G1 X65.604 Y76.652 E0.16030
G1 X65.240 Y76.652 E0.02141
G1 X64.654 Y76.066 E0.04870
G1 X64.654 Y75.542 E0.03082
G1 X64.618 Y75.406 E0.00827
G1 X64.654 Y75.343 E0.00428
G1 X64.654 Y71.485 E0.22679
G1 X61.996 Y69.950 E0.18043
G1 X61.781 Y69.150 E0.04870
G1 X62.446 Y67.999 E0.07809
G1 X63.246 Y67.785 E0.04870
G1 X66.002 Y69.376 E0.18707
G1 X67.843 Y68.313 E0.12499
G1 X67.908 Y68.276 E0.00441
G1 F2220.000 E-1.60000
G1 X70.002 Y69.954 F18000.000
G1 F2220.000 E1.60000
G1 X72.654 Y71.485 F600.000 E0.18003
G1 X72.654 Y73.435 E0.11466
G1 X72.071 Y72.750 E0.05289
G1 X70.638 Y72.750 E0.08426
G1 X70.052 Y73.336 E0.04870
G1 X70.052 Y75.893 E0.15032
G1 X70.030 Y75.957 E0.00397
G1 X69.952 Y75.643 E0.01901
G1 X69.952 Y73.336 E0.13563
G1 X69.366 Y72.750 E0.04870
G1 X67.933 Y72.750 E0.08426
G1 X67.350 Y73.435 E0.05288
G1 X67.350 Y71.485 E0.11466
G1 X69.937 Y69.991 E0.17561
G1 X70.002 Y69.954 E0.00441
G1 F2220.000 E-1.60000
G1 X67.350 Y73.553 F18000.000
G1 F2220.000 E1.60000
G1 X67.382 Y73.749 F600.000 E0.01168
G1 X67.350 Y73.802 E0.00363
G1 X67.350 Y73.628 E0.01023
G1 X67.350 Y73.553 E0.00441
G1 F2220.000 E-1.60000
G1 X72.635 Y73.672 F18000.000
G1 F2220.000 E1.60000
G1 X72.654 Y73.553 F600.000 E0.00713
G1 X72.654 Y73.625 E0.00423
G1 X72.635 Y73.672 E0.00303
G1 F2220.000 E-1.60000
G1 X74.850 Y74.600 F18000.000
G1 F2220.000 E1.60000
G1 X75.230 Y75.257 F600.000 E0.04465
G1 X75.122 Y75.657 E0.02435
G1 X74.850 Y75.815 E0.01850
G1 X74.850 Y75.859 E0.00259
G1 X74.557 Y76.152 E0.02435
G1 X74.266 Y76.152 E0.01709
G1 X71.536 Y77.728 E0.18529
G1 X71.443 Y77.998 E0.01681
G1 X71.460 Y78.062 E0.00388
G1 X71.364 Y78.229 E0.01131
G1 X70.850 Y79.726 E0.09308
G1 X70.850 Y81.017 E0.07586
G1 X70.557 Y81.310 E0.02435
G1 X69.447 Y81.310 E0.06524
G1 X69.154 Y81.017 E0.02435
G1 X69.154 Y80.355 E0.03889
G1 X69.046 Y80.291 E0.00739
G1 X68.400 Y77.689 E0.15760
G1 X65.738 Y76.152 E0.18066
G1 X65.447 Y76.152 E0.01711
G1 X65.154 Y75.859 E0.02435
G1 X65.154 Y71.196 E0.27410
G1 X62.425 Y69.621 E0.18523
G1 X62.318 Y69.220 E0.02435
G1 X62.775 Y68.429 E0.05374
G1 X63.175 Y68.322 E0.02435
G1 X66.002 Y69.954 E0.19187
G1 X68.419 Y68.558 E0.16409
G1 X68.351 Y66.750 E0.10634
G1 X68.164 Y66.750 E0.01100
G1 X67.864 Y66.398 E0.02717
G1 X67.927 Y66.012 E0.02296
G1 X67.811 Y65.985 E0.00699
G1 X67.594 Y65.632 E0.02435
G1 X68.068 Y63.641 E0.12032
G1 X65.544 Y62.184 E0.17128
G1 X65.437 Y61.784 E0.02435
G1 X65.894 Y60.992 E0.05374
G1 X66.294 Y60.885 E0.02435
G1 X68.234 Y62.005 E0.13167
G1 X68.533 Y61.404 E0.03942
G1 X68.606 Y61.380 E0.00450
G1 X69.015 Y59.661 E0.10389
G1 X69.368 Y59.444 E0.02435
G1 X70.097 Y59.617 E0.04409
G1 X70.730 Y59.488 E0.03796
G1 X71.075 Y59.716 E0.02435
G1 X71.567 Y62.122 E0.14432
G1 X73.706 Y60.887 E0.14522
G1 X74.106 Y60.994 E0.02435
G1 X74.563 Y61.786 E0.05374
G1 X74.456 Y62.186 E0.02435
G1 X72.745 Y63.173 E0.11612
G1 X73.794 Y63.695 E0.06883
G1 X73.925 Y64.088 E0.02435
G1 X73.518 Y64.906 E0.05374
G1 X73.125 Y65.038 E0.02435
G1 X72.109 Y64.532 E0.06675
G1 X72.362 Y65.615 E0.06539
G1 X72.144 Y65.967 E0.02435
G1 X72.072 Y65.984 E0.00432
G1 X72.140 Y66.398 E0.02466
G1 X71.840 Y66.750 E0.02717
G1 X71.653 Y66.750 E0.01100
G1 X71.584 Y68.558 E0.10635
G1 X74.002 Y69.954 E0.16409
G1 X76.796 Y68.341 E0.18964
G1 X77.196 Y68.448 E0.02435
G1 X77.653 Y69.239 E0.05374
G1 X77.546 Y69.640 E0.02435
G1 X74.850 Y71.196 E0.18300
G1 X74.850 Y74.525 E0.19566
G1 X74.850 Y74.600 E0.00441
G1 X73.154 Y75.062 F18000.000
G1 X72.279 Y75.567 F600.000 E0.05943
G1 X72.641 Y74.513 E0.06553
G1 X72.459 Y74.141 E0.02435
G1 X72.074 Y74.008 E0.02395
