; generated by Slic3r 0.9.7 on 2013-11-14 at 19:46:09

; layer_height = 0.15
; perimeters = 2
; top_solid_layers = 3
; bottom_solid_layers = 2
; fill_density = 0.4
; perimeter_speed = 20
; infill_speed = 30
; travel_speed = 300
; scale = 1
; nozzle_diameter = 0.5
; filament_diameter = 1.75
; extrusion_multiplier = 0.9
; perimeters extrusion width = 0.50mm
; infill extrusion width = 0.50mm
; support material extrusion width = 0.11mm
; first layer extrusion width = 0.50mm

M107
M190 S63 ; wait for bed temperature to be reached
M104 S200 ; set temperature
G1 Z0.15 F200
G1 X15 Y20 F12000
M109 S200 ; wait for temperature to be reached
G90 ; use absolute coordinates
G21 ; set units to millimeters
M83 ; use relative distances for extrusion
G1 F2220.000 E-1.60000
G1 Z0.200 F18000.000
G1 X48.530 Y46.987
G1 F2220.000 E1.60000
G1 X48.940 Y46.597 F600.000 E0.02117
G1 X49.380 Y46.257 E0.02081
G1 X51.290 Y44.897 E0.08773
G1 X52.000 Y44.527 E0.02996
G1 X53.660 Y43.787 E0.06801
G1 X54.170 Y43.587 E0.02050
G1 X54.950 Y43.367 E0.03032
G1 X56.730 Y42.987 E0.06810
G1 X57.270 Y42.897 E0.02048
G1 X57.540 Y42.867 E0.01016
G1 X58.090 Y42.847 E0.02059
G1 X60.030 Y42.847 E0.07259
G1 X82.930 Y43.297 E0.85703
G1 X83.680 Y43.357 E0.02815
G1 X84.180 Y43.447 E0.01901
G1 X85.750 Y43.787 E0.06011
G1 X86.260 Y43.917 E0.01969
G1 X86.760 Y44.087 E0.01976
G1 X88.720 Y44.957 E0.08024
G1 X89.200 Y45.217 E0.02043
G1 X89.430 Y45.367 E0.01027
G1 X90.970 Y46.477 E0.07103
G1 X91.400 Y46.817 E0.02051
G1 X91.790 Y47.187 E0.02012
G1 X93.060 Y48.587 E0.07073
G1 X93.410 Y49.007 E0.02046
G1 X93.720 Y49.457 E0.02045
G1 X93.860 Y49.697 E0.01040
G1 X94.660 Y51.087 E0.06001
G1 X94.920 Y51.567 E0.02043
G1 X95.030 Y51.817 E0.01022
G1 X95.220 Y52.327 E0.02036
G1 X95.720 Y53.877 E0.06094
G1 X95.920 Y54.667 E0.03049
G1 X96.160 Y56.837 E0.08169
G1 X96.200 Y57.557 E0.02698
G1 X96.000 Y82.187 E0.92163
G1 X95.970 Y82.807 E0.02323
G1 X95.800 Y84.447 E0.06169
G1 X95.720 Y84.987 E0.02043
G1 X95.510 Y85.787 E0.03095
G1 X95.010 Y87.327 E0.06058
G1 X94.830 Y87.827 E0.01988
G1 X94.600 Y88.307 E0.01992
G1 X93.670 Y89.937 E0.07022
G1 X93.380 Y90.407 E0.02066
G1 X92.860 Y91.067 E0.03144
G1 X91.780 Y92.267 E0.06041
G1 X91.400 Y92.657 E0.02037
G1 X90.770 Y93.177 E0.03057
G1 X89.230 Y94.287 E0.07103
G1 X89.000 Y94.437 E0.01027
G1 X88.520 Y94.697 E0.02043
G1 X86.560 Y95.567 E0.08024
G1 X86.310 Y95.657 E0.00994
G1 X85.550 Y95.867 E0.02950
G1 X83.750 Y96.257 E0.06891
G1 X82.830 Y96.357 E0.03463
G1 X60.130 Y97.147 E0.84989
G1 X58.090 Y97.147 E0.07633
G1 X57.540 Y97.127 E0.02059
G1 X57.270 Y97.097 E0.01016
G1 X56.730 Y97.007 E0.02048
G1 X54.950 Y96.627 E0.06810
G1 X54.170 Y96.407 E0.03032
G1 X53.660 Y96.207 E0.02050
G1 X52.000 Y95.467 E0.06801
G1 X51.280 Y95.087 E0.03046
G1 X50.820 Y94.787 E0.02055
G1 X49.350 Y93.717 E0.06803
G1 X48.930 Y93.377 E0.02022
G1 X48.540 Y93.007 E0.02012
G1 X47.140 Y91.467 E0.07788
G1 X46.620 Y90.817 E0.03115
G1 X46.470 Y90.587 E0.01027
G1 X45.420 Y88.767 E0.07862
G1 X45.160 Y88.287 E0.02043
G1 X45.050 Y88.037 E0.01022
G1 X44.860 Y87.517 E0.02072
G1 X44.300 Y85.777 E0.06840
G1 X44.160 Y85.267 E0.01979
G1 X44.060 Y84.747 E0.01981
G1 X44.030 Y84.487 E0.00979
G1 X43.830 Y82.647 E0.06925
G1 X43.790 Y81.947 E0.02624
G1 X43.790 Y58.047 E0.89428
G1 X43.830 Y57.347 E0.02624
G1 X44.060 Y55.237 E0.07942
G1 X44.160 Y54.717 E0.01981
G1 X44.300 Y54.207 E0.01979
G1 X44.860 Y52.467 E0.06840
G1 X44.950 Y52.207 E0.01029
G1 X45.290 Y51.437 E0.03150
G1 X46.340 Y49.627 E0.07830
G1 X46.620 Y49.177 E0.01983
G1 X47.120 Y48.547 E0.03010
G1 X48.478 Y47.042 E0.07588
G1 X48.530 Y46.987 E0.00281
G1 F2220.000 E-1.60000
G1 X51.060 Y73.314 F18000.000
G1 F2220.000 E1.60000
G1 X51.294 Y73.103 F600.000 E0.01177
G1 X53.018 Y71.850 E0.07976
G1 X53.290 Y71.693 E0.01177
G1 X55.237 Y70.826 E0.07973
G1 X55.652 Y70.705 E0.01619
G1 X56.410 Y69.947 E0.04008
G1 X59.395 Y69.947 E0.11170
G1 X59.701 Y70.253 E0.01621
G1 X60.228 Y70.270 E0.01972
G1 X60.928 Y69.866 E0.03023
G1 X63.328 Y70.510 E0.09299
G1 X63.770 Y71.275 E0.03306
G1 X64.710 Y71.693 E0.03850
G1 X64.982 Y71.850 E0.01177
G1 X66.706 Y73.103 E0.07976
G1 X66.940 Y73.314 E0.01177
G1 X68.369 Y74.900 E0.07988
G1 X68.553 Y75.155 E0.01177
G1 X69.621 Y77.003 E0.07987
G1 X69.749 Y77.290 E0.01177
G1 X70.411 Y79.330 E0.08023
G1 X70.477 Y79.637 E0.01177
G1 X70.703 Y81.793 E0.08113
G1 X70.703 Y82.108 E0.01177
G1 X70.477 Y84.264 E0.08113
G1 X70.411 Y84.572 E0.01177
G1 X69.749 Y86.611 E0.08023
G1 X69.621 Y86.898 E0.01177
G1 X68.553 Y88.747 E0.07987
G1 X68.369 Y89.001 E0.01177
G1 X66.940 Y90.588 E0.07988
G1 X66.706 Y90.798 E0.01177
G1 X64.982 Y92.051 E0.07976
G1 X64.710 Y92.208 E0.01177
G1 X62.763 Y93.075 E0.07973
G1 X62.464 Y93.172 E0.01177
G1 X60.380 Y93.615 E0.07973
G1 X60.067 Y93.648 E0.01177
G1 X57.933 Y93.648 E0.07985
G1 X57.620 Y93.615 E0.01177
G1 X57.016 Y93.487 E0.02312
G1 X56.754 Y93.638 E0.01132
G1 X54.353 Y92.995 E0.09299
G1 X54.110 Y92.573 E0.01820
G1 X53.290 Y92.208 E0.03358
G1 X53.018 Y92.051 E0.01177
G1 X51.294 Y90.798 E0.07976
G1 X51.060 Y90.588 E0.01177
G1 X49.631 Y89.001 E0.07988
G1 X49.447 Y88.747 E0.01177
G1 X48.379 Y86.898 E0.07987
G1 X48.251 Y86.611 E0.01177
G1 X47.589 Y84.572 E0.08024
G1 X47.523 Y84.264 E0.01177
G1 X47.297 Y82.108 E0.08113
G1 X47.297 Y81.793 E0.01177
G1 X47.523 Y79.637 E0.08113
G1 X47.589 Y79.330 E0.01177
G1 X48.251 Y77.290 E0.08024
G1 X48.379 Y77.003 E0.01177
G1 X49.447 Y75.155 E0.07987
G1 X49.631 Y74.900 E0.01177
G1 X51.010 Y73.369 E0.07707
G1 X51.060 Y73.314 E0.00281
G1 F2220.000 E-1.60000
G1 X71.360 Y79.732 F18000.000
G1 F2220.000 E1.60000
G1 X71.959 Y77.890 F600.000 E0.07247
G1 X72.087 Y77.603 E0.01177
G1 X73.050 Y75.934 E0.07210
G1 X73.235 Y75.680 E0.01177
G1 X74.524 Y74.248 E0.07211
G1 X74.758 Y74.037 E0.01177
G1 X76.315 Y72.907 E0.07199
G1 X76.547 Y72.773 E0.01003
G1 X77.192 Y71.656 E0.04826
G1 X79.592 Y71.012 E0.09299
G1 X80.421 Y71.491 E0.03582
G1 X80.838 Y71.436 E0.01574
G1 X82.762 Y71.436 E0.07197
G1 X83.179 Y71.491 E0.01574
G1 X84.109 Y70.954 E0.04018
G1 X86.509 Y71.597 E0.09299
G1 X87.255 Y72.889 E0.05580
G1 X88.842 Y74.037 E0.07329
G1 X89.075 Y74.248 E0.01177
G1 X90.365 Y75.680 E0.07211
G1 X90.550 Y75.934 E0.01177
G1 X91.513 Y77.603 E0.07210
G1 X91.641 Y77.890 E0.01177
G1 X92.240 Y79.732 E0.07246
G1 X92.305 Y80.040 E0.01177
G1 X92.510 Y81.989 E0.07336
G1 X92.510 Y82.304 E0.01177
G1 X92.305 Y84.254 E0.07336
G1 X92.240 Y84.561 E0.01177
G1 X91.641 Y86.403 E0.07246
G1 X91.513 Y86.690 E0.01177
G1 X90.550 Y88.359 E0.07210
G1 X90.365 Y88.613 E0.01177
G1 X89.075 Y90.045 E0.07211
G1 X88.842 Y90.256 E0.01177
G1 X87.285 Y91.387 E0.07199
G1 X87.013 Y91.544 E0.01177
G1 X85.252 Y92.328 E0.07211
G1 X84.953 Y92.425 E0.01177
G1 X83.074 Y92.824 E0.07188
G1 X82.762 Y92.857 E0.01177
G1 X80.838 Y92.857 E0.07197
G1 X80.526 Y92.824 E0.01177
G1 X78.647 Y92.425 E0.07188
G1 X78.348 Y92.328 E0.01177
G1 X76.587 Y91.544 E0.07211
G1 X76.315 Y91.387 E0.01177
G1 X74.758 Y90.256 E0.07199
G1 X74.525 Y90.045 E0.01177
G1 X73.235 Y88.613 E0.07211
G1 X73.050 Y88.359 E0.01177
G1 X72.087 Y86.690 E0.07210
G1 X71.959 Y86.403 E0.01177
G1 X71.360 Y84.561 E0.07246
G1 X71.295 Y84.254 E0.01177
G1 X71.090 Y82.304 E0.07336
G1 X71.090 Y81.989 E0.01177
G1 X71.295 Y80.040 E0.07336
G1 X71.345 Y79.805 E0.00896
G1 X71.360 Y79.732 E0.00281
G1 F2220.000 E-1.60000
G1 X64.710 Y68.307 F18000.000
G1 F2220.000 E1.60000
G1 X62.763 Y69.174 F600.000 E0.07973
G1 X62.464 Y69.271 E0.01177
G1 X60.380 Y69.714 E0.07973
G1 X60.067 Y69.747 E0.01177
G1 X57.933 Y69.747 E0.07985
G1 X57.620 Y69.714 E0.01177
G1 X57.016 Y69.585 E0.02312
G1 X56.754 Y69.736 E0.01132
G1 X54.353 Y69.093 E0.09299
G1 X54.110 Y68.672 E0.01820
G1 X53.290 Y68.307 E0.03358
G1 X53.018 Y68.150 E0.01177
G1 X51.294 Y66.897 E0.07976
G1 X51.060 Y66.686 E0.01177
G1 X49.631 Y65.100 E0.07988
G1 X49.447 Y64.845 E0.01177
G1 X48.379 Y62.997 E0.07987
G1 X48.251 Y62.710 E0.01177
G1 X47.589 Y60.670 E0.08024
G1 X47.523 Y60.363 E0.01177
G1 X47.297 Y58.207 E0.08113
G1 X47.297 Y57.892 E0.01177
G1 X47.523 Y55.736 E0.08113
G1 X47.589 Y55.428 E0.01177
G1 X48.251 Y53.389 E0.08024
G1 X48.379 Y53.102 E0.01177
G1 X49.447 Y51.253 E0.07987
G1 X49.631 Y50.999 E0.01177
G1 X51.060 Y49.412 E0.07988
G1 X51.294 Y49.202 E0.01177
G1 X53.018 Y47.949 E0.07976
G1 X53.290 Y47.792 E0.01177
G1 X55.237 Y46.925 E0.07973
G1 X55.652 Y46.803 E0.01619
G1 X56.410 Y46.046 E0.04008
G1 X59.395 Y46.046 E0.11170
G1 X59.701 Y46.352 E0.01621
G1 X60.228 Y46.369 E0.01972
G1 X60.928 Y45.965 E0.03023
G1 X63.328 Y46.608 E0.09299
G1 X63.770 Y47.373 E0.03306
G1 X64.710 Y47.792 E0.03850
G1 X64.982 Y47.949 E0.01177
G1 X66.706 Y49.202 E0.07976
G1 X66.940 Y49.412 E0.01177
G1 X68.369 Y50.999 E0.07988
G1 X68.553 Y51.253 E0.01177
G1 X69.621 Y53.102 E0.07987
G1 X69.749 Y53.389 E0.01177
G1 X70.411 Y55.428 E0.08023
G1 X70.477 Y55.736 E0.01177
G1 X70.703 Y57.892 E0.08113
G1 X70.703 Y58.207 E0.01177
G1 X70.477 Y60.363 E0.08113
G1 X70.411 Y60.670 E0.01177
G1 X69.749 Y62.710 E0.08023
G1 X69.621 Y62.997 E0.01177
G1 X68.553 Y64.845 E0.07987
G1 X68.369 Y65.100 E0.01177
G1 X66.940 Y66.686 E0.07988
G1 X66.706 Y66.897 E0.01177
G1 X64.982 Y68.150 E0.07976
G1 X64.775 Y68.269 E0.00896
G1 X64.710 Y68.307 E0.00281
G1 F2220.000 E-1.60000
G1 X73.250 Y63.727 F18000.000
G1 F2220.000 E1.60000
G1 X72.287 Y62.058 F600.000 E0.07210
G1 X72.159 Y61.771 E0.01177
G1 X71.560 Y59.929 E0.07246
G1 X71.495 Y59.622 E0.01177
G1 X71.290 Y57.672 E0.07336
G1 X71.290 Y57.357 E0.01177
G1 X71.495 Y55.408 E0.07336
G1 X71.560 Y55.100 E0.01177
G1 X72.159 Y53.258 E0.07247
G1 X72.287 Y52.971 E0.01177
G1 X73.250 Y51.302 E0.07210
G1 X73.435 Y51.048 E0.01177
G1 X74.724 Y49.616 E0.07211
G1 X74.958 Y49.405 E0.01177
G1 X76.515 Y48.275 E0.07199
G1 X76.747 Y48.141 E0.01003
G1 X77.392 Y47.024 E0.04826
G1 X79.792 Y46.381 E0.09299
G1 X80.621 Y46.859 E0.03582
G1 X81.038 Y46.804 E0.01574
G1 X82.962 Y46.804 E0.07197
G1 X83.379 Y46.859 E0.01574
G1 X84.309 Y46.322 E0.04018
G1 X86.709 Y46.966 E0.09299
G1 X87.455 Y48.257 E0.05580
G1 X89.042 Y49.405 E0.07329
G1 X89.275 Y49.616 E0.01177
G1 X90.565 Y51.048 E0.07211
G1 X90.750 Y51.302 E0.01177
G1 X91.713 Y52.971 E0.07210
G1 X91.841 Y53.258 E0.01177
G1 X92.440 Y55.100 E0.07246
G1 X92.505 Y55.408 E0.01177
G1 X92.710 Y57.357 E0.07336
G1 X92.710 Y57.672 E0.01177
G1 X92.505 Y59.622 E0.07336
G1 X92.440 Y59.929 E0.01177
G1 X91.841 Y61.771 E0.07246
G1 X91.713 Y62.058 E0.01177
G1 X90.750 Y63.727 E0.07210
G1 X90.565 Y63.981 E0.01177
G1 X89.275 Y65.414 E0.07211
G1 X89.042 Y65.624 E0.01177
G1 X87.485 Y66.755 E0.07199
G1 X87.213 Y66.912 E0.01177
G1 X85.452 Y67.696 E0.07211
G1 X85.153 Y67.793 E0.01177
G1 X83.274 Y68.192 E0.07188
G1 X82.962 Y68.225 E0.01177
G1 X81.038 Y68.225 E0.07197
G1 X80.726 Y68.192 E0.01177
G1 X78.847 Y67.793 E0.07188
G1 X78.548 Y67.696 E0.01177
G1 X76.787 Y66.912 E0.07211
G1 X76.515 Y66.755 E0.01177
G1 X74.958 Y65.624 E0.07199
G1 X74.725 Y65.414 E0.01177
G1 X73.435 Y63.981 E0.07211
G1 X73.294 Y63.788 E0.00896
G1 X73.250 Y63.727 E0.00281
G1 F2220.000 E-1.60000
G1 X66.391 Y73.492 F18000.000
G1 F2220.000 E1.60000
G1 X66.586 Y73.668 F600.000 E0.00980
G1 X67.979 Y75.215 E0.07792
G1 X68.134 Y75.427 E0.00980
G1 X69.175 Y77.230 E0.07791
G1 X69.281 Y77.470 E0.00980
G1 X69.928 Y79.459 E0.07827
G1 X69.982 Y79.716 E0.00980
G1 X70.203 Y81.820 E0.07917
G1 X70.203 Y82.082 E0.00980
G1 X69.982 Y84.186 E0.07917
G1 X69.928 Y84.442 E0.00980
G1 X69.281 Y86.432 E0.07827
G1 X69.175 Y86.671 E0.00980
G1 X68.134 Y88.474 E0.07791
G1 X67.979 Y88.686 E0.00980
G1 X66.586 Y90.234 E0.07792
G1 X66.391 Y90.409 E0.00980
G1 X64.709 Y91.631 E0.07779
G1 X64.482 Y91.762 E0.00981
G1 X62.584 Y92.607 E0.07777
G1 X62.334 Y92.688 E0.00980
G1 X60.301 Y93.121 E0.07777
G1 X60.041 Y93.148 E0.00980
G1 X57.959 Y93.148 E0.07789
G1 X57.699 Y93.121 E0.00980
G1 X56.932 Y92.958 E0.02932
G1 X56.683 Y93.101 E0.01075
G1 X54.683 Y92.565 E0.07749
G1 X54.462 Y92.183 E0.01653
G1 X53.518 Y91.762 E0.03868
G1 X53.291 Y91.631 E0.00981
G1 X51.609 Y90.409 E0.07779
G1 X51.414 Y90.234 E0.00980
G1 X50.020 Y88.686 E0.07792
G1 X49.866 Y88.474 E0.00980
G1 X48.825 Y86.671 E0.07791
G1 X48.719 Y86.432 E0.00980
G1 X48.072 Y84.442 E0.07827
G1 X48.018 Y84.186 E0.00981
G1 X47.797 Y82.082 E0.07917
G1 X47.797 Y81.820 E0.00980
G1 X48.018 Y79.716 E0.07917
G1 X48.072 Y79.459 E0.00980
G1 X48.719 Y77.470 E0.07827
G1 X48.825 Y77.230 E0.00980
G1 X49.866 Y75.427 E0.07791
G1 X50.020 Y75.215 E0.00980
G1 X51.414 Y73.668 E0.07792
G1 X51.609 Y73.492 E0.00980
G1 X53.291 Y72.270 E0.07779
G1 X53.518 Y72.139 E0.00981
G1 X55.416 Y71.294 E0.07777
G1 X55.666 Y71.213 E0.00980
G1 X55.901 Y71.163 E0.00900
G1 X56.617 Y70.447 E0.03787
G1 X59.188 Y70.447 E0.09620
G1 X59.494 Y70.753 E0.01621
G1 X60.041 Y70.753 E0.02046
G1 X60.332 Y70.787 E0.01098
G1 X60.998 Y70.403 E0.02877
G1 X62.999 Y70.939 E0.07749
G1 X63.418 Y71.665 E0.03139
G1 X64.482 Y72.139 E0.04360
G1 X64.709 Y72.270 E0.00981
G1 X66.331 Y73.448 E0.07499
G1 X66.391 Y73.492 E0.00281
G1 F2220.000 E-1.60000
G1 X72.533 Y77.830 F18000.000
G1 F2220.000 E1.60000
G1 X73.470 Y76.207 F600.000 E0.07013
G1 X73.624 Y75.995 E0.00981
G1 X74.879 Y74.602 E0.07015
G1 X75.073 Y74.427 E0.00980
G1 X76.587 Y73.327 E0.07002
G1 X76.903 Y73.156 E0.01341
G1 X77.521 Y72.085 E0.04628
G1 X79.522 Y71.549 E0.07749
G1 X80.337 Y72.020 E0.03525
G1 X80.604 Y71.963 E0.01019
G1 X80.864 Y71.936 E0.00980
G1 X82.736 Y71.936 E0.07001
G1 X82.996 Y71.963 E0.00980
G1 X83.263 Y72.020 E0.01019
G1 X84.179 Y71.491 E0.03961
G1 X86.180 Y72.027 E0.07749
G1 X86.889 Y73.255 E0.05307
G1 X87.013 Y73.327 E0.00535
G1 X88.527 Y74.427 E0.07002
G1 X88.721 Y74.602 E0.00980
G1 X89.976 Y75.995 E0.07015
G1 X90.130 Y76.207 E0.00981
G1 X91.067 Y77.830 E0.07013
G1 X91.174 Y78.070 E0.00980
G1 X91.756 Y79.862 E0.07050
G1 X91.810 Y80.118 E0.00980
G1 X92.010 Y82.016 E0.07140
G1 X92.010 Y82.278 E0.00980
G1 X91.810 Y84.175 E0.07140
G1 X91.756 Y84.432 E0.00980
G1 X91.174 Y86.224 E0.07050
G1 X91.067 Y86.463 E0.00980
G1 X90.130 Y88.086 E0.07013
G1 X89.976 Y88.298 E0.00981
G1 X88.721 Y89.691 E0.07015
G1 X88.527 Y89.867 E0.00980
G1 X87.013 Y90.967 E0.07002
G1 X86.786 Y91.098 E0.00980
G1 X85.073 Y91.860 E0.07015
G1 X84.824 Y91.941 E0.00980
G1 X82.996 Y92.330 E0.06991
G1 X82.736 Y92.357 E0.00981
G1 X80.864 Y92.357 E0.07001
G1 X80.604 Y92.330 E0.00981
G1 X78.776 Y91.941 E0.06991
G1 X78.527 Y91.860 E0.00980
G1 X76.814 Y91.098 E0.07015
G1 X76.587 Y90.967 E0.00980
G1 X75.073 Y89.867 E0.07002
G1 X74.879 Y89.691 E0.00980
G1 X73.624 Y88.298 E0.07015
G1 X73.470 Y88.086 E0.00981
G1 X72.533 Y86.463 E0.07013
G1 X72.426 Y86.224 E0.00980
G1 X71.844 Y84.432 E0.07050
G1 X71.790 Y84.175 E0.00980
G1 X71.590 Y82.278 E0.07140
G1 X71.590 Y82.016 E0.00980
G1 X71.790 Y80.118 E0.07140
G1 X71.844 Y79.862 E0.00980
G1 X72.426 Y78.070 E0.07050
G1 X72.502 Y77.899 E0.00700
G1 X72.533 Y77.830 E0.00281
G1 F2220.000 E-1.60000
G1 X64.709 Y67.730 F18000.000
G1 F2220.000 E1.60000
G1 X64.482 Y67.861 F600.000 E0.00981
G1 X62.584 Y68.706 E0.07777
G1 X62.334 Y68.787 E0.00980
G1 X60.301 Y69.219 E0.07777
G1 X60.041 Y69.247 E0.00980
G1 X57.959 Y69.247 E0.07789
G1 X57.699 Y69.219 E0.00980
G1 X56.932 Y69.056 E0.02932
G1 X56.683 Y69.200 E0.01075
G1 X54.683 Y68.664 E0.07749
G1 X54.462 Y68.281 E0.01653
G1 X53.518 Y67.861 E0.03868
G1 X53.291 Y67.730 E0.00981
G1 X51.609 Y66.508 E0.07779
G1 X51.414 Y66.332 E0.00980
G1 X50.020 Y64.785 E0.07792
G1 X49.866 Y64.573 E0.00980
G1 X48.825 Y62.770 E0.07791
G1 X48.719 Y62.530 E0.00980
G1 X48.072 Y60.541 E0.07827
G1 X48.018 Y60.284 E0.00981
G1 X47.797 Y58.180 E0.07917
G1 X47.797 Y57.918 E0.00980
G1 X48.018 Y55.814 E0.07917
G1 X48.072 Y55.558 E0.00980
G1 X48.719 Y53.568 E0.07827
G1 X48.825 Y53.329 E0.00980
G1 X49.866 Y51.526 E0.07791
G1 X50.020 Y51.314 E0.00980
G1 X51.414 Y49.766 E0.07792
G1 X51.609 Y49.591 E0.00980
G1 X53.291 Y48.369 E0.07779
G1 X53.518 Y48.238 E0.00981
G1 X55.416 Y47.393 E0.07777
G1 X55.666 Y47.312 E0.00980
G1 X55.901 Y47.262 E0.00900
G1 X56.617 Y46.546 E0.03787
G1 X59.188 Y46.546 E0.09620
G1 X59.494 Y46.852 E0.01621
G1 X60.041 Y46.852 E0.02046
G1 X60.332 Y46.886 E0.01098
G1 X60.998 Y46.502 E0.02877
G1 X62.999 Y47.038 E0.07749
G1 X63.418 Y47.764 E0.03139
G1 X64.482 Y48.238 E0.04360
