; generated by Slic3r 0.9.7 on 2013-11-07 at 21:02:19

; layer_height = 0.15
; perimeters = 2
; top_solid_layers = 3
; bottom_solid_layers = 2
; fill_density = 0.4
; perimeter_speed = 20
; infill_speed = 30
; travel_speed = 300
; scale = 1
; nozzle_diameter = 0.5
; filament_diameter = 1.75
; extrusion_multiplier = 0.9
; perimeters extrusion width = 0.50mm
; infill extrusion width = 0.50mm
; support material extrusion width = 0.11mm
; first layer extrusion width = 0.50mm

M107
M190 S63 ; wait for bed temperature to be reached
M104 S200 ; set temperature
G1 Z0.15 F200
G1 X15 Y20 F12000
M109 S200 ; wait for temperature to be reached
G90 ; use absolute coordinates
G21 ; set units to millimeters
M83 ; use relative distances for extrusion
G1 F2220.000 E-1.60000
G1 Z0.200 F18000.000
G1 X47.602 Y47.219
G1 F2220.000 E1.60000
G1 X48.082 Y46.739 F600.000 E0.02540
G1 X48.682 Y46.189 E0.03046
G1 X49.112 Y45.829 E0.02098
G1 X49.762 Y45.329 E0.03068
G1 X50.292 Y44.959 E0.02419
G1 X51.032 Y44.499 E0.03260
G1 X51.612 Y44.179 E0.02479
G1 X52.432 Y43.779 E0.03414
G1 X53.042 Y43.519 E0.02481
G1 X53.722 Y43.269 E0.02711
G1 X54.242 Y43.099 E0.02047
G1 X55.082 Y42.869 E0.03259
G1 X55.682 Y42.739 E0.02297
G1 X56.542 Y42.589 E0.03266
G1 X57.262 Y42.499 E0.02715
G1 X58.082 Y42.449 E0.03074
G1 X58.612 Y42.439 E0.01983
G1 X82.352 Y42.909 E0.88847
G1 X83.122 Y42.939 E0.02883
G1 X83.882 Y43.019 E0.02859
G1 X85.172 Y43.239 E0.04897
G1 X85.912 Y43.419 E0.02850
G1 X86.582 Y43.629 E0.02627
G1 X87.272 Y43.879 E0.02746
G1 X87.782 Y44.089 E0.02064
G1 X88.432 Y44.389 E0.02679
G1 X89.082 Y44.729 E0.02745
G1 X89.742 Y45.129 E0.02888
G1 X90.192 Y45.429 E0.02024
G1 X90.812 Y45.879 E0.02867
G1 X91.372 Y46.339 E0.02712
G1 X91.942 Y46.859 E0.02887
G1 X92.362 Y47.279 E0.02222
G1 X92.882 Y47.849 E0.02887
G1 X93.302 Y48.359 E0.02472
G1 X93.762 Y48.979 E0.02889
G1 X94.142 Y49.539 E0.02532
G1 X94.532 Y50.199 E0.02868
G1 X94.802 Y50.709 E0.02159
G1 X95.112 Y51.359 E0.02695
G1 X95.362 Y51.979 E0.02501
G1 X95.622 Y52.709 E0.02900
G1 X95.802 Y53.289 E0.02272
G1 X95.992 Y54.039 E0.02895
G1 X96.132 Y54.729 E0.02634
G1 X96.242 Y55.509 E0.02947
G1 X96.292 Y56.069 E0.02104
G1 X96.342 Y57.109 E0.03896
G1 X96.532 Y82.779 E0.96054
G1 X96.492 Y83.829 E0.03932
G1 X96.442 Y84.479 E0.02439
G1 X96.332 Y85.259 E0.02947
G1 X96.192 Y85.969 E0.02708
G1 X96.012 Y86.669 E0.02704
G1 X95.612 Y87.889 E0.04804
G1 X95.342 Y88.539 E0.02634
G1 X94.772 Y89.709 E0.04870
G1 X94.382 Y90.379 E0.02901
G1 X94.022 Y90.929 E0.02460
G1 X93.572 Y91.549 E0.02867
G1 X93.152 Y92.059 E0.02472
G1 X92.642 Y92.629 E0.02862
G1 X92.182 Y93.099 E0.02461
G1 X91.612 Y93.619 E0.02887
G1 X91.102 Y94.039 E0.02472
G1 X90.482 Y94.499 E0.02889
G1 X89.982 Y94.839 E0.02262
G1 X89.322 Y95.239 E0.02888
G1 X88.672 Y95.579 E0.02745
G1 X87.542 Y96.079 E0.04624
G1 X86.862 Y96.329 E0.02711
G1 X86.292 Y96.509 E0.02237
G1 X85.542 Y96.709 E0.02904
G1 X84.802 Y96.859 E0.02825
G1 X84.042 Y96.969 E0.02873
G1 X83.452 Y97.029 E0.02219
G1 X82.442 Y97.079 E0.03784
G1 X59.572 Y97.389 E0.85582
G1 X58.712 Y97.379 E0.03218
G1 X57.802 Y97.319 E0.03412
G1 X57.042 Y97.219 E0.02868
G1 X56.182 Y97.059 E0.03273
G1 X55.442 Y96.889 E0.02841
G1 X54.972 Y96.759 E0.01825
G1 X54.022 Y96.439 E0.03751
G1 X53.302 Y96.149 E0.02904
G1 X52.732 Y95.889 E0.02344
G1 X52.002 Y95.509 E0.03079
G1 X51.532 Y95.239 E0.02028
G1 X50.882 Y94.829 E0.02876
G1 X50.392 Y94.489 E0.02232
G1 X49.662 Y93.929 E0.03443
G1 X49.112 Y93.449 E0.02731
G1 X48.552 Y92.909 E0.02911
G1 X48.162 Y92.499 E0.02117
G1 X47.622 Y91.879 E0.03076
G1 X47.272 Y91.439 E0.02104
G1 X46.762 Y90.739 E0.03241
G1 X46.382 Y90.159 E0.02595
G1 X45.972 Y89.449 E0.03068
G1 X45.682 Y88.879 E0.02393
G1 X45.342 Y88.129 E0.03081
G1 X44.902 Y86.969 E0.04642
G1 X44.702 Y86.319 E0.02545
G1 X44.482 Y85.429 E0.03430
G1 X44.352 Y84.769 E0.02517
G1 X44.222 Y83.839 E0.03514
G1 X44.122 Y82.279 E0.05849
G1 X43.462 Y57.819 E0.91557
G1 X43.502 Y56.629 E0.04455
G1 X43.552 Y55.979 E0.02439
G1 X43.682 Y55.059 E0.03477
G1 X43.822 Y54.359 E0.02671
G1 X44.052 Y53.459 E0.03476
G1 X44.212 Y52.929 E0.02072
G1 X44.452 Y52.239 E0.02734
G1 X44.712 Y51.599 E0.02585
G1 X45.062 Y50.859 E0.03063
G1 X45.512 Y50.019 E0.03566
G1 X45.912 Y49.369 E0.02856
G1 X46.642 Y48.349 E0.04693
G1 X46.992 Y47.909 E0.02104
G1 X47.552 Y47.276 E0.03165
G1 X47.602 Y47.219 E0.00281
G1 F2220.000 E-1.60000
G1 X53.623 Y71.894 F18000.000
G1 F2220.000 E1.60000
G1 X54.841 Y71.302 F600.000 E0.05066
G1 X55.649 Y71.001 E0.03226
G1 X55.937 Y70.916 E0.01126
G1 X56.743 Y70.110 E0.04264
G1 X56.773 Y70.110 E0.00113
G1 X56.939 Y69.944 E0.00876
G1 X59.924 Y69.944 E0.11170
G1 X60.439 Y70.460 E0.02729
G1 X60.492 Y70.464 E0.00196
G1 X61.102 Y70.112 E0.02634
G1 X63.502 Y70.756 E0.09299
G1 X63.823 Y71.311 E0.02397
G1 X64.658 Y71.688 E0.03429
G1 X65.530 Y72.183 E0.03752
G1 X66.412 Y72.792 E0.04012
G1 X67.347 Y73.584 E0.04586
G1 X68.223 Y74.503 E0.04750
G1 X68.939 Y75.431 E0.04385
G1 X69.510 Y76.339 E0.04016
G1 X70.075 Y77.477 E0.04753
G1 X70.480 Y78.560 E0.04326
G1 X70.757 Y79.587 E0.03980
G1 X70.865 Y80.144 E0.02124
G1 X70.960 Y80.816 E0.02537
G1 X71.033 Y81.851 E0.03882
G1 X71.012 Y82.923 E0.04014
G1 X70.869 Y84.138 E0.04579
G1 X70.644 Y85.181 E0.03991
G1 X70.310 Y86.241 E0.04160
G1 X69.827 Y87.366 E0.04578
G1 X69.258 Y88.390 E0.04386
G1 X68.626 Y89.305 E0.04160
G1 X67.920 Y90.144 E0.04103
G1 X67.128 Y90.923 E0.04155
G1 X66.225 Y91.653 E0.04347
G1 X65.260 Y92.287 E0.04319
G1 X64.644 Y92.625 E0.02631
G1 X64.040 Y92.911 E0.02501
G1 X63.004 Y93.310 E0.04153
G1 X61.846 Y93.627 E0.04491
G1 X61.294 Y93.734 E0.02106
G1 X60.509 Y93.841 E0.02965
G1 X59.630 Y93.896 E0.03293
G1 X58.986 Y93.895 E0.02410
G1 X57.943 Y93.818 E0.03915
G1 X57.244 Y93.702 E0.02649
G1 X57.092 Y93.790 E0.00659
G1 X54.691 Y93.146 E0.09299
G1 X54.532 Y92.870 E0.01193
G1 X53.457 Y92.318 E0.04520
G1 X52.569 Y91.746 E0.03952
G1 X51.730 Y91.093 E0.03978
G1 X50.951 Y90.362 E0.03998
G1 X50.131 Y89.426 E0.04657
G1 X49.540 Y88.599 E0.03803
G1 X48.978 Y87.645 E0.04141
G1 X48.511 Y86.643 E0.04140
G1 X48.129 Y85.567 E0.04270
G1 X47.836 Y84.373 E0.04602
G1 X47.682 Y83.292 E0.04086
G1 X47.629 Y82.164 E0.04222
G1 X47.682 Y81.012 E0.04316
G1 X47.836 Y79.933 E0.04076
G1 X48.129 Y78.739 E0.04602
G1 X48.511 Y77.663 E0.04270
G1 X48.960 Y76.694 E0.03999
G1 X49.267 Y76.144 E0.02355
G1 X49.593 Y75.625 E0.02294
G1 X50.146 Y74.861 E0.03531
G1 X50.944 Y73.952 E0.04523
G1 X51.754 Y73.194 E0.04151
G1 X52.630 Y72.517 E0.04143
G1 X53.559 Y71.933 E0.04108
G1 X53.623 Y71.894 E0.00281
G1 F2220.000 E-1.60000
G1 X72.391 Y78.817 F18000.000
G1 F2220.000 E1.60000
G1 X72.878 Y77.765 F600.000 E0.04337
G1 X73.425 Y76.848 E0.03996
G1 X73.968 Y76.105 E0.03444
G1 X74.677 Y75.303 E0.04002
G1 X75.461 Y74.577 E0.03999
G1 X76.314 Y73.932 E0.04002
G1 X76.884 Y73.582 E0.02503
G1 X77.657 Y72.243 E0.05784
G1 X80.057 Y71.600 E0.09299
G1 X81.032 Y72.163 E0.04212
G1 X81.307 Y72.128 E0.01036
G1 X82.373 Y72.079 E0.03993
G1 X83.289 Y72.122 E0.03432
G1 X83.628 Y72.164 E0.01278
G1 X84.688 Y71.552 E0.04578
G1 X87.088 Y72.196 E0.09299
G1 X87.945 Y73.680 E0.06414
G1 X88.293 Y73.895 E0.01530
G1 X89.150 Y74.534 E0.04001
G1 X89.939 Y75.255 E0.04000
G1 X90.652 Y76.052 E0.04001
G1 X91.200 Y76.792 E0.03445
G1 X91.753 Y77.706 E0.03996
G1 X92.247 Y78.755 E0.04337
G1 X92.600 Y79.765 E0.04007
G1 X92.824 Y80.665 E0.03469
G1 X92.986 Y81.732 E0.04037
G1 X93.041 Y82.762 E0.03860
G1 X92.986 Y83.936 E0.04396
G1 X92.825 Y84.995 E0.04009
G1 X92.576 Y85.983 E0.03812
G1 X92.217 Y86.985 E0.03982
G1 X91.784 Y87.902 E0.03794
G1 X91.237 Y88.819 E0.03996
G1 X90.600 Y89.678 E0.04003
G1 X89.881 Y90.470 E0.04002
G1 X89.086 Y91.185 E0.04000
G1 X88.224 Y91.818 E0.04001
G1 X87.310 Y92.358 E0.03973
G1 X86.400 Y92.783 E0.03758
G1 X85.444 Y93.124 E0.03798
G1 X84.411 Y93.384 E0.03984
G1 X83.356 Y93.539 E0.03992
G1 X82.268 Y93.588 E0.04075
G1 X81.158 Y93.523 E0.04159
G1 X80.105 Y93.353 E0.03992
G1 X79.080 Y93.081 E0.03967
G1 X78.133 Y92.729 E0.03780
G1 X77.225 Y92.290 E0.03776
G1 X76.314 Y91.735 E0.03990
G1 X75.461 Y91.090 E0.04002
G1 X74.676 Y90.363 E0.04000
G1 X73.968 Y89.562 E0.04001
G1 X73.343 Y88.694 E0.04004
G1 X72.811 Y87.773 E0.03979
G1 X72.391 Y86.850 E0.03794
G1 X72.045 Y85.843 E0.03983
G1 X71.810 Y84.852 E0.03814
G1 X71.663 Y83.787 E0.04022
G1 X71.621 Y82.763 E0.03834
G1 X71.677 Y81.735 E0.03853
G1 X71.837 Y80.672 E0.04020
G1 X72.045 Y79.823 E0.03272
G1 X72.366 Y78.888 E0.03701
G1 X72.391 Y78.817 E0.00281
G1 F2220.000 E-1.60000
G1 X65.439 Y67.276 F18000.000
G1 F2220.000 E1.60000
G1 X64.494 Y67.882 F600.000 E0.04200
G1 X63.979 Y68.161 E0.02190
G1 X63.375 Y68.447 E0.02501
G1 X62.339 Y68.845 E0.04153
G1 X61.182 Y69.162 E0.04491
G1 X60.629 Y69.270 E0.02106
G1 X59.960 Y69.364 E0.02528
G1 X58.966 Y69.431 E0.03729
G1 X58.321 Y69.430 E0.02410
G1 X57.278 Y69.353 E0.03915
G1 X56.580 Y69.237 E0.02649
G1 X56.427 Y69.325 E0.00659
G1 X54.026 Y68.682 E0.09299
G1 X53.867 Y68.406 E0.01193
G1 X52.912 Y67.921 E0.04007
G1 X52.022 Y67.364 E0.03927
G1 X51.066 Y66.628 E0.04516
G1 X50.287 Y65.897 E0.03998
G1 X49.559 Y65.077 E0.04103
G1 X48.875 Y64.135 E0.04357
G1 X48.313 Y63.181 E0.04141
G1 X47.796 Y62.056 E0.04634
G1 X47.464 Y61.102 E0.03777
G1 X47.171 Y59.908 E0.04602
G1 X47.017 Y58.827 E0.04086
G1 X46.964 Y57.700 E0.04222
G1 X47.004 Y56.692 E0.03775
G1 X47.171 Y55.469 E0.04618
G1 X47.464 Y54.274 E0.04602
G1 X47.846 Y53.199 E0.04270
G1 X48.296 Y52.229 E0.03999
G1 X48.602 Y51.680 E0.02355
G1 X48.928 Y51.160 E0.02294
G1 X49.571 Y50.285 E0.04066
G1 X50.279 Y49.487 E0.03989
G1 X51.089 Y48.730 E0.04151
G1 X51.965 Y48.052 E0.04143
G1 X52.958 Y47.429 E0.04388
G1 X54.047 Y46.893 E0.04540
G1 X54.984 Y46.536 E0.03752
G1 X55.272 Y46.451 E0.01126
G1 X56.078 Y45.645 E0.04264
G1 X56.108 Y45.645 E0.00113
G1 X56.274 Y45.480 E0.00876
G1 X59.259 Y45.480 E0.11170
G1 X59.775 Y45.995 E0.02729
G1 X59.827 Y46.000 E0.00196
G1 X60.437 Y45.648 E0.02634
G1 X62.837 Y46.291 E0.09299
G1 X63.158 Y46.846 E0.02397
G1 X63.993 Y47.223 E0.03429
G1 X64.745 Y47.643 E0.03221
G1 X65.872 Y48.423 E0.05130
G1 X66.793 Y49.224 E0.04566
G1 X67.558 Y50.038 E0.04183
G1 X68.186 Y50.841 E0.03812
G1 X68.846 Y51.875 E0.04589
G1 X69.353 Y52.880 E0.04214
G1 X69.770 Y53.957 E0.04321
G1 X70.092 Y55.122 E0.04525
G1 X70.201 Y55.680 E0.02124
G1 X70.296 Y56.351 E0.02537
G1 X70.368 Y57.386 E0.03882
G1 X70.347 Y58.458 E0.04014
G1 X70.205 Y59.674 E0.04579
G1 X69.944 Y60.849 E0.04503
G1 X69.592 Y61.919 E0.04216
G1 X69.163 Y62.901 E0.04009
G1 X68.594 Y63.926 E0.04386
G1 X67.961 Y64.840 E0.04160
G1 X67.256 Y65.679 E0.04103
G1 X66.464 Y66.458 E0.04155
G1 X65.500 Y67.232 E0.04627
G1 X65.439 Y67.276 E0.00281
G1 F2220.000 E-1.60000
G1 X73.145 Y63.027 F18000.000
G1 F2220.000 E1.60000
G1 X72.613 Y62.106 F600.000 E0.03979
G1 X72.193 Y61.184 E0.03794
G1 X71.847 Y60.177 E0.03983
G1 X71.612 Y59.185 E0.03814
G1 X71.465 Y58.120 E0.04022
G1 X71.423 Y57.096 E0.03834
G1 X71.465 Y56.213 E0.03310
G1 X71.611 Y55.148 E0.04020
G1 X71.847 Y54.157 E0.03815
G1 X72.193 Y53.150 E0.03982
G1 X72.613 Y52.227 E0.03795
G1 X73.145 Y51.307 E0.03979
G1 X73.770 Y50.438 E0.04004
G1 X74.479 Y49.636 E0.04002
G1 X75.263 Y48.910 E0.03999
G1 X76.116 Y48.265 E0.04002
G1 X76.686 Y47.915 E0.02503
G1 X77.459 Y46.576 E0.05784
G1 X79.859 Y45.933 E0.09299
G1 X80.834 Y46.496 E0.04212
G1 X81.109 Y46.461 E0.01036
G1 X82.175 Y46.412 E0.03993
G1 X83.091 Y46.455 E0.03432
G1 X83.430 Y46.497 E0.01278
G1 X84.490 Y45.886 E0.04578
G1 X86.890 Y46.529 E0.09299
G1 X87.747 Y48.013 E0.06414
G1 X88.095 Y48.228 E0.01530
G1 X88.836 Y48.773 E0.03441
G1 X89.635 Y49.483 E0.04000
G1 X90.454 Y50.386 E0.04562
G1 X91.085 Y51.251 E0.04005
G1 X91.623 Y52.168 E0.03979
G1 X92.049 Y53.088 E0.03794
G1 X92.402 Y54.099 E0.04007
G1 X92.655 Y55.145 E0.04029
G1 X92.802 Y56.210 E0.04020
G1 X92.843 Y57.236 E0.03844
G1 X92.788 Y58.269 E0.03870
G1 X92.627 Y59.328 E0.04009
G1 X92.378 Y60.316 E0.03812
G1 X92.019 Y61.318 E0.03982
G1 X91.586 Y62.235 E0.03794
G1 X91.039 Y63.152 E0.03996
G1 X90.402 Y64.012 E0.04003
G1 X89.683 Y64.803 E0.04002
G1 X88.888 Y65.519 E0.04000
G1 X88.026 Y66.151 E0.04001
G1 X87.112 Y66.691 E0.03973
G1 X86.202 Y67.117 E0.03758
G1 X85.246 Y67.458 E0.03798
G1 X84.213 Y67.717 E0.03984
G1 X83.158 Y67.872 E0.03992
G1 X82.070 Y67.921 E0.04075
G1 X80.960 Y67.857 E0.04159
G1 X79.907 Y67.687 E0.03992
G1 X78.882 Y67.415 E0.03967
G1 X77.935 Y67.062 E0.03780
G1 X77.027 Y66.623 E0.03776
G1 X76.116 Y66.068 E0.03990
G1 X75.263 Y65.423 E0.04002
G1 X74.478 Y64.697 E0.04000
G1 X73.770 Y63.895 E0.04001
G1 X73.186 Y63.090 E0.03724
G1 X73.145 Y63.027 E0.00281
G1 F2220.000 E-1.60000
G1 X66.117 Y73.196 F18000.000
G1 F2220.000 E1.60000
G1 X67.012 Y73.955 F600.000 E0.04392
G1 X67.758 Y74.729 E0.04021
G1 X68.449 Y75.603 E0.04171
G1 X69.080 Y76.595 E0.04399
G1 X69.612 Y77.666 E0.04476
G1 X70.001 Y78.704 E0.04145
G1 X70.268 Y79.693 E0.03836
G1 X70.371 Y80.221 E0.02013
G1 X70.464 Y80.876 E0.02476
G1 X70.535 Y81.985 E0.04158
G1 X70.503 Y83.020 E0.03872
G1 X70.354 Y84.185 E0.04394
G1 X70.129 Y85.171 E0.03787
G1 X69.793 Y86.195 E0.04031
G1 X69.374 Y87.154 E0.03915
G1 X68.829 Y88.134 E0.04198
G1 X68.223 Y89.008 E0.03979
G1 X67.547 Y89.811 E0.03928
G1 X66.789 Y90.555 E0.03977
G1 X65.923 Y91.255 E0.04165
G1 X64.997 Y91.862 E0.04142
G1 X64.412 Y92.182 E0.02494
G1 X63.836 Y92.455 E0.02386
G1 X62.838 Y92.838 E0.04001
G1 X61.824 Y93.119 E0.03938
G1 X61.217 Y93.240 E0.02315
G1 X60.468 Y93.342 E0.02830
G1 X59.529 Y93.399 E0.03520
G1 X59.014 Y93.395 E0.01927
G1 X57.992 Y93.320 E0.03833
G1 X57.152 Y93.177 E0.03187
G1 X57.021 Y93.253 E0.00567
G1 X55.021 Y92.717 E0.07749
G1 X54.879 Y92.472 E0.01057
G1 X54.649 Y92.374 E0.00938
G1 X53.815 Y91.946 E0.03506
G1 X52.965 Y91.413 E0.03754
G1 X52.047 Y90.706 E0.04335
G1 X51.304 Y90.008 E0.03817
G1 X50.607 Y89.221 E0.03930
G1 X49.953 Y88.318 E0.04174
G1 X49.417 Y87.405 E0.03963
G1 X48.928 Y86.342 E0.04376
G1 X48.611 Y85.433 E0.03603
G1 X48.329 Y84.289 E0.04409
G1 X48.167 Y83.107 E0.04463
G1 X48.129 Y82.048 E0.03965
G1 X48.179 Y81.071 E0.03663
G1 X48.355 Y79.888 E0.04475
G1 X48.645 Y78.759 E0.04360
G1 X48.970 Y77.862 E0.03571
G1 X49.402 Y76.929 E0.03846
G1 X49.735 Y76.336 E0.02547
G1 X50.058 Y75.830 E0.02246
G1 X50.618 Y75.072 E0.03524
G1 X51.396 Y74.204 E0.04362
G1 X52.173 Y73.494 E0.03939
G1 X52.923 Y72.922 E0.03530
G1 X53.875 Y72.326 E0.04202
G1 X54.919 Y71.813 E0.04352
G1 X55.813 Y71.473 E0.03577
G1 X56.197 Y71.363 E0.01494
G1 X56.950 Y70.610 E0.03986
G1 X56.980 Y70.610 E0.00113
G1 X57.146 Y70.444 E0.00876
G1 X59.717 Y70.444 E0.09620
G1 X60.215 Y70.943 E0.02637
G1 X60.601 Y70.979 E0.01450
G1 X61.172 Y70.649 E0.02468
G1 X63.173 Y71.185 E0.07749
G1 X63.471 Y71.702 E0.02232
G1 X64.320 Y72.078 E0.03475
G1 X65.155 Y72.538 E0.03567
G1 X66.055 Y73.153 E0.04080
G1 X66.117 Y73.196 E0.00281
G1 F2220.000 E-1.60000
G1 X73.768 Y77.237 F18000.000
G1 F2220.000 E1.60000
G1 X74.365 Y76.410 F600.000 E0.03817
G1 X75.129 Y75.557 E0.04282
G1 X75.885 Y74.875 E0.03812
G1 X76.603 Y74.340 E0.03348
G1 X77.252 Y73.944 E0.02847
G1 X77.986 Y72.672 E0.05494
G1 X79.987 Y72.136 E0.07749
G1 X80.934 Y72.684 E0.04096
G1 X81.346 Y72.626 E0.01554
G1 X82.362 Y72.579 E0.03806
G1 X83.253 Y72.620 E0.03339
G1 X83.727 Y72.684 E0.01789
G1 X84.758 Y72.089 E0.04455
G1 X86.759 Y72.625 E0.07749
G1 X87.578 Y74.044 E0.06130
G1 X88.007 Y74.305 E0.01881
G1 X88.825 Y74.914 E0.03814
G1 X89.577 Y75.601 E0.03813
G1 X90.258 Y76.360 E0.03814
G1 X90.791 Y77.080 E0.03351
G1 X91.317 Y77.952 E0.03811
G1 X91.734 Y78.823 E0.03613
G1 X92.082 Y79.778 E0.03807
G1 X92.336 Y80.774 E0.03842
G1 X92.489 Y81.791 E0.03852
G1 X92.541 Y82.774 E0.03680
G1 X92.501 Y83.755 E0.03676
G1 X92.360 Y84.769 E0.03829
G1 X92.134 Y85.713 E0.03631
G1 X91.804 Y86.673 E0.03801
G1 X91.347 Y87.659 E0.04065
G1 X90.826 Y88.534 E0.03811
G1 X90.219 Y89.354 E0.03817
G1 X89.534 Y90.109 E0.03815
G1 X88.778 Y90.792 E0.03813
G1 X87.956 Y91.396 E0.03814
G1 X87.085 Y91.912 E0.03791
G1 X86.218 Y92.317 E0.03582
G1 X85.307 Y92.643 E0.03619
G1 X84.323 Y92.891 E0.03799
G1 X83.317 Y93.040 E0.03806
G1 X82.274 Y93.088 E0.03904
G1 X81.346 Y93.040 E0.03477
G1 X80.340 Y92.891 E0.03805
G1 X79.356 Y92.643 E0.03799
G1 X78.445 Y92.317 E0.03619
