; generated by Slic3r 1.0.0RC2 on 2014-01-29 at 14:39:43

; layer_height = 0.15
; perimeters = 3
; top_solid_layers = 3
; bottom_solid_layers = 3
; fill_density = 0.4
; perimeter_speed = 30
; infill_speed = 60
; travel_speed = 130
; nozzle_diameter = 0.5
; filament_diameter = 1.75
; extrusion_multiplier = 0.9
; perimeters extrusion width = 0.50mm
; infill extrusion width = 1.34mm
; solid infill extrusion width = 0.85mm
; top infill extrusion width = 0.85mm
; support material extrusion width = 0.50mm
; first layer extrusion width = 0.30mm

G21 ; set units to millimeters
M107
M190 S90 ; wait for bed temperature to be reached
M104 S200 ; set temperature
G28 ; home all axes
G1 Z5 F5000 ; lift nozzle
M109 S200 ; wait for temperature to be reached
G90 ; use absolute coordinates
G92 E0
M82 ; use absolute distances for extrusion
G1 F1800.000 E-1.00000
G92 E0
G1 Z0.150 F7800.000
G1 X60.770 Y43.020 F7800.000
G1 E1.00000 F1800.000
G1 X61.550 Y42.050 E1.02396 F540.000
G1 X62.520 Y41.270 E1.04791
G1 X63.610 Y40.680 E1.07177
G1 X64.800 Y40.320 E1.09570
G1 X66.040 Y40.200 E1.11968
G1 X73.910 Y40.200 E1.27115
G1 X75.150 Y40.320 E1.29513
G1 X76.340 Y40.680 E1.31906
G1 X77.430 Y41.270 E1.34291
G1 X78.400 Y42.050 E1.36687
G1 X79.180 Y43.020 E1.39082
G1 X79.770 Y44.110 E1.41468
G1 X80.130 Y45.300 E1.43861
G1 X80.250 Y46.540 E1.46259
G1 X80.250 Y93.850 E2.37316
G1 X80.130 Y95.090 E2.39714
G1 X79.770 Y96.280 E2.42106
G1 X79.180 Y97.370 E2.44492
G1 X78.400 Y98.340 E2.46888
G1 X77.430 Y99.120 E2.49283
G1 X76.340 Y99.710 E2.51669
G1 X75.150 Y100.070 E2.54062
G1 X73.910 Y100.190 E2.56460
G1 X66.040 Y100.190 E2.71607
G1 X64.800 Y100.070 E2.74005
G1 X63.610 Y99.710 E2.76397
G1 X62.520 Y99.120 E2.78783
G1 X61.550 Y98.340 E2.81179
G1 X60.770 Y97.370 E2.83574
G1 X60.180 Y96.280 E2.85960
G1 X59.820 Y95.090 E2.88353
G1 X59.700 Y93.850 E2.90751
G1 X59.700 Y46.540 E3.81808
G1 X59.820 Y45.300 E3.84205
G1 X60.180 Y44.110 E3.86598
G1 X60.746 Y43.065 E3.88885
G1 F1800.000 E2.88885
G92 E0
G1 X63.671 Y45.462 F7800.000
G1 E1.00000 F1800.000
G1 X64.976 Y44.156 E1.03554 F540.000
G1 X74.989 Y44.156 E1.22826
G1 X76.295 Y45.462 E1.26380
G1 X76.295 Y47.609 E1.30511
G1 X75.977 Y47.927 E1.31377
G1 X75.925 Y48.053 E1.31640
G1 X75.925 Y91.655 E2.15561
G1 X75.977 Y91.781 E2.15823
G1 X76.295 Y92.099 E2.16689
G1 X76.295 Y94.932 E2.22141
G1 X74.989 Y96.237 E2.25695
G1 X65.544 Y96.237 E2.43874
G1 X64.725 Y95.898 E2.45580
G1 X64.010 Y95.183 E2.47526
G1 X63.671 Y94.364 E2.49233
G1 X63.671 Y92.667 E2.52499
G1 X64.075 Y91.709 E2.54501
G1 X64.075 Y48.087 E3.38459
G1 X64.023 Y47.961 E3.38721
G1 X63.671 Y47.609 E3.39681
G1 X63.671 Y45.514 E3.43713
G1 X64.013 Y45.604 F7800.000
G1 X65.118 Y44.499 E3.46721 F540.000
G1 X74.847 Y44.499 E3.65446
G1 X75.952 Y45.604 E3.68453
G1 X75.952 Y47.467 E3.72038
G1 X75.634 Y47.785 E3.72904
G1 X75.582 Y47.911 E3.73166
G1 X75.582 Y91.797 E4.57634
G1 X75.634 Y91.923 E4.57896
G1 X75.952 Y92.241 E4.58762
G1 X75.952 Y94.790 E4.63667
G1 X74.847 Y95.894 E4.66674
G1 X65.612 Y95.894 E4.84448
G1 X64.919 Y95.607 E4.85893
G1 X64.301 Y94.989 E4.87576
G1 X64.013 Y94.296 E4.89020
G1 X64.013 Y92.735 E4.92023
G1 X64.301 Y92.042 E4.93468
G1 X64.366 Y91.977 E4.93646
G1 X64.418 Y91.851 E4.93908
G1 X64.418 Y47.945 E5.78412
G1 X64.366 Y47.819 E5.78675
G1 X64.013 Y47.467 E5.79635
G1 X64.013 Y45.656 E5.83120
G1 X64.356 Y45.746 F7800.000
G1 X65.260 Y44.842 E5.85581 F540.000
G1 X74.705 Y44.842 E6.03759
G1 X75.609 Y45.746 E6.06219
G1 X75.609 Y47.325 E6.09257
G1 X75.291 Y47.643 E6.10123
G1 X75.239 Y47.769 E6.10386
G1 X75.239 Y91.939 E6.95400
G1 X75.291 Y92.065 E6.95663
G1 X75.609 Y92.383 E6.96529
G1 X75.609 Y94.648 E7.00887
G1 X74.705 Y95.552 E7.03347
G1 X65.680 Y95.552 E7.20717
G1 X65.113 Y95.317 E7.21898
G1 X64.591 Y94.795 E7.23319
G1 X64.356 Y94.227 E7.24501
G1 X64.356 Y92.803 E7.27241
G1 X64.591 Y92.236 E7.28423
G1 X64.709 Y92.119 E7.28743
G1 X64.761 Y91.993 E7.29006
G1 X64.761 Y47.803 E8.14057
G1 X64.709 Y47.677 E8.14319
G1 X64.356 Y47.325 E8.15279
G1 X64.356 Y45.798 E8.18218
G1 X64.699 Y45.888 F7800.000
G1 X65.402 Y45.185 E8.20131 F540.000
G1 X74.563 Y45.185 E8.37763
G1 X75.266 Y45.888 E8.39677
G1 X75.266 Y47.183 E8.42168
G1 X74.948 Y47.501 E8.43034
G1 X74.896 Y47.627 E8.43296
G1 X74.896 Y92.081 E9.28857
G1 X74.948 Y92.207 E9.29120
G1 X75.266 Y92.525 E9.29986
G1 X75.266 Y94.506 E9.33797
G1 X74.563 Y95.209 E9.35711
G1 X65.749 Y95.209 E9.52676
G1 X65.308 Y95.026 E9.53595
G1 X64.882 Y94.600 E9.54753
G1 X64.699 Y94.159 E9.55672
G1 X64.699 Y92.872 E9.58150
G1 X64.882 Y92.431 E9.59069
G1 X65.052 Y92.261 E9.59531
G1 X65.104 Y92.135 E9.59794
G1 X65.104 Y47.661 E10.45392
G1 X65.052 Y47.535 E10.45654
G1 X64.699 Y47.183 E10.46614
G1 X64.699 Y45.940 E10.49006
G1 X65.042 Y46.030 F7800.000
G1 X65.544 Y45.528 E10.50373 F540.000
G1 X74.421 Y45.528 E10.67458
G1 X74.923 Y46.030 E10.68824
G1 X74.923 Y47.041 E10.70769
G1 X74.605 Y47.359 E10.71635
G1 X74.553 Y47.485 E10.71897
G1 X74.550 Y89.608 E11.52972
G1 X74.553 Y92.223 E11.58005
G1 X74.605 Y92.349 E11.58268
G1 X74.923 Y92.667 E11.59134
G1 X74.923 Y94.364 E11.62398
G1 X74.421 Y94.866 E11.63765
G1 X65.817 Y94.866 E11.80325
G1 X65.502 Y94.735 E11.80982
G1 X65.173 Y94.406 E11.81877
G1 X65.042 Y94.091 E11.82534
G1 X65.042 Y92.940 E11.84749
G1 X65.173 Y92.625 E11.85406
G1 X65.395 Y92.403 E11.86010
G1 X65.447 Y92.277 E11.86273
G1 X65.450 Y89.892 E11.90863
G1 X65.447 Y47.519 E12.72417
G1 X65.395 Y47.393 E12.72680
G1 X65.042 Y47.041 E12.73640
G1 X65.042 Y46.082 E12.75485
G1 X65.385 Y46.172 F7800.000
G1 X65.686 Y45.871 E12.76305 F540.000
G1 X74.279 Y45.871 E12.92843
G1 X74.580 Y46.172 E12.93663
G1 X74.580 Y46.899 E12.95061
G1 X74.262 Y47.217 E12.95927
G1 X74.210 Y47.343 E12.96189
G1 X74.210 Y89.463 E13.77258
G1 X74.065 Y89.608 E13.77652
G1 X74.065 Y89.892 E13.78199
G1 X74.210 Y90.037 E13.78593
G1 X74.210 Y92.365 E13.83075
G1 X74.262 Y92.491 E13.83337
G1 X74.580 Y92.809 E13.84203
G1 X74.580 Y94.221 E13.86921
G1 X74.279 Y94.523 E13.87741
G1 X65.885 Y94.523 E14.03897
G1 X65.696 Y94.444 E14.04291
G1 X65.463 Y94.212 E14.04924
G1 X65.385 Y94.023 E14.05317
G1 X65.385 Y93.008 E14.07271
G1 X65.463 Y92.819 E14.07664
G1 X65.738 Y92.545 E14.08411
G1 X65.790 Y92.419 E14.08673
G1 X65.790 Y90.037 E14.13258
G1 X65.935 Y89.892 E14.13652
G1 X65.935 Y89.608 E14.14199
G1 X65.790 Y89.463 E14.14593
G1 X65.790 Y47.377 E14.95596
G1 X65.738 Y47.251 E14.95858
G1 X65.385 Y46.899 E14.96818
G1 X65.385 Y46.224 E14.98117
G1 X65.728 Y46.314 F7800.000
G1 X65.829 Y46.214 E14.98390 F540.000
G1 X74.137 Y46.214 E15.14381
G1 X74.237 Y46.314 E15.14654
G1 X74.237 Y46.756 E15.15505
G1 X74.137 Y46.857 E15.15779
G1 X73.894 Y46.857 E15.16247
G1 X73.718 Y47.280 E15.17129
G1 X73.867 Y47.429 E15.17534
G1 X73.867 Y89.321 E15.98163
G1 X73.580 Y89.608 E15.98944
G1 X73.580 Y89.892 E15.99491
G1 X73.867 Y90.179 E16.00272
G1 X73.867 Y92.650 E16.05028
G1 X74.068 Y92.851 E16.05575
G1 X74.137 Y92.851 E16.05708
G1 X74.237 Y92.952 E16.05981
G1 X74.237 Y94.079 E16.08152
G1 X74.137 Y94.180 E16.08425
G1 X65.953 Y94.180 E16.24176
G1 X65.890 Y94.154 E16.24307
G1 X65.754 Y94.018 E16.24678
G1 X65.728 Y93.955 E16.24809
G1 X65.728 Y93.076 E16.26500
G1 X65.754 Y93.013 E16.26631
G1 X65.890 Y92.877 E16.27001
G1 X66.017 Y92.825 E16.27266
G1 X66.133 Y92.652 E16.27666
G1 X66.133 Y90.179 E16.32425
G1 X66.420 Y89.892 E16.33206
G1 X66.420 Y89.608 E16.33753
G1 X66.133 Y89.321 E16.34534
G1 X66.133 Y47.429 E17.15163
G1 X66.282 Y47.280 E17.15568
G1 X66.106 Y46.857 E17.16450
G1 X65.829 Y46.857 E17.16985
G1 X65.728 Y46.756 E17.17258
G1 X65.728 Y46.366 E17.18010
G1 X66.454 Y47.650 F7800.000
G1 X73.546 Y47.650 E17.31658 F378.000
G1 X73.546 Y89.100 E18.11437
G1 X73.015 Y89.100 E18.12458
G1 X73.015 Y90.400 E18.14960
G1 X73.546 Y90.400 E18.15981
G1 X73.546 Y92.350 E18.19734
G1 X66.454 Y92.350 E18.33382
G1 X66.454 Y90.400 E18.37135
G1 X66.985 Y90.400 E18.38156
G1 X66.985 Y89.100 E18.40658
G1 X66.454 Y89.100 E18.41680
G1 X66.454 Y47.701 E19.21359
G1 X66.751 Y47.821 F7800.000
G1 X66.797 Y47.993 F7800.000
G1 X73.203 Y47.993 E19.33687 F540.000
G1 X73.203 Y88.757 E20.12146
G1 X72.672 Y88.757 E20.13167
G1 X72.672 Y90.743 E20.16989
G1 X73.203 Y90.743 E20.18010
G1 X73.203 Y92.007 E20.20443
G1 X66.797 Y92.007 E20.32771
G1 X66.797 Y90.743 E20.35204
G1 X67.328 Y90.743 E20.36225
G1 X67.328 Y88.757 E20.40048
G1 X66.797 Y88.757 E20.41069
G1 X66.797 Y48.044 E21.19428
G1 X67.140 Y48.336 F7800.000
G1 X72.860 Y48.336 E21.30436 F540.000
G1 X72.860 Y88.414 E22.07575
G1 X72.329 Y88.414 E22.08596
G1 X72.329 Y91.086 E22.13738
G1 X72.860 Y91.086 E22.14759
G1 X72.860 Y91.664 E22.15872
G1 X67.140 Y91.664 E22.26880
G1 X67.140 Y91.086 E22.27993
G1 X67.671 Y91.086 E22.29014
G1 X67.671 Y88.414 E22.34157
G1 X67.140 Y88.414 E22.35178
G1 X67.140 Y48.387 E23.12217
G1 X72.594 Y48.567 F7800.000
G1 X72.628 Y48.602 E23.12311 F1080.000
G1 X72.628 Y49.090 E23.13257
G1 X72.106 Y48.567 E23.14689
G1 X71.618 Y48.567 E23.15635
G1 X72.628 Y49.578 E23.18404
G1 X72.628 Y50.066 E23.19350
G1 X71.129 Y48.567 E23.23457
G1 X70.641 Y48.567 E23.24403
G1 X72.628 Y50.554 E23.29847
G1 X72.628 Y51.042 E23.30793
G1 X70.153 Y48.567 E23.37575
G1 X69.665 Y48.567 E23.38521
G1 X72.628 Y51.531 E23.46640
G1 X72.628 Y52.019 E23.47586
G1 X69.177 Y48.567 E23.57043
G1 X68.689 Y48.567 E23.57988
G1 X72.628 Y52.507 E23.68783
G1 X72.628 Y52.995 E23.69729
G1 X68.200 Y48.567 E23.81861
G1 X67.712 Y48.567 E23.82806
G1 X72.628 Y53.483 E23.96276
G1 X72.628 Y53.971 E23.97221
G1 X67.371 Y48.715 E24.11625
G1 X67.371 Y49.203 E24.12570
G1 X72.628 Y54.460 E24.26974
G1 X72.628 Y54.948 E24.27919
G1 X67.371 Y49.691 E24.42322
G1 X67.371 Y50.179 E24.43268
G1 X72.628 Y55.436 E24.57671
G1 X72.628 Y55.924 E24.58617
G1 X67.371 Y50.667 E24.73020
G1 X67.371 Y51.155 E24.73966
G1 X72.628 Y56.412 E24.88369
G1 X72.628 Y56.900 E24.89315
G1 X67.371 Y51.643 E25.03718
G1 X67.371 Y52.132 E25.04664
G1 X72.628 Y57.389 E25.19067
G1 X72.628 Y57.877 E25.20013
G1 X67.371 Y52.620 E25.34416
G1 X67.371 Y53.108 E25.35362
G1 X72.628 Y58.365 E25.49765
G1 X72.628 Y58.853 E25.50711
G1 X67.371 Y53.596 E25.65114
G1 X67.371 Y54.084 E25.66060
G1 X72.628 Y59.341 E25.80463
G1 X72.628 Y59.829 E25.81409
G1 X67.371 Y54.572 E25.95812
G1 X67.371 Y55.061 E25.96758
G1 X72.628 Y60.317 E26.11161
G1 X72.628 Y60.806 E26.12107
G1 X67.371 Y55.549 E26.26510
G1 X67.371 Y56.037 E26.27455
G1 X72.628 Y61.294 E26.41859
G1 X72.628 Y61.782 E26.42804
G1 X67.371 Y56.525 E26.57208
G1 X67.371 Y57.013 E26.58153
G1 X72.628 Y62.270 E26.72556
G1 X72.628 Y62.758 E26.73502
G1 X67.371 Y57.501 E26.87905
G1 X67.371 Y57.990 E26.88851
G1 X72.628 Y63.246 E27.03254
G1 X72.628 Y63.735 E27.04200
G1 X67.371 Y58.478 E27.18603
G1 X67.371 Y58.966 E27.19549
G1 X72.628 Y64.223 E27.33952
G1 X72.628 Y64.711 E27.34898
G1 X67.371 Y59.454 E27.49301
G1 X67.371 Y59.942 E27.50247
G1 X72.628 Y65.199 E27.64650
G1 X72.628 Y65.687 E27.65596
G1 X67.371 Y60.430 E27.79999
G1 X67.371 Y60.919 E27.80945
G1 X72.628 Y66.175 E27.95348
G1 X72.628 Y66.664 E27.96294
G1 X67.371 Y61.407 E28.10697
G1 X67.371 Y61.895 E28.11643
G1 X72.628 Y67.152 E28.26046
G1 X72.628 Y67.640 E28.26992
G1 X67.371 Y62.383 E28.41395
G1 X67.371 Y62.871 E28.42341
G1 X72.628 Y68.128 E28.56744
G1 X72.628 Y68.616 E28.57689
G1 X67.371 Y63.359 E28.72093
G1 X67.371 Y63.847 E28.73038
G1 X72.628 Y69.104 E28.87442
G1 X72.628 Y69.593 E28.88387
G1 X67.371 Y64.336 E29.02790
G1 X67.371 Y64.824 E29.03736
G1 X72.628 Y70.081 E29.18139
G1 X72.628 Y70.569 E29.19085
G1 X67.371 Y65.312 E29.33488
G1 X67.371 Y65.800 E29.34434
G1 X72.628 Y71.057 E29.48837
G1 X72.628 Y71.545 E29.49783
G1 X67.371 Y66.288 E29.64186
G1 X67.371 Y66.776 E29.65132
G1 X72.628 Y72.033 E29.79535
G1 X72.628 Y72.522 E29.80481
G1 X67.371 Y67.265 E29.94884
G1 X67.371 Y67.753 E29.95830
G1 X72.628 Y73.010 E30.10233
G1 X72.628 Y73.498 E30.11179
G1 X67.371 Y68.241 E30.25582
G1 X67.371 Y68.729 E30.26528
G1 X72.628 Y73.986 E30.40931
G1 X72.628 Y74.474 E30.41877
G1 X67.371 Y69.217 E30.56280
G1 X67.371 Y69.705 E30.57226
G1 X72.628 Y74.962 E30.71629
G1 X72.628 Y75.450 E30.72575
G1 X67.371 Y70.194 E30.86978
G1 X67.371 Y70.682 E30.87923
G1 X72.628 Y75.939 E31.02327
G1 X72.628 Y76.427 E31.03272
G1 X67.371 Y71.170 E31.17676
G1 X67.371 Y71.658 E31.18621
G1 X72.628 Y76.915 E31.33024
G1 X72.628 Y77.403 E31.33970
G1 X67.371 Y72.146 E31.48373
G1 X67.371 Y72.634 E31.49319
G1 X72.628 Y77.891 E31.63722
G1 X72.628 Y78.379 E31.64668
G1 X67.371 Y73.123 E31.79071
G1 X67.371 Y73.611 E31.80017
G1 X72.628 Y78.868 E31.94420
G1 X72.628 Y79.356 E31.95366
G1 X67.371 Y74.099 E32.09769
G1 X67.371 Y74.587 E32.10715
G1 X72.628 Y79.844 E32.25118
G1 X72.628 Y80.332 E32.26064
G1 X67.371 Y75.075 E32.40467
G1 X67.371 Y75.563 E32.41413
G1 X72.628 Y80.820 E32.55816
G1 X72.628 Y81.308 E32.56762
G1 X67.371 Y76.052 E32.71165
G1 X67.371 Y76.540 E32.72111
G1 X72.628 Y81.797 E32.86514
G1 X72.628 Y82.285 E32.87460
G1 X67.371 Y77.028 E33.01863
G1 X67.371 Y77.516 E33.02809
G1 X72.628 Y82.773 E33.17212
G1 X72.628 Y83.261 E33.18157
G1 X67.371 Y78.004 E33.32561
G1 X67.371 Y78.492 E33.33506
G1 X72.628 Y83.749 E33.47910
G1 X72.628 Y84.237 E33.48855
G1 X67.371 Y78.980 E33.63258
G1 X67.371 Y79.469 E33.64204
G1 X72.628 Y84.726 E33.78607
G1 X72.628 Y85.214 E33.79553
G1 X67.371 Y79.957 E33.93956
G1 X67.371 Y80.445 E33.94902
G1 X72.628 Y85.702 E34.09305
G1 X72.628 Y86.190 E34.10251
G1 X67.371 Y80.933 E34.24654
G1 X67.371 Y81.421 E34.25600
G1 X72.628 Y86.678 E34.40003
G1 X72.628 Y87.166 E34.40949
G1 X67.371 Y81.909 E34.55352
G1 X67.371 Y82.398 E34.56298
G1 X72.628 Y87.654 E34.70701
G1 X72.628 Y88.143 E34.71647
G1 X67.371 Y82.886 E34.86050
G1 X67.371 Y83.374 E34.86996
G1 X72.180 Y88.183 E35.00171
G1 X72.098 Y88.589 E35.00974
G1 X67.371 Y83.862 E35.13924
G1 X67.371 Y84.350 E35.14869
G1 X72.098 Y89.077 E35.27819
G1 X72.098 Y89.565 E35.28765
G1 X67.371 Y84.838 E35.41715
G1 X67.371 Y85.327 E35.42661
G1 X72.098 Y90.053 E35.55611
G1 X72.098 Y90.541 E35.56556
G1 X67.371 Y85.815 E35.69506
G1 X67.371 Y86.303 E35.70452
G1 X72.095 Y91.026 E35.83393
G1 X71.927 Y91.346 E35.84093
G1 X67.371 Y86.791 E35.96573
G1 X67.787 Y88.183 F7800.000
G1 X67.371 Y87.767 E35.97712 F1080.000
G1 X67.371 Y87.279 E35.98657
G1 X71.525 Y91.433 E36.10038
G1 X71.037 Y91.433 E36.10984
G1 X67.902 Y88.298 E36.19573
G1 X67.902 Y88.786 E36.20519
G1 X70.549 Y91.433 E36.27770
G1 X70.061 Y91.433 E36.28716
G1 X67.902 Y89.274 E36.34631
G1 X67.902 Y89.762 E36.35576
G1 X69.572 Y91.433 E36.40153
G1 X69.084 Y91.433 E36.41099
G1 X67.902 Y90.251 E36.44338
G1 X67.902 Y90.739 E36.45284
G1 X68.596 Y91.433 E36.47186
G1 X68.073 Y91.398 E36.48201
G1 X68.108 Y91.433 E36.48295
G1 X67.801 Y91.336 F7800.000
G1 X67.764 Y91.299 E36.48405 F360.000
G1 X67.353 Y91.414 E36.49295 F360.000
G1 X67.390 Y91.451 E36.49405 F360.000
G1 X72.199 Y91.414 F7800.000
G1 X72.610 Y91.299 E36.50295 F360.000
G1 X72.647 Y91.336 E36.50404 F360.000
G1 X72.236 Y91.451 F7800.000
G1 X72.199 Y91.414 E36.50514 F360.000
G1 F1800.000 E35.50514
G92 E0
G1 X73.916 Y93.173 F7800.000
G1 E1.00000 F1800.000
G1 X66.050 Y93.173 E1.15140 F1080.000
G1 X66.050 Y93.858 E1.16460
G1 X73.916 Y93.858 E1.31601
G1 F1800.000 E0.31601
G92 E0
G1 X73.916 Y46.535 F7800.000
G1 E1.00000 F1800.000
G1 X66.050 Y46.535 E1.15140 F1080.000
M106 S255
M104 S180 ; set temperature
M140 S55 ; set bed temperature
G1 F1800.000 E0.15140
G92 E0
G1 Z0.300 F7800.000
G1 X67.230 Y48.750 F7800.000
G1 E1.00000 F1800.000
G1 X72.770 Y48.750 E1.15549 F864.147
G1 X72.770 Y88.000 E2.25697
G1 X72.289 Y88.000 E2.27048
G1 X72.289 Y91.250 E2.36169
G1 X67.711 Y91.250 E2.49015
G1 X67.711 Y88.000 E2.58136
G1 X67.230 Y88.000 E2.59487
G1 X67.230 Y48.825 E3.69424
G1 X66.730 Y48.250 F7800.000
G1 X73.270 Y48.250 E3.87780 F864.147
G1 X73.270 Y88.500 E5.00734
G1 X72.789 Y88.500 E5.02085
G1 X72.789 Y91.000 E5.09101
G1 X73.270 Y91.000 E5.10453
G1 X73.270 Y91.750 E5.12557
G1 X66.730 Y91.750 E5.30912
G1 X66.730 Y91.000 E5.33017
G1 X67.211 Y91.000 E5.34368
G1 X67.211 Y88.500 E5.41384
G1 X66.730 Y88.500 E5.42734
G1 X66.730 Y48.325 E6.55478
G1 X66.230 Y47.750 F7800.000
M106 S255
G1 X66.304 Y47.750 E6.56026 F3600
M106 S255
G1 X73.696 Y47.750 E6.76768 F604.903
M106 S255
G1 X73.770 Y47.750 E6.77318 F3600
