; generated by Slic3r 1.0.0RC2 on 2014-01-29 at 14:40:43

; layer_height = 0.15
; perimeters = 3
; top_solid_layers = 3
; bottom_solid_layers = 3
; fill_density = 0.4
; perimeter_speed = 30
; infill_speed = 60
; travel_speed = 130
; nozzle_diameter = 0.5
; filament_diameter = 1.75
; extrusion_multiplier = 0.9
; perimeters extrusion width = 0.50mm
; infill extrusion width = 1.34mm
; solid infill extrusion width = 0.85mm
; top infill extrusion width = 0.85mm
; support material extrusion width = 0.50mm
; first layer extrusion width = 0.30mm

G21 ; set units to millimeters
M107
M190 S90 ; wait for bed temperature to be reached
M104 S200 ; set temperature
G28 ; home all axes
G1 Z5 F5000 ; lift nozzle
M109 S200 ; wait for temperature to be reached
G90 ; use absolute coordinates
G92 E0
M82 ; use absolute distances for extrusion
G1 F1800.000 E-1.00000
G92 E0
G1 Z0.150 F7800.000
G1 X48.680 Y70.830 F7800.000
G1 E1.00000 F1800.000
G1 X70.910 Y48.790 E1.60250 F540.000
G1 X72.370 Y47.410 E1.64117
G1 X72.920 Y46.940 E1.65509
G1 X73.520 Y46.520 E1.66919
G1 X74.190 Y46.160 E1.68383
G1 X74.710 Y45.930 E1.69477
G1 X75.240 Y45.740 E1.70561
G1 X77.110 Y45.190 E1.74313
G1 X77.760 Y45.020 E1.75606
G1 X78.360 Y44.900 E1.76783
G1 X79.200 Y44.770 E1.78419
G1 X79.850 Y44.700 E1.79678
G1 X80.650 Y44.660 E1.81219
G1 X81.340 Y44.660 E1.82547
G1 X82.140 Y44.700 E1.84089
G1 X82.790 Y44.770 E1.85347
G1 X83.630 Y44.900 E1.86983
G1 X84.230 Y45.020 E1.88161
G1 X84.880 Y45.190 E1.89454
G1 X86.750 Y45.740 E1.93206
G1 X87.280 Y45.930 E1.94289
G1 X87.800 Y46.160 E1.95384
G1 X88.470 Y46.520 E1.96848
G1 X89.070 Y46.940 E1.98257
G1 X89.620 Y47.410 E1.99650
G1 X90.970 Y48.690 E2.03230
G1 X91.320 Y49.040 E2.04183
G1 X91.790 Y49.560 E2.05532
G1 X92.540 Y50.500 E2.07847
G1 X92.890 Y51.000 E2.09021
G1 X93.290 Y51.630 E2.10458
G1 X93.600 Y52.160 E2.11639
G1 X93.940 Y52.830 E2.13086
G1 X94.390 Y53.860 E2.15249
G1 X94.580 Y54.390 E2.16333
G1 X94.880 Y55.410 E2.18379
G1 X95.350 Y57.390 E2.22296
G1 X95.460 Y57.950 E2.23394
G1 X95.540 Y58.960 E2.25344
G1 X95.470 Y59.980 E2.27312
G1 X95.350 Y60.600 E2.28527
G1 X94.880 Y62.580 E2.32444
G1 X94.580 Y63.600 E2.34491
G1 X94.390 Y64.130 E2.35574
G1 X94.140 Y64.730 E2.36825
G1 X93.600 Y65.830 E2.39184
G1 X92.890 Y66.990 E2.41801
G1 X92.610 Y67.400 E2.42757
G1 X92.190 Y67.960 E2.44104
G1 X91.770 Y68.460 E2.45361
G1 X91.070 Y69.210 E2.47336
G1 X68.720 Y91.340 E3.07872
G1 X68.130 Y91.880 E3.09411
G1 X67.600 Y92.310 E3.10725
G1 X66.960 Y92.780 E3.12253
G1 X66.450 Y93.120 E3.13433
G1 X65.760 Y93.530 E3.14978
G1 X65.150 Y93.850 E3.16304
G1 X63.990 Y94.360 E3.18742
G1 X63.240 Y94.630 E3.20277
G1 X62.590 Y94.820 E3.21580
G1 X61.810 Y95.010 E3.23125
G1 X61.180 Y95.130 E3.24360
G1 X60.390 Y95.240 E3.25895
G1 X59.770 Y95.300 E3.27094
G1 X59.020 Y95.330 E3.28538
G1 X58.450 Y95.330 E3.29635
G1 X57.650 Y95.290 E3.31177
G1 X56.300 Y95.110 E3.33798
G1 X55.710 Y95.000 E3.34954
G1 X54.980 Y94.820 E3.36401
G1 X54.350 Y94.630 E3.37667
G1 X53.600 Y94.360 E3.39201
G1 X53.040 Y94.130 E3.40367
G1 X52.320 Y93.790 E3.41899
G1 X51.100 Y93.090 E3.44606
G1 X50.530 Y92.710 E3.45925
G1 X49.890 Y92.230 E3.47465
G1 X49.430 Y91.850 E3.48613
G1 X48.880 Y91.350 E3.50044
G1 X48.470 Y90.940 E3.51160
G1 X47.930 Y90.350 E3.52699
G1 X47.540 Y89.880 E3.53874
G1 X47.060 Y89.240 E3.55414
G1 X46.640 Y88.610 E3.56871
G1 X46.240 Y87.920 E3.58406
G1 X45.990 Y87.440 E3.59448
G1 X45.670 Y86.760 E3.60895
G1 X45.440 Y86.210 E3.62042
G1 X45.170 Y85.460 E3.63576
G1 X45.000 Y84.890 E3.64721
G1 X44.800 Y84.110 E3.66271
G1 X44.670 Y83.460 E3.67547
G1 X44.560 Y82.720 E3.68987
G1 X44.490 Y82.030 E3.70321
G1 X44.460 Y80.730 E3.72824
G1 X44.490 Y79.990 E3.74250
G1 X44.550 Y79.380 E3.75429
G1 X44.660 Y78.590 E3.76965
G1 X44.800 Y77.880 E3.78357
G1 X45.000 Y77.100 E3.79907
G1 X45.170 Y76.530 E3.81052
G1 X45.440 Y75.780 E3.82586
G1 X45.670 Y75.230 E3.83734
G1 X45.990 Y74.550 E3.85180
G1 X46.240 Y74.070 E3.86222
G1 X46.640 Y73.380 E3.87757
G1 X47.060 Y72.750 E3.89214
G1 X47.540 Y72.110 E3.90754
G1 X47.930 Y71.640 E3.91929
G1 X48.644 Y70.867 E3.93955
G1 F1800.000 E2.93955
G92 E0
G1 X71.406 Y62.549 F7800.000
G1 E1.00000 F1800.000
G1 X71.138 Y61.714 E1.01689 F540.000
G1 X70.937 Y60.836 E1.03423
G1 X70.873 Y60.375 E1.04318
G1 X70.724 Y59.986 E1.05119
G1 X70.627 Y59.605 E1.05877
G1 X70.571 Y59.083 E1.06886
G1 X70.596 Y58.587 E1.07842
G1 X70.627 Y58.395 E1.08217
G1 X70.724 Y58.014 E1.08975
G1 X70.873 Y57.625 E1.09776
G1 X70.936 Y57.169 E1.10660
G1 X71.123 Y56.341 E1.12295
G1 X71.385 Y55.511 E1.13971
G1 X71.703 Y54.734 E1.15585
G1 X72.141 Y53.886 E1.17422
G1 X72.654 Y53.085 E1.19254
G1 X73.208 Y52.373 E1.20991
G1 X73.857 Y51.678 E1.22821
G1 X74.450 Y51.143 E1.24358
G1 X74.739 Y50.919 E1.25061
G1 X75.141 Y50.457 E1.26241
G1 X75.304 Y50.305 E1.26669
G1 X75.754 Y49.985 E1.27732
G1 X76.129 Y49.793 E1.28543
G1 X76.363 Y49.705 E1.29025
G1 X76.871 Y49.575 E1.30033
G1 X77.111 Y49.540 E1.30500
G1 X77.678 Y49.326 E1.31666
G1 X78.281 Y49.139 E1.32882
G1 X78.947 Y48.980 E1.34200
G1 X80.001 Y48.820 E1.36252
G1 X81.055 Y48.771 E1.38282
G1 X82.113 Y48.832 E1.40322
G1 X83.142 Y48.997 E1.42328
G1 X83.719 Y49.139 E1.43471
G1 X84.260 Y49.304 E1.44560
G1 X84.889 Y49.540 E1.45853
G1 X85.129 Y49.575 E1.46321
G1 X85.637 Y49.705 E1.47328
G1 X85.871 Y49.793 E1.47809
G1 X86.245 Y49.985 E1.48620
G1 X86.696 Y50.305 E1.49683
G1 X86.859 Y50.456 E1.50112
G1 X87.261 Y50.919 E1.51292
G1 X87.550 Y51.143 E1.51995
G1 X88.210 Y51.744 E1.53714
G1 X88.820 Y52.406 E1.55447
G1 X89.402 Y53.165 E1.57288
G1 X89.859 Y53.886 E1.58931
G1 X90.297 Y54.734 E1.60768
G1 X90.615 Y55.511 E1.62383
G1 X90.877 Y56.341 E1.64059
G1 X91.064 Y57.169 E1.65693
G1 X91.127 Y57.625 E1.66578
G1 X91.276 Y58.014 E1.67379
G1 X91.373 Y58.395 E1.68137
G1 X91.404 Y58.587 E1.68511
G1 X91.429 Y59.083 E1.69467
G1 X91.373 Y59.605 E1.70477
G1 X91.276 Y59.986 E1.71234
G1 X91.127 Y60.375 E1.72036
G1 X91.064 Y60.831 E1.72920
G1 X90.877 Y61.659 E1.74555
G1 X90.615 Y62.489 E1.76231
G1 X90.297 Y63.266 E1.77845
G1 X89.859 Y64.114 E1.79683
G1 X89.345 Y64.916 E1.81516
G1 X88.792 Y65.627 E1.83251
G1 X88.143 Y66.322 E1.85081
G1 X87.550 Y66.857 E1.86618
G1 X87.261 Y67.081 E1.87321
G1 X86.859 Y67.543 E1.88501
G1 X86.696 Y67.695 E1.88929
G1 X86.246 Y68.015 E1.89992
G1 X85.871 Y68.207 E1.90803
G1 X85.637 Y68.295 E1.91285
G1 X85.129 Y68.425 E1.92292
G1 X84.889 Y68.460 E1.92760
G1 X84.324 Y68.674 E1.93923
G1 X83.774 Y68.846 E1.95033
G1 X83.055 Y69.020 E1.96456
G1 X81.999 Y69.180 E1.98512
G1 X80.971 Y69.229 E2.00492
G1 X79.894 Y69.169 E2.02568
G1 X78.919 Y69.015 E2.04468
G1 X78.342 Y68.878 E2.05611
G1 X77.799 Y68.715 E2.06701
G1 X77.111 Y68.460 E2.08113
G1 X76.871 Y68.425 E2.08581
G1 X76.363 Y68.295 E2.09588
G1 X76.129 Y68.207 E2.10070
G1 X75.754 Y68.015 E2.10882
G1 X75.304 Y67.695 E2.11945
G1 X75.141 Y67.543 E2.12373
G1 X74.742 Y67.084 E2.13544
G1 X74.498 Y66.897 E2.14135
G1 X73.831 Y66.296 E2.15863
G1 X73.181 Y65.595 E2.17704
G1 X72.659 Y64.921 E2.19343
G1 X72.170 Y64.163 E2.21080
G1 X71.730 Y63.323 E2.22905
G1 X71.426 Y62.597 E2.24421
G1 X71.726 Y62.425 F7800.000
G1 X71.470 Y61.630 E2.26027 F540.000
G1 X71.273 Y60.767 E2.27731
G1 X71.206 Y60.281 E2.28676
G1 X71.053 Y59.887 E2.29489
G1 X70.963 Y59.535 E2.30190
G1 X70.914 Y59.071 E2.31088
G1 X70.937 Y58.628 E2.31941
G1 X70.963 Y58.465 E2.32258
G1 X71.053 Y58.113 E2.32958
G1 X71.206 Y57.719 E2.33772
G1 X71.272 Y57.237 E2.34708
G1 X71.456 Y56.424 E2.36313
G1 X71.705 Y55.633 E2.37908
G1 X72.012 Y54.884 E2.39467
G1 X72.435 Y54.063 E2.41243
G1 X72.931 Y53.288 E2.43014
G1 X73.465 Y52.600 E2.44691
G1 X74.093 Y51.927 E2.46462
G1 X74.674 Y51.403 E2.47970
G1 X74.990 Y51.160 E2.48737
G1 X75.386 Y50.696 E2.49910
G1 X75.524 Y50.568 E2.50273
G1 X75.924 Y50.284 E2.51216
G1 X76.268 Y50.107 E2.51962
G1 X76.467 Y50.032 E2.52370
G1 X76.933 Y49.913 E2.53296
G1 X77.202 Y49.875 E2.53818
G1 X77.845 Y49.631 E2.55143
G1 X78.377 Y49.468 E2.56213
G1 X78.932 Y49.332 E2.57313
G1 X80.028 Y49.162 E2.59449
G1 X81.050 Y49.114 E2.61417
G1 X82.068 Y49.172 E2.63380
G1 X83.068 Y49.332 E2.65329
G1 X83.623 Y49.468 E2.66429
G1 X84.155 Y49.631 E2.67498
G1 X84.798 Y49.875 E2.68823
G1 X85.067 Y49.913 E2.69346
G1 X85.533 Y50.032 E2.70272
G1 X85.731 Y50.107 E2.70679
G1 X86.075 Y50.283 E2.71424
G1 X86.475 Y50.568 E2.72368
G1 X86.613 Y50.696 E2.72731
G1 X87.010 Y51.160 E2.73904
G1 X87.326 Y51.403 E2.74672
G1 X87.905 Y51.925 E2.76174
G1 X88.554 Y52.622 E2.78007
G1 X89.117 Y53.356 E2.79786
G1 X89.565 Y54.063 E2.81398
G1 X89.988 Y54.884 E2.83175
G1 X90.295 Y55.633 E2.84733
G1 X90.544 Y56.424 E2.86329
G1 X90.728 Y57.237 E2.87933
G1 X90.793 Y57.719 E2.88870
G1 X90.947 Y58.113 E2.89683
G1 X91.037 Y58.465 E2.90384
G1 X91.063 Y58.628 E2.90701
G1 X91.086 Y59.071 E2.91554
G1 X91.037 Y59.535 E2.92452
G1 X90.947 Y59.887 E2.93152
G1 X90.793 Y60.281 E2.93966
G1 X90.728 Y60.763 E2.94902
G1 X90.544 Y61.576 E2.96507
G1 X90.295 Y62.367 E2.98103
G1 X89.988 Y63.116 E2.99661
G1 X89.565 Y63.937 E3.01437
G1 X89.068 Y64.713 E3.03211
G1 X88.535 Y65.400 E3.04886
G1 X87.907 Y66.073 E3.06656
G1 X87.326 Y66.597 E3.08164
G1 X87.010 Y66.840 E3.08931
G1 X86.614 Y67.304 E3.10104
G1 X86.476 Y67.432 E3.10467
G1 X86.076 Y67.716 E3.11410
G1 X85.732 Y67.893 E3.12156
G1 X85.533 Y67.968 E3.12564
G1 X85.067 Y68.087 E3.13490
G1 X84.798 Y68.125 E3.14012
G1 X84.159 Y68.368 E3.15329
G1 X83.623 Y68.532 E3.16407
G1 X83.072 Y68.667 E3.17499
G1 X81.972 Y68.838 E3.19643
G1 X80.979 Y68.886 E3.21555
G1 X79.938 Y68.829 E3.23563
G1 X78.991 Y68.680 E3.25407
G1 X78.435 Y68.547 E3.26507
G1 X77.902 Y68.388 E3.27577
G1 X77.202 Y68.125 E3.29017
G1 X76.933 Y68.087 E3.29540
G1 X76.467 Y67.968 E3.30466
G1 X76.268 Y67.893 E3.30874
G1 X75.924 Y67.716 E3.31620
G1 X75.524 Y67.432 E3.32563
G1 X75.386 Y67.304 E3.32925
G1 X74.992 Y66.844 E3.34092
G1 X74.721 Y66.636 E3.34750
G1 X74.137 Y66.116 E3.36254
G1 X73.447 Y65.379 E3.38198
G1 X72.935 Y64.718 E3.39807
G1 X72.463 Y63.985 E3.41484
G1 X72.038 Y63.172 E3.43250
G1 X71.746 Y62.473 E3.44709
G1 X72.046 Y62.301 F7800.000
G1 X71.803 Y61.547 E3.46234 F540.000
G1 X71.609 Y60.699 E3.47907
G1 X71.540 Y60.187 E3.48903
G1 X71.382 Y59.788 E3.49728
G1 X71.299 Y59.465 E3.50371
G1 X71.257 Y59.058 E3.51158
G1 X71.299 Y58.535 E3.52166
G1 X71.382 Y58.212 E3.52809
G1 X71.540 Y57.813 E3.53635
G1 X71.609 Y57.304 E3.54623
G1 X71.789 Y56.506 E3.56198
G1 X72.025 Y55.755 E3.57713
G1 X72.321 Y55.033 E3.59216
G1 X72.729 Y54.240 E3.60931
G1 X73.167 Y53.549 E3.62508
G1 X73.677 Y52.881 E3.64125
G1 X74.328 Y52.177 E3.65970
G1 X74.898 Y51.662 E3.67449
G1 X75.242 Y51.400 E3.68280
G1 X75.632 Y50.936 E3.69447
G1 X75.745 Y50.831 E3.69744
G1 X76.093 Y50.582 E3.70568
G1 X76.408 Y50.421 E3.71248
G1 X76.570 Y50.360 E3.71581
G1 X76.995 Y50.251 E3.72426
G1 X77.292 Y50.209 E3.73004
G1 X77.951 Y49.957 E3.74360
G1 X78.472 Y49.798 E3.75410
G1 X79.006 Y49.667 E3.76468
G1 X80.055 Y49.504 E3.78512
G1 X81.045 Y49.457 E3.80420
G1 X82.024 Y49.512 E3.82305
G1 X82.994 Y49.667 E3.84197
G1 X83.528 Y49.798 E3.85255
G1 X84.049 Y49.957 E3.86304
G1 X84.708 Y50.209 E3.87661
G1 X85.005 Y50.251 E3.88238
G1 X85.430 Y50.360 E3.89083
G1 X85.592 Y50.421 E3.89416
G1 X85.906 Y50.582 E3.90095
G1 X86.255 Y50.831 E3.90920
G1 X86.368 Y50.936 E3.91217
G1 X86.758 Y51.400 E3.92384
G1 X87.102 Y51.662 E3.93216
G1 X87.670 Y52.175 E3.94689
G1 X88.288 Y52.839 E3.96434
G1 X88.831 Y53.546 E3.98152
G1 X89.271 Y54.240 E3.99733
G1 X89.679 Y55.033 E4.01449
G1 X89.975 Y55.755 E4.02951
G1 X90.211 Y56.506 E4.04466
G1 X90.391 Y57.304 E4.06041
G1 X90.460 Y57.813 E4.07030
G1 X90.618 Y58.212 E4.07855
G1 X90.701 Y58.535 E4.08498
G1 X90.743 Y58.942 E4.09285
G1 X90.701 Y59.465 E4.10294
G1 X90.618 Y59.788 E4.10936
G1 X90.460 Y60.187 E4.11762
G1 X90.391 Y60.696 E4.12750
G1 X90.211 Y61.494 E4.14325
G1 X89.975 Y62.245 E4.15841
G1 X89.679 Y62.967 E4.17343
G1 X89.271 Y63.760 E4.19059
G1 X88.832 Y64.453 E4.20638
G1 X88.323 Y65.119 E4.22252
G1 X87.672 Y65.823 E4.24098
G1 X87.102 Y66.338 E4.25576
G1 X86.758 Y66.600 E4.26408
G1 X86.368 Y67.064 E4.27575
G1 X86.255 Y67.169 E4.27871
G1 X85.907 Y67.418 E4.28695
G1 X85.592 Y67.579 E4.29375
G1 X85.430 Y67.640 E4.29709
G1 X85.005 Y67.749 E4.30553
G1 X84.708 Y67.791 E4.31131
G1 X84.053 Y68.042 E4.32481
G1 X83.537 Y68.200 E4.33520
G1 X82.998 Y68.332 E4.34588
G1 X82.024 Y68.488 E4.36486
G1 X80.988 Y68.543 E4.38483
G1 X79.981 Y68.489 E4.40423
G1 X79.063 Y68.345 E4.42212
G1 X78.528 Y68.217 E4.43270
G1 X78.006 Y68.061 E4.44320
G1 X77.292 Y67.791 E4.45788
G1 X76.995 Y67.749 E4.46366
G1 X76.570 Y67.640 E4.47210
G1 X76.408 Y67.579 E4.47544
G1 X76.093 Y67.418 E4.48224
G1 X75.745 Y67.169 E4.49048
G1 X75.632 Y67.064 E4.49345
G1 X75.243 Y66.603 E4.50506
G1 X74.943 Y66.375 E4.51231
G1 X74.371 Y65.865 E4.52707
G1 X73.713 Y65.162 E4.54559
G1 X73.211 Y64.514 E4.56138
G1 X72.756 Y63.807 E4.57755
G1 X72.346 Y63.021 E4.59461
G1 X72.065 Y62.348 E4.60865
G1 X72.366 Y62.176 F7800.000
G1 X72.136 Y61.463 E4.62307 F540.000
G1 X71.945 Y60.631 E4.63950
G1 X71.874 Y60.092 E4.64996
G1 X71.710 Y59.689 E4.65833
G1 X71.635 Y59.394 E4.66418
G1 X71.600 Y59.045 E4.67095
G1 X71.635 Y58.606 E4.67943
G1 X71.710 Y58.311 E4.68528
G1 X71.874 Y57.908 E4.69366
G1 X71.945 Y57.372 E4.70406
G1 X72.122 Y56.589 E4.71952
G1 X72.346 Y55.878 E4.73386
G1 X72.630 Y55.182 E4.74833
G1 X73.022 Y54.417 E4.76487
G1 X73.453 Y53.739 E4.78033
G1 X73.944 Y53.096 E4.79591
G1 X74.563 Y52.426 E4.81347
G1 X75.122 Y51.922 E4.82796
G1 X75.493 Y51.640 E4.83692
G1 X75.626 Y51.462 E4.84119
G1 X75.966 Y51.094 E4.85083
G1 X76.263 Y50.880 E4.85788
G1 X76.673 Y50.687 E4.86660
G1 X77.058 Y50.589 E4.87424
G1 X77.353 Y50.557 E4.87995
G1 X78.056 Y50.284 E4.89447
G1 X78.567 Y50.127 E4.90477
G1 X79.080 Y50.002 E4.91492
G1 X80.082 Y49.846 E4.93445
G1 X81.041 Y49.800 E4.95292
G1 X81.979 Y49.852 E4.97100
G1 X82.920 Y50.002 E4.98935
G1 X83.433 Y50.127 E4.99950
G1 X83.944 Y50.284 E5.00980
G1 X84.647 Y50.557 E5.02432
G1 X84.942 Y50.589 E5.03003
G1 X85.453 Y50.735 E5.04025
G1 X85.736 Y50.880 E5.04637
G1 X86.034 Y51.094 E5.05343
G1 X86.374 Y51.462 E5.06308
G1 X86.507 Y51.640 E5.06735
G1 X86.878 Y51.922 E5.07631
G1 X87.435 Y52.425 E5.09076
G1 X88.021 Y53.055 E5.10732
G1 X88.546 Y53.737 E5.12389
G1 X88.978 Y54.417 E5.13939
G1 X89.370 Y55.182 E5.15594
G1 X89.654 Y55.878 E5.17040
G1 X89.878 Y56.589 E5.18475
G1 X90.055 Y57.372 E5.20021
G1 X90.126 Y57.908 E5.21061
G1 X90.290 Y58.311 E5.21899
G1 X90.365 Y58.606 E5.22484
G1 X90.400 Y59.045 E5.23332
G1 X90.365 Y59.394 E5.24008
G1 X90.290 Y59.689 E5.24593
G1 X90.126 Y60.092 E5.25431
G1 X90.055 Y60.628 E5.26471
G1 X89.878 Y61.411 E5.28017
G1 X89.654 Y62.122 E5.29452
G1 X89.370 Y62.818 E5.30898
G1 X88.978 Y63.583 E5.32553
G1 X88.547 Y64.262 E5.34101
G1 X88.056 Y64.904 E5.35656
G1 X87.437 Y65.574 E5.37412
G1 X86.878 Y66.078 E5.38861
G1 X86.507 Y66.360 E5.39757
G1 X86.374 Y66.538 E5.40184
G1 X86.034 Y66.906 E5.41148
G1 X85.737 Y67.120 E5.41853
G1 X85.327 Y67.313 E5.42726
G1 X84.942 Y67.411 E5.43489
G1 X84.647 Y67.443 E5.44060
G1 X83.947 Y67.715 E5.45507
G1 X83.450 Y67.868 E5.46507
G1 X82.923 Y67.997 E5.47552
G1 X81.979 Y68.148 E5.49392
G1 X80.996 Y68.200 E5.51287
G1 X80.025 Y68.148 E5.53159
G1 X79.135 Y68.009 E5.54892
G1 X78.622 Y67.887 E5.55907
G1 X78.109 Y67.734 E5.56937
G1 X77.353 Y67.443 E5.58497
G1 X77.058 Y67.411 E5.59069
G1 X76.547 Y67.265 E5.60090
G1 X76.263 Y67.120 E5.60704
G1 X75.966 Y66.906 E5.61409
G1 X75.626 Y66.538 E5.62373
G1 X75.494 Y66.362 E5.62796
G1 X75.166 Y66.114 E5.63587
G1 X74.605 Y65.614 E5.65034
G1 X73.979 Y64.946 E5.66795
G1 X73.487 Y64.310 E5.68344
G1 X73.049 Y63.629 E5.69902
G1 X72.654 Y62.870 E5.71548
G1 X72.385 Y62.224 E5.72896
G1 X72.685 Y62.052 F7800.000
G1 X72.468 Y61.379 E5.74257 F540.000
G1 X72.282 Y60.563 E5.75869
G1 X72.205 Y59.979 E5.77002
G1 X72.039 Y59.590 E5.77816
G1 X71.971 Y59.324 E5.78344
G1 X71.943 Y59.032 E5.78909
G1 X71.971 Y58.676 E5.79597
G1 X72.063 Y58.340 E5.80268
G1 X72.205 Y58.021 E5.80938
G1 X72.281 Y57.439 E5.82068
G1 X72.454 Y56.671 E5.83584
G1 X72.666 Y56.000 E5.84938
G1 X72.938 Y55.331 E5.86328
G1 X73.316 Y54.594 E5.87922
G1 X73.738 Y53.929 E5.89438
G1 X74.211 Y53.311 E5.90936
G1 X74.799 Y52.676 E5.92602
G1 X75.347 Y52.182 E5.94021
